(G-CODE GENERATED BY FLATCAM v8.994 - www.flatcam.org - Version Date: 2020/11/7)

(Name: hack_soc_shield-PTH.drl_cnc)
(Type: G-code from Geometry)
(Units: MM)

(Created on Friday, 26 January 2024 at 20:11)

(This preprocessor is the default preprocessor used by FlatCAM.)
(It is made to work with MACH3 compatible motion controllers.)


(TOOLS DIAMETER: )
(Tool: 1 -> Dia: 0.70104)
(Tool: 2 -> Dia: 0.8000999999999999)
(Tool: 3 -> Dia: 0.89916)
(Tool: 4 -> Dia: 1.0007599999999999)
(Tool: 5 -> Dia: 1.0998199999999998)

(FEEDRATE Z: )
(Tool: 1 -> Feedrate: 200.0)
(Tool: 2 -> Feedrate: 200.0)
(Tool: 3 -> Feedrate: 200.0)
(Tool: 4 -> Feedrate: 200.0)
(Tool: 5 -> Feedrate: 200.0)

(FEEDRATE RAPIDS: )
(Tool: 1 -> Feedrate Rapids: 1500)
(Tool: 2 -> Feedrate Rapids: 1500)
(Tool: 3 -> Feedrate Rapids: 1500)
(Tool: 4 -> Feedrate Rapids: 1500)
(Tool: 5 -> Feedrate Rapids: 1500)

(Z_CUT: )
(Tool: 1 -> Z_Cut: -1.8)
(Tool: 2 -> Z_Cut: -1.8)
(Tool: 3 -> Z_Cut: -1.8)
(Tool: 4 -> Z_Cut: -1.8)
(Tool: 5 -> Z_Cut: -1.8)

(Tools Offset: )
(Tool: 1 -> Offset Z: 0.0)
(Tool: 2 -> Offset Z: 0.0)

(Z_MOVE: )
(Tool: 1 -> Z_Move: 1.0)
(Tool: 2 -> Z_Move: 1.0)
(Tool: 3 -> Z_Move: 1.0)
(Tool: 4 -> Z_Move: 1.0)
(Tool: 5 -> Z_Move: 1.0)

(Z Toolchange: 15 mm)
(X,Y Toolchange: 0.0000, 0.0000 mm)
(Z Start: None mm)
(Z End: 0.5 mm)
(X,Y End: None mm)
(Steps per circle: 64)
(Preprocessor Excellon: default)

(X range:    1.3538 ...   74.8462  mm)
(Y range:    2.4460 ...   72.2808  mm)

(Spindle Speed: 0 RPM)
G21
G90
G94

G01 F200.00

M5
G00 Z15.0000
T1
G00 X0.0000 Y0.0000                
M6
(MSG, Change to Tool Dia = 0.7010 ||| Total drills for tool T1 = 24)
M0
G00 Z15.0000

G01 F200.00
M03
G00 X61.7728 Y30.9880
G01 Z-1.8000
G01 Z0
G00 Z1.0000
G00 X15.3746 Y66.5531
G01 Z-1.8000
G01 Z0
G00 Z1.0000
G00 X15.3746 Y69.0931
G01 Z-1.8000
G01 Z0
G00 Z1.0000
G00 X17.3228 Y8.1280
G01 Z-1.8000
G01 Z0
G00 Z1.0000
G00 X17.3228 Y13.1293
G01 Z-1.8000
G01 Z0
G00 Z1.0000
G00 X22.9946 Y66.5531
G01 Z-1.8000
G01 Z0
G00 Z1.0000
G00 X22.9946 Y69.0931
G01 Z-1.8000
G01 Z0
G00 Z1.0000
G00 X33.8328 Y13.2080
G01 Z-1.8000
G01 Z0
G00 Z1.0000
G00 X33.8328 Y15.7480
G01 Z-1.8000
G01 Z0
G00 Z1.0000
G00 X33.8328 Y18.2880
G01 Z-1.8000
G01 Z0
G00 Z1.0000
G00 X41.4528 Y13.2080
G01 Z-1.8000
G01 Z0
G00 Z1.0000
G00 X41.4528 Y15.7480
G01 Z-1.8000
G01 Z0
G00 Z1.0000
G00 X41.4528 Y18.2880
G01 Z-1.8000
G01 Z0
G00 Z1.0000
G00 X58.5978 Y8.1686
G01 Z-1.8000
G01 Z0
G00 Z1.0000
G00 X58.5978 Y13.1674
G01 Z-1.8000
G01 Z0
G00 Z1.0000
G00 X58.5978 Y23.3680
G01 Z-1.8000
G01 Z0
G00 Z1.0000
G00 X58.5978 Y28.3693
G01 Z-1.8000
G01 Z0
G00 Z1.0000
G00 X14.1478 Y5.5880
G01 Z-1.8000
G01 Z0
G00 Z1.0000
G00 X19.2278 Y5.5880
G01 Z-1.8000
G01 Z0
G00 Z1.0000
G00 X46.5328 Y33.5280
G01 Z-1.8000
G01 Z0
G00 Z1.0000
G00 X46.5328 Y38.6080
G01 Z-1.8000
G01 Z0
G00 Z1.0000
G00 X56.6928 Y15.7480
G01 Z-1.8000
G01 Z0
G00 Z1.0000
G00 X56.6928 Y30.9880
G01 Z-1.8000
G01 Z0
G00 Z1.0000
G00 X61.7728 Y15.7480
G01 Z-1.8000
G01 Z0
G00 Z1.0000
M05
G00 Z0.50


