(G-CODE GENERATED BY FLATCAM v8.994 - www.flatcam.org - Version Date: 2020/11/7)

(Name: hack_soc_shield-F_Cu.gbr_noncopper_mt_paint_cnc)
(Type: G-code from Geometry)
(Units: MM)

(Created on Friday, 26 January 2024 at 20:07)

(This preprocessor is the default preprocessor used by FlatCAM.)
(It is made to work with MACH3 compatible motion controllers.)

(TOOL DIAMETER: 0.3 mm)
(Feedrate_XY: 600.0 mm/min)
(Feedrate_Z: 300.0 mm/min)
(Feedrate rapids 3000.0 mm/min)

(Z_Cut: -0.1 mm)
(Z_Move: 1.0 mm)
(Z Start: None mm)
(Z End: 15.0 mm)
(X,Y End: None mm)
(Steps per circle: 64)
(Preprocessor Geometry: default)

(X range:    0.6863 ...   75.5706  mm)
(Y range:    1.7787 ...   72.8780  mm)

(Spindle Speed: 0.0 RPM)
G21
G90
G94

G01 F600.00

M5
G00 Z15.0000
G00 X0.0000 Y0.0000
T4
M6    
(MSG, Change to Tool Dia = 0.3000)
M0
G00 Z15.0000

M03
G01 F600.00
G00 X0.7950 Y2.4964
G01 F300.00
G01 Z-0.1000
G01 F600.00
G01 X0.9064 Y2.4964
G01 X0.9240 Y2.4594
G01 X0.9305 Y2.4469
G01 X0.9757 Y2.3713
G01 X0.9839 Y2.3588
G01 X1.0363 Y2.2880
G01 X1.0439 Y2.2784
G01 X1.1098 Y2.2057
G01 X1.1186 Y2.1972
G01 X1.1860 Y2.1363
G01 X1.1956 Y2.1287
G01 X1.2664 Y2.0763
G01 X1.2789 Y2.0681
G01 X1.3545 Y2.0229
G01 X1.3670 Y2.0164
G01 X1.4037 Y1.9990
G01 X1.4039 Y1.8874
G01 X1.2768 Y1.9467
G01 X1.1120 Y2.0621
G01 X0.9697 Y2.2044
G01 X0.8543 Y2.3692
G01 X0.7950 Y2.4964
G00 Z1.0000
G00 X0.7950 Y2.4964
G01 F300.00
G01 Z-0.1000
G01 F600.00
G01 X0.9541 Y2.5714
G00 Z1.0000
G00 X0.9541 Y2.5714
G01 F300.00
G01 Z-0.1000
G01 F600.00
G01 X0.9930 Y2.4890
G01 X0.9972 Y2.4814
G01 X1.0420 Y2.4068
G01 X1.0468 Y2.3997
G01 X1.0988 Y2.3298
G01 X1.1043 Y2.3232
G01 X1.1629 Y2.2587
G01 X1.1690 Y2.2527
G01 X1.2336 Y2.1943
G01 X1.2403 Y2.1889
G01 X1.3103 Y2.1371
G01 X1.3175 Y2.1324
G01 X1.3923 Y2.0877
G01 X1.3999 Y2.0838
G01 X1.4790 Y2.0465
G01 X1.4790 Y1.7787
G01 X1.4334 Y1.7909
G01 X1.2392 Y1.8815
G01 X1.0636 Y2.0044
G01 X0.9120 Y2.1560
G01 X0.7891 Y2.3316
G01 X0.6985 Y2.5258
G01 X0.6863 Y2.5714
G01 X0.9541 Y2.5714
G00 Z1.0000
G00 X0.9541 Y3.3214
G01 F300.00
G01 Z-0.1000
G01 F600.00
G01 X0.6863 Y3.3214
G01 X0.6985 Y3.3670
G01 X0.7891 Y3.5612
G01 X0.9120 Y3.7368
G01 X1.0636 Y3.8884
G01 X1.2392 Y4.0113
G01 X1.4371 Y4.1036
G01 X1.4507 Y4.1096
G01 X1.4614 Y4.1155
G01 X1.4722 Y4.1232
G01 X1.5180 Y4.1528
G01 X1.5269 Y4.1594
G01 X1.5352 Y4.1668
G01 X1.5454 Y4.1778
G01 X1.5531 Y4.1883
G01 X1.5596 Y4.1996
G01 X1.5650 Y4.2115
G01 X1.5893 Y4.2744
G01 X1.5928 Y4.2849
G01 X1.5964 Y4.3015
G01 X1.5976 Y4.3126
G01 X1.5977 Y4.3237
G01 X1.5965 Y4.3367
G01 X1.5941 Y4.3496
G01 X1.5763 Y4.4166
G01 X1.5723 Y4.4291
G01 X1.5671 Y4.4410
G01 X1.5595 Y4.4540
G01 X1.5516 Y4.4645
G01 X1.5413 Y4.4755
G01 X1.5345 Y4.4815
G01 X1.4823 Y4.5241
G01 X1.4700 Y4.5329
G01 X1.4604 Y4.5384
G01 X1.4503 Y4.5430
G01 X1.3949 Y4.5645
G01 X1.2334 Y4.6645
G01 X1.0929 Y4.7926
G01 X0.9784 Y4.9442
G01 X0.8937 Y5.1144
G01 X0.8416 Y5.2972
G01 X0.8241 Y5.4864
G01 X0.8416 Y5.6756
G01 X0.8937 Y5.8584
G01 X0.9784 Y6.0286
G01 X1.0929 Y6.1802
G01 X1.2333 Y6.3083
G01 X1.3949 Y6.4083
G01 X1.5722 Y6.4770
G01 X1.7590 Y6.5119
G01 X1.9490 Y6.5119
G01 X2.1358 Y6.4770
G01 X2.1884 Y6.4566
G01 X2.1972 Y6.4536
G01 X2.2252 Y6.4460
G01 X2.2361 Y6.4437
G01 X2.2453 Y6.4427
G01 X2.2604 Y6.4423
G01 X2.2734 Y6.4434
G01 X2.3419 Y6.4542
G01 X2.3528 Y6.4565
G01 X2.3672 Y6.4610
G01 X2.3791 Y6.4663
G01 X2.3905 Y6.4729
G01 X2.4010 Y6.4806
G01 X2.4108 Y6.4893
G01 X2.4598 Y6.5384
G01 X2.4672 Y6.5467
G01 X2.4738 Y6.5556
G01 X2.4795 Y6.5651
G01 X2.4831 Y6.5721
G01 X2.4874 Y6.5824
G01 X2.4908 Y6.5930
G01 X2.4935 Y6.6058
G01 X2.5045 Y6.6762
G01 X2.5054 Y6.6853
G01 X2.5055 Y6.6945
G01 X2.5045 Y6.7075
G01 X2.5018 Y6.7223
G01 X2.4979 Y6.7348
G01 X2.4919 Y6.7486
G01 X2.4604 Y6.8104
G01 X2.4548 Y6.8200
G01 X2.4483 Y6.8290
G01 X2.4384 Y6.8403
G01 X2.3132 Y6.9655
G01 X2.3061 Y6.9720
G01 X2.2969 Y6.9792
G01 X2.2635 Y7.0026
G01 X2.2563 Y7.0071
G01 X2.2488 Y7.0110
G01 X2.2377 Y7.0157
G01 X2.2243 Y7.0198
G01 X2.2106 Y7.0224
G01 X2.1419 Y7.0313
G01 X2.1308 Y7.0321
G01 X2.1216 Y7.0319
G01 X2.1158 Y7.0316
G01 X2.1047 Y7.0300
G01 X1.9490 Y7.0009
G01 X1.7590 Y7.0009
G01 X1.5722 Y7.0358
G01 X1.3949 Y7.1045
G01 X1.2334 Y7.2045
G01 X1.0929 Y7.3326
G01 X0.9784 Y7.4842
G01 X0.8937 Y7.6544
G01 X0.8416 Y7.8372
G01 X0.8241 Y8.0264
G01 X0.8416 Y8.2156
G01 X0.8937 Y8.3984
G01 X0.9784 Y8.5686
G01 X1.0929 Y8.7202
G01 X1.2333 Y8.8483
G01 X1.3949 Y8.9483
G01 X1.5722 Y9.0170
G01 X1.7590 Y9.0519
G01 X1.9490 Y9.0519
G01 X2.1358 Y9.0170
G01 X2.3131 Y8.9483
G01 X2.4747 Y8.8483
G01 X2.6151 Y8.7202
G01 X2.7296 Y8.5686
G01 X2.8143 Y8.3984
G01 X2.8664 Y8.2156
G01 X2.8839 Y8.0264
G01 X2.8664 Y7.8372
G01 X2.8544 Y7.7951
G01 X2.8516 Y7.7818
G01 X2.8504 Y7.7704
G01 X2.8476 Y7.7235
G01 X2.8475 Y7.7102
G01 X2.8485 Y7.6990
G01 X2.8506 Y7.6879
G01 X2.8526 Y7.6802
G01 X2.8563 Y7.6695
G01 X2.8610 Y7.6593
G01 X2.8916 Y7.5992
G01 X2.8971 Y7.5896
G01 X2.9058 Y7.5773
G01 X2.9146 Y7.5676
G01 X3.7672 Y6.7150
G01 X3.7853 Y6.6993
G01 X3.7935 Y6.6928
G01 X3.8038 Y6.6862
G01 X3.8147 Y6.6806
G01 X3.8279 Y6.6754
G01 X3.8919 Y6.6546
G01 X3.9027 Y6.6517
G01 X3.9175 Y6.6492
G01 X3.9306 Y6.6485
G01 X10.0156 Y6.6485
G01 X10.0272 Y6.6493
G01 X10.0404 Y6.6515
G01 X10.0937 Y6.6643
G01 X10.1063 Y6.6682
G01 X10.1137 Y6.6712
G01 X10.1224 Y6.6755
G01 X10.1337 Y6.6824
G01 X10.1454 Y6.6915
G01 X10.1513 Y6.6970
G01 X10.2003 Y6.7460
G01 X10.2089 Y6.7559
G01 X10.2174 Y6.7683
G01 X10.2219 Y6.7763
G01 X10.2257 Y6.7846
G01 X10.2307 Y6.7988
G01 X10.2340 Y6.8135
G01 X10.2445 Y6.8800
G01 X10.2459 Y6.8950
G01 X10.2457 Y6.9081
G01 X10.2442 Y6.9210
G01 X10.2412 Y6.9338
G01 X10.2370 Y6.9462
G01 X10.2324 Y6.9563
G01 X10.2018 Y7.0163
G01 X10.1963 Y7.0260
G01 X10.1923 Y7.0319
G01 X10.1621 Y7.1004
G01 X10.1621 Y7.4700
G01 X10.1616 Y7.4793
G01 X10.1608 Y7.4866
G01 X10.1552 Y7.5217
G01 X10.1533 Y7.5316
G01 X10.1500 Y7.5429
G01 X10.1456 Y7.5538
G01 X10.1402 Y7.5643
G01 X10.1339 Y7.5742
G01 X10.0909 Y7.6333
G01 X10.0851 Y7.6403
G01 X10.0787 Y7.6469
G01 X10.0672 Y7.6566
G01 X10.0580 Y7.6629
G01 X10.0512 Y7.6668
G01 X10.0412 Y7.6717
G01 X10.0308 Y7.6756
G01 X9.9667 Y7.6964
G01 X9.9579 Y7.6989
G01 X9.9431 Y7.7016
G01 X9.9301 Y7.7025
G01 X8.7684 Y7.7025
G01 X8.7594 Y7.7022
G01 X8.7393 Y7.7005
G01 X8.7267 Y7.6987
G01 X8.6993 Y7.7016
G01 X8.6874 Y7.7023
G01 X8.6535 Y7.7025
G01 X8.6412 Y7.7055
G01 X8.6213 Y7.7092
G01 X8.6103 Y7.7107
G01 X8.5848 Y7.7208
G01 X8.5735 Y7.7248
G01 X8.5409 Y7.7341
G01 X8.5298 Y7.7403
G01 X8.5117 Y7.7492
G01 X8.5015 Y7.7536
G01 X8.4744 Y7.7740
G01 X8.4644 Y7.7806
G01 X8.4409 Y7.7948
G01 X8.4045 Y7.8338
G01 X6.1648 Y10.0734
G01 X6.1457 Y10.0901
G01 X6.1375 Y10.0966
G01 X6.1272 Y10.1032
G01 X6.1179 Y10.1080
G01 X6.1049 Y10.1134
G01 X6.0391 Y10.1348
G01 X6.0283 Y10.1377
G01 X6.0226 Y10.1389
G01 X6.0115 Y10.1404
G01 X6.0004 Y10.1409
G01 X2.9326 Y10.1409
G01 X2.9221 Y10.1404
G01 X2.9150 Y10.1396
G01 X2.9029 Y10.1373
G01 X2.8525 Y10.1250
G01 X2.8398 Y10.1211
G01 X2.8291 Y10.1167
G01 X2.8189 Y10.1113
G01 X2.8093 Y10.1050
G01 X2.8002 Y10.0979
G01 X2.7931 Y10.0911
G01 X2.7669 Y10.0645
G01 X2.7578 Y10.0575
G01 X2.7502 Y10.0503
G01 X2.7409 Y10.0398
G01 X2.7332 Y10.0290
G01 X2.6151 Y9.8726
G01 X2.4746 Y9.7445
G01 X2.3131 Y9.6445
G01 X2.1358 Y9.5758
G01 X1.9490 Y9.5409
G01 X1.7590 Y9.5409
G01 X1.5722 Y9.5758
G01 X1.3949 Y9.6445
G01 X1.2334 Y9.7445
G01 X1.0929 Y9.8726
G01 X0.9784 Y10.0242
G01 X0.8937 Y10.1944
G01 X0.8416 Y10.3772
G01 X0.8241 Y10.5664
G01 X0.8416 Y10.7556
G01 X0.8937 Y10.9384
G01 X0.9784 Y11.1086
G01 X1.0929 Y11.2602
G01 X1.2333 Y11.3883
G01 X1.3949 Y11.4883
G01 X1.5722 Y11.5570
G01 X1.7590 Y11.5919
G01 X1.9490 Y11.5919
G01 X2.1358 Y11.5570
G01 X2.3131 Y11.4883
G01 X2.4746 Y11.3883
G01 X2.6151 Y11.2602
G01 X2.7332 Y11.1038
G01 X2.7408 Y11.0930
G01 X2.7476 Y11.0851
G01 X2.7569 Y11.0761
G01 X2.7786 Y11.0510
G01 X2.7896 Y11.0408
G01 X2.7989 Y11.0339
G01 X2.8072 Y11.0288
G01 X2.8175 Y11.0236
G01 X2.8267 Y11.0200
G01 X2.8959 Y10.9974
G01 X2.9066 Y10.9946
G01 X2.9176 Y10.9928
G01 X2.9326 Y10.9919
G01 X6.2172 Y10.9919
G01 X6.2262 Y10.9922
G01 X6.2463 Y10.9939
G01 X6.2589 Y10.9957
G01 X6.2863 Y10.9928
G01 X6.2982 Y10.9921
G01 X6.3321 Y10.9919
G01 X6.3429 Y10.9892
G01 X6.3627 Y10.9854
G01 X6.3753 Y10.9837
G01 X6.4069 Y10.9714
G01 X6.4183 Y10.9678
G01 X6.4447 Y10.9603
G01 X6.4544 Y10.9549
G01 X6.4724 Y10.9459
G01 X6.4841 Y10.9408
G01 X6.5060 Y10.9242
G01 X6.5158 Y10.9173
G01 X6.5446 Y10.8996
G01 X6.5811 Y10.8606
G01 X8.8208 Y8.6210
G01 X8.8399 Y8.6043
G01 X8.8481 Y8.5978
G01 X8.8584 Y8.5912
G01 X8.8677 Y8.5864
G01 X8.8825 Y8.5804
G01 X8.9503 Y8.5585
G01 X8.9592 Y8.5562
G01 X8.9702 Y8.5544
G01 X8.9852 Y8.5535
G01 X9.9296 Y8.5535
G01 X9.9369 Y8.5538
G01 X9.9462 Y8.5548
G01 X9.9813 Y8.5604
G01 X9.9912 Y8.5623
G01 X10.0008 Y8.5651
G01 X10.0074 Y8.5675
G01 X10.0166 Y8.5715
G01 X10.0254 Y8.5762
G01 X10.0353 Y8.5827
G01 X10.0929 Y8.6247
G01 X10.0999 Y8.6305
G01 X10.1065 Y8.6369
G01 X10.1162 Y8.6484
G01 X10.1245 Y8.6609
G01 X10.1297 Y8.6708
G01 X10.1320 Y8.6762
G01 X10.1352 Y8.6848
G01 X10.1566 Y8.7507
G01 X10.1594 Y8.7615
G01 X10.1609 Y8.7705
G01 X10.1621 Y8.7855
G01 X10.1621 Y9.1556
G01 X10.1924 Y9.2242
G01 X10.1970 Y9.2311
G01 X10.2236 Y9.2745
G01 X10.2306 Y9.2876
G01 X10.2337 Y9.2950
G01 X10.2363 Y9.3026
G01 X10.2392 Y9.3137
G01 X10.2413 Y9.3267
G01 X10.2420 Y9.3364
G01 X10.2420 Y9.4072
G01 X10.2417 Y9.4163
G01 X10.2397 Y9.4312
G01 X10.2359 Y9.4458
G01 X10.2304 Y9.4598
G01 X10.2232 Y9.4730
G01 X10.2182 Y9.4807
G01 X10.1774 Y9.5367
G01 X10.1690 Y9.5468
G01 X10.1581 Y9.5571
G01 X10.1509 Y9.5628
G01 X10.1433 Y9.5679
G01 X10.1301 Y9.5751
G01 X10.1161 Y9.5806
G01 X10.0520 Y9.6014
G01 X10.0394 Y9.6048
G01 X10.0264 Y9.6068
G01 X10.0134 Y9.6075
G01 X8.8350 Y9.6075
G01 X8.8259 Y9.6072
G01 X8.8058 Y9.6055
G01 X8.7932 Y9.6037
G01 X8.7659 Y9.6066
G01 X8.7539 Y9.6073
G01 X8.7200 Y9.6075
G01 X8.7077 Y9.6105
G01 X8.6878 Y9.6142
G01 X8.6768 Y9.6157
G01 X8.6452 Y9.6280
G01 X8.6339 Y9.6316
G01 X8.6074 Y9.6391
G01 X8.5963 Y9.6453
G01 X8.5782 Y9.6542
G01 X8.5680 Y9.6586
G01 X8.5461 Y9.6752
G01 X8.5363 Y9.6821
G01 X8.5075 Y9.6998
G01 X8.4710 Y9.7388
G01 X5.5964 Y12.6134
G01 X5.5772 Y12.6301
G01 X5.5690 Y12.6366
G01 X5.5587 Y12.6432
G01 X5.5494 Y12.6480
G01 X5.5364 Y12.6534
G01 X5.4706 Y12.6748
G01 X5.4599 Y12.6777
G01 X5.4541 Y12.6789
G01 X5.4431 Y12.6804
G01 X5.4319 Y12.6809
G01 X2.9326 Y12.6809
G01 X2.9185 Y12.6801
G01 X2.9029 Y12.6773
G01 X2.8525 Y12.6650
G01 X2.8414 Y12.6617
G01 X2.8307 Y12.6574
G01 X2.8204 Y12.6522
G01 X2.8107 Y12.6460
G01 X2.8002 Y12.6379
G01 X2.7931 Y12.6311
G01 X2.7669 Y12.6045
G01 X2.7578 Y12.5975
G01 X2.7502 Y12.5903
G01 X2.7409 Y12.5798
G01 X2.7332 Y12.5690
G01 X2.6151 Y12.4126
G01 X2.4746 Y12.2845
G01 X2.3131 Y12.1845
G01 X2.1358 Y12.1158
G01 X1.9490 Y12.0809
G01 X1.7590 Y12.0809
G01 X1.5722 Y12.1158
G01 X1.3949 Y12.1845
G01 X1.2334 Y12.2845
G01 X1.0929 Y12.4126
G01 X0.9784 Y12.5642
G01 X0.8937 Y12.7344
G01 X0.8416 Y12.9172
G01 X0.8241 Y13.1064
G01 X0.8416 Y13.2956
G01 X0.8937 Y13.4784
G01 X0.9784 Y13.6486
G01 X1.0929 Y13.8002
G01 X1.2333 Y13.9283
G01 X1.3949 Y14.0283
G01 X1.5722 Y14.0970
G01 X1.7590 Y14.1319
G01 X1.9490 Y14.1319
G01 X2.1358 Y14.0970
G01 X2.3131 Y14.0283
G01 X2.4746 Y13.9283
G01 X2.6151 Y13.8002
G01 X2.7332 Y13.6438
G01 X2.7408 Y13.6330
G01 X2.7476 Y13.6251
G01 X2.7569 Y13.6161
G01 X2.7743 Y13.5957
G01 X2.7835 Y13.5861
G01 X2.7909 Y13.5797
G01 X2.8003 Y13.5730
G01 X2.8103 Y13.5671
G01 X2.8207 Y13.5622
G01 X2.8299 Y13.5588
G01 X2.8940 Y13.5380
G01 X2.9047 Y13.5351
G01 X2.9105 Y13.5339
G01 X2.9215 Y13.5324
G01 X2.9326 Y13.5319
G01 X5.6487 Y13.5319
G01 X5.6577 Y13.5322
G01 X5.6779 Y13.5339
G01 X5.6905 Y13.5357
G01 X5.7178 Y13.5328
G01 X5.7297 Y13.5321
G01 X5.7636 Y13.5319
G01 X5.7744 Y13.5292
G01 X5.7942 Y13.5254
G01 X5.8068 Y13.5237
G01 X5.8384 Y13.5114
G01 X5.8498 Y13.5078
G01 X5.8762 Y13.5003
G01 X5.8859 Y13.4949
G01 X5.9040 Y13.4859
G01 X5.9156 Y13.4808
G01 X5.9375 Y13.4642
G01 X5.9473 Y13.4573
G01 X5.9762 Y13.4396
G01 X6.0126 Y13.4006
G01 X8.8873 Y10.5260
G01 X8.9064 Y10.5093
G01 X8.9147 Y10.5028
G01 X8.9250 Y10.4962
G01 X8.9359 Y10.4906
G01 X8.9490 Y10.4854
G01 X9.0131 Y10.4646
G01 X9.0257 Y10.4612
G01 X9.0386 Y10.4592
G01 X9.0517 Y10.4585
G01 X11.6138 Y10.4585
G01 X11.6236 Y10.4589
G01 X11.6443 Y10.4606
G01 X11.6547 Y10.4621
G01 X11.6666 Y10.4651
G01 X11.6764 Y10.4684
G01 X11.6860 Y10.4727
G01 X11.7494 Y10.5050
G01 X11.7622 Y10.5128
G01 X11.7696 Y10.5183
G01 X11.7779 Y10.5257
G01 X12.6640 Y11.4118
G01 X12.6807 Y11.4309
G01 X12.6882 Y11.4406
G01 X12.6947 Y11.4510
G01 X12.7009 Y11.4637
G01 X12.7046 Y11.4735
G01 X12.7265 Y11.5413
G01 X12.7288 Y11.5502
G01 X12.7306 Y11.5612
G01 X12.7315 Y11.5762
G01 X12.7315 Y11.6160
G01 X12.7305 Y11.6293
G01 X12.7280 Y11.6430
G01 X12.7157 Y11.6941
G01 X12.7130 Y11.7034
G01 X12.7101 Y11.7109
G01 X12.7037 Y11.7243
G01 X12.6956 Y11.7369
G01 X12.6907 Y11.7432
G01 X12.6842 Y11.7504
G01 X12.6354 Y11.7993
G01 X12.6272 Y11.8068
G01 X12.6151 Y11.8157
G01 X12.6055 Y11.8214
G01 X12.6002 Y11.8240
G01 X12.5918 Y11.8276
G01 X12.5831 Y11.8305
G01 X12.5685 Y11.8340
G01 X12.4981 Y11.8452
G01 X12.4870 Y11.8463
G01 X12.4739 Y11.8463
G01 X12.4628 Y11.8452
G01 X12.4519 Y11.8431
G01 X12.4443 Y11.8411
G01 X12.4338 Y11.8374
G01 X12.4237 Y11.8328
G01 X12.3637 Y11.8022
G01 X12.3557 Y11.7977
G01 X12.3433 Y11.7892
G01 X12.3335 Y11.7806
G01 X12.2673 Y11.7145
G01 X12.2034 Y11.6863
G01 X11.5706 Y11.6863
G01 X11.4840 Y11.7245
G01 X11.4662 Y11.7311
G01 X11.4538 Y11.7344
G01 X11.4427 Y11.7362
G01 X11.4316 Y11.7370
G01 X11.3626 Y11.7380
G01 X11.3495 Y11.7375
G01 X11.3346 Y11.7353
G01 X11.3239 Y11.7325
G01 X11.3134 Y11.7287
G01 X11.2981 Y11.7212
G01 X11.2888 Y11.7152
G01 X11.2337 Y11.6764
G01 X11.2264 Y11.6708
G01 X11.2154 Y11.6606
G01 X11.2068 Y11.6507
G01 X11.1643 Y11.5939
G01 X11.0780 Y11.5293
G01 X10.9920 Y11.4972
G01 X10.9920 Y11.7813
G01 X10.9993 Y11.7908
G01 X11.0048 Y11.7997
G01 X11.0083 Y11.8062
G01 X11.0126 Y11.8157
G01 X11.0160 Y11.8255
G01 X11.0190 Y11.8374
G01 X11.0208 Y11.8495
G01 X11.0214 Y11.8600
G01 X11.0214 Y13.8430
G01 X11.0208 Y13.8553
G01 X11.0193 Y13.8656
G01 X11.0165 Y13.8775
G01 X11.0132 Y13.8874
G01 X11.0104 Y13.8942
G01 X11.0048 Y13.9051
G01 X10.9993 Y13.9140
G01 X10.9920 Y13.9235
G01 X10.9920 Y14.2166
G01 X11.0561 Y14.2283
G01 X11.0647 Y14.2302
G01 X11.0701 Y14.2317
G01 X11.0802 Y14.2353
G01 X11.0932 Y14.2415
G01 X11.1055 Y14.2491
G01 X11.1125 Y14.2544
G01 X11.1191 Y14.2602
G01 X11.1695 Y14.3105
G01 X11.1770 Y14.3187
G01 X11.1859 Y14.3308
G01 X11.1925 Y14.3421
G01 X11.1978 Y14.3541
G01 X11.2023 Y14.3684
G01 X11.2046 Y14.3793
G01 X11.2156 Y14.4497
G01 X11.2165 Y14.4589
G01 X11.2166 Y14.4680
G01 X11.2156 Y14.4811
G01 X11.2144 Y14.4888
G01 X11.2118 Y14.4996
G01 X11.2083 Y14.5102
G01 X11.2030 Y14.5222
G01 X11.1724 Y14.5822
G01 X11.1679 Y14.5902
G01 X11.1594 Y14.6026
G01 X11.1508 Y14.6124
G01 X10.6098 Y15.1534
G01 X10.5907 Y15.1701
G01 X10.5810 Y15.1776
G01 X10.5706 Y15.1841
G01 X10.5579 Y15.1903
G01 X10.5481 Y15.1940
G01 X10.4803 Y15.2159
G01 X10.4714 Y15.2182
G01 X10.4604 Y15.2200
G01 X10.4454 Y15.2209
G01 X2.9326 Y15.2209
G01 X2.9221 Y15.2204
G01 X2.9150 Y15.2196
G01 X2.9029 Y15.2173
G01 X2.8525 Y15.2050
G01 X2.8414 Y15.2017
G01 X2.8307 Y15.1974
G01 X2.8204 Y15.1922
G01 X2.8107 Y15.1860
G01 X2.8029 Y15.1801
G01 X2.7943 Y15.1724
G01 X2.7669 Y15.1445
G01 X2.7593 Y15.1386
G01 X2.7537 Y15.1338
G01 X2.7476 Y15.1277
G01 X2.7420 Y15.1212
G01 X2.7332 Y15.1090
G01 X2.6151 Y14.9526
G01 X2.4746 Y14.8245
G01 X2.3131 Y14.7245
G01 X2.1358 Y14.6558
G01 X1.9490 Y14.6209
G01 X1.7590 Y14.6209
G01 X1.5722 Y14.6558
G01 X1.3949 Y14.7245
G01 X1.2334 Y14.8245
G01 X1.0929 Y14.9526
G01 X0.9784 Y15.1042
G01 X0.8937 Y15.2744
G01 X0.8416 Y15.4572
G01 X0.8241 Y15.6464
G01 X0.8416 Y15.8356
G01 X0.8937 Y16.0184
G01 X0.9784 Y16.1886
G01 X1.0929 Y16.3402
G01 X1.2333 Y16.4683
G01 X1.3949 Y16.5683
G01 X1.5722 Y16.6370
G01 X1.7590 Y16.6719
G01 X1.9490 Y16.6719
G01 X2.1358 Y16.6370
G01 X2.3131 Y16.5683
G01 X2.4746 Y16.4683
G01 X2.6151 Y16.3402
G01 X2.7332 Y16.1838
G01 X2.7408 Y16.1730
G01 X2.7476 Y16.1651
G01 X2.7569 Y16.1561
G01 X2.7786 Y16.1310
G01 X2.7896 Y16.1208
G01 X2.7989 Y16.1139
G01 X2.8072 Y16.1088
G01 X2.8175 Y16.1036
G01 X2.8267 Y16.1000
G01 X2.8959 Y16.0774
G01 X2.9086 Y16.0742
G01 X2.9215 Y16.0724
G01 X2.9326 Y16.0719
G01 X10.6622 Y16.0719
G01 X10.6712 Y16.0722
G01 X10.6913 Y16.0739
G01 X10.7039 Y16.0757
G01 X10.7313 Y16.0728
G01 X10.7432 Y16.0721
G01 X10.7771 Y16.0719
G01 X10.7879 Y16.0692
G01 X10.8077 Y16.0654
G01 X10.8203 Y16.0637
G01 X10.8519 Y16.0514
G01 X10.8633 Y16.0478
G01 X10.8897 Y16.0403
G01 X10.8994 Y16.0349
G01 X10.9174 Y16.0259
G01 X10.9291 Y16.0208
G01 X10.9510 Y16.0042
G01 X10.9608 Y15.9973
G01 X10.9896 Y15.9796
G01 X11.0261 Y15.9406
G01 X12.1480 Y14.8188
G01 X12.1546 Y14.8126
G01 X12.1700 Y14.7996
G01 X12.1802 Y14.7919
G01 X12.1975 Y14.7706
G01 X12.2054 Y14.7616
G01 X12.2292 Y14.7375
G01 X12.2359 Y14.7267
G01 X12.2472 Y14.7100
G01 X12.2540 Y14.7012
G01 X12.2649 Y14.6760
G01 X12.2701 Y14.6652
G01 X12.2866 Y14.6356
G01 X12.2895 Y14.6249
G01 X12.2959 Y14.6057
G01 X12.3006 Y14.5939
G01 X12.3043 Y14.5667
G01 X12.3064 Y14.5549
G01 X12.3142 Y14.5219
G01 X12.3125 Y14.4686
G01 X12.3125 Y14.0910
G01 X12.3135 Y14.0755
G01 X12.3160 Y14.0618
G01 X12.3278 Y14.0124
G01 X12.3305 Y14.0030
G01 X12.3359 Y13.9891
G01 X12.3403 Y13.9805
G01 X12.3445 Y13.9736
G01 X12.3522 Y13.9629
G01 X12.3598 Y13.9544
G01 X12.4100 Y13.9041
G01 X12.4215 Y13.8944
G01 X12.4323 Y13.8870
G01 X12.4403 Y13.8825
G01 X12.4486 Y13.8787
G01 X12.4628 Y13.8737
G01 X12.4755 Y13.8708
G01 X12.5440 Y13.8599
G01 X12.5570 Y13.8585
G01 X12.5681 Y13.8585
G01 X12.5792 Y13.8594
G01 X12.5870 Y13.8606
G01 X12.5978 Y13.8632
G01 X12.6083 Y13.8667
G01 X12.6185 Y13.8711
G01 X12.6803 Y13.9026
G01 X12.6917 Y13.9091
G01 X12.7022 Y13.9168
G01 X12.7106 Y13.9242
G01 X12.7767 Y13.9903
G01 X12.8406 Y14.0185
G01 X13.4734 Y14.0185
G01 X13.5373 Y13.9903
G01 X13.6020 Y13.9256
G01 X13.6123 Y13.9163
G01 X13.6251 Y13.9074
G01 X13.6685 Y13.8808
G01 X13.6801 Y13.8745
G01 X13.6890 Y13.8707
G01 X13.6999 Y13.8670
G01 X13.7110 Y13.8644
G01 X13.7224 Y13.8629
G01 X13.7338 Y13.8624
G01 X13.8031 Y13.8624
G01 X13.8181 Y13.8636
G01 X13.8272 Y13.8651
G01 X13.8360 Y13.8674
G01 X13.8502 Y13.8724
G01 X13.8620 Y13.8781
G01 X13.8747 Y13.8862
G01 X13.9307 Y13.9270
G01 X13.9393 Y13.9341
G01 X13.9472 Y13.9419
G01 X13.9556 Y13.9519
G01 X13.9619 Y13.9611
G01 X13.9658 Y13.9679
G01 X13.9707 Y13.9779
G01 X13.9746 Y13.9883
G01 X13.9954 Y14.0524
G01 X13.9992 Y14.0670
G01 X14.0008 Y14.0780
G01 X14.0015 Y14.0910
G01 X14.0015 Y14.8539
G01 X14.0007 Y14.8683
G01 X13.9970 Y14.8974
G01 X13.9949 Y14.9089
G01 X13.9911 Y14.9222
G01 X13.9868 Y14.9331
G01 X13.9841 Y14.9387
G01 X13.9782 Y14.9489
G01 X13.9397 Y15.0088
G01 X13.9343 Y15.0162
G01 X13.9283 Y15.0231
G01 X13.9174 Y15.0336
G01 X13.8049 Y15.1259
G01 X13.6955 Y15.2592
G01 X13.6142 Y15.4113
G01 X13.5642 Y15.5764
G01 X13.5473 Y15.7480
G01 X13.5642 Y15.9196
G01 X13.6142 Y16.0847
G01 X13.6955 Y16.2368
G01 X13.8049 Y16.3701
G01 X13.9382 Y16.4795
G01 X14.0903 Y16.5608
G01 X14.2461 Y16.6080
G01 X14.2534 Y16.6105
G01 X14.2743 Y16.6189
G01 X14.2841 Y16.6233
G01 X14.2950 Y16.6295
G01 X14.3052 Y16.6368
G01 X14.3160 Y16.6464
G01 X14.3664 Y16.6969
G01 X14.3724 Y16.7038
G01 X14.3790 Y16.7127
G01 X14.3866 Y16.7257
G01 X14.3927 Y16.7395
G01 X14.3960 Y16.7501
G01 X14.3980 Y16.7590
G01 X14.4093 Y16.8294
G01 X14.4106 Y16.8424
G01 X14.4106 Y16.8555
G01 X14.4093 Y16.8685
G01 X14.4066 Y16.8813
G01 X14.4018 Y16.8956
G01 X14.3972 Y16.9057
G01 X14.3657 Y16.9675
G01 X14.3590 Y16.9787
G01 X14.3498 Y16.9907
G01 X14.3436 Y16.9974
G01 X13.6487 Y17.6924
G01 X13.6426 Y17.6981
G01 X13.6284 Y17.7101
G01 X13.6202 Y17.7166
G01 X13.6083 Y17.7241
G01 X13.5957 Y17.7303
G01 X13.5859 Y17.7340
G01 X13.5181 Y17.7559
G01 X13.5092 Y17.7582
G01 X13.5002 Y17.7597
G01 X13.4852 Y17.7609
G01 X2.9281 Y17.7608
G01 X2.9167 Y17.7599
G01 X2.9051 Y17.7578
G01 X2.8525 Y17.7450
G01 X2.8431 Y17.7423
G01 X2.8323 Y17.7381
G01 X2.8219 Y17.7330
G01 X2.8121 Y17.7270
G01 X2.8029 Y17.7201
G01 X2.7943 Y17.7124
G01 X2.7669 Y17.6845
G01 X2.7593 Y17.6786
G01 X2.7537 Y17.6738
G01 X2.7476 Y17.6677
G01 X2.7420 Y17.6612
G01 X2.7332 Y17.6490
G01 X2.6151 Y17.4926
G01 X2.4746 Y17.3645
G01 X2.3131 Y17.2645
G01 X2.1358 Y17.1958
G01 X1.9490 Y17.1609
G01 X1.7590 Y17.1609
G01 X1.5722 Y17.1958
G01 X1.3949 Y17.2645
G01 X1.2334 Y17.3645
G01 X1.0929 Y17.4926
G01 X0.9784 Y17.6442
G01 X0.8937 Y17.8144
G01 X0.8416 Y17.9972
G01 X0.8241 Y18.1864
G01 X0.8416 Y18.3756
G01 X0.8937 Y18.5584
G01 X0.9784 Y18.7286
G01 X1.0929 Y18.8802
G01 X1.2333 Y19.0083
G01 X1.3949 Y19.1083
G01 X1.5722 Y19.1770
G01 X1.7590 Y19.2119
G01 X1.9490 Y19.2119
G01 X2.1358 Y19.1770
G01 X2.3131 Y19.1083
G01 X2.4746 Y19.0083
G01 X2.6151 Y18.8802
G01 X2.7332 Y18.7238
G01 X2.7408 Y18.7130
G01 X2.7476 Y18.7051
G01 X2.7569 Y18.6961
G01 X2.7786 Y18.6710
G01 X2.7896 Y18.6608
G01 X2.7989 Y18.6539
G01 X2.8087 Y18.6480
G01 X2.8191 Y18.6429
G01 X2.8283 Y18.6394
G01 X2.8959 Y18.6174
G01 X2.9086 Y18.6142
G01 X2.9235 Y18.6123
G01 X2.9326 Y18.6119
G01 X13.6999 Y18.6119
G01 X13.7090 Y18.6122
G01 X13.7291 Y18.6139
G01 X13.7417 Y18.6157
G01 X13.7690 Y18.6128
G01 X13.7810 Y18.6121
G01 X13.8149 Y18.6119
G01 X13.8256 Y18.6092
G01 X13.8455 Y18.6054
G01 X13.8581 Y18.6037
G01 X13.8896 Y18.5914
G01 X13.9010 Y18.5878
G01 X13.9275 Y18.5803
G01 X13.9371 Y18.5749
G01 X13.9552 Y18.5659
G01 X13.9669 Y18.5608
G01 X13.9888 Y18.5442
G01 X13.9986 Y18.5373
G01 X14.0274 Y18.5196
G01 X14.0639 Y18.4806
G01 X15.9380 Y16.6065
G01 X15.9446 Y16.6004
G01 X15.9600 Y16.5874
G01 X15.9702 Y16.5797
G01 X15.9875 Y16.5584
G01 X15.9954 Y16.5494
G01 X16.0192 Y16.5253
G01 X16.0259 Y16.5144
G01 X16.0372 Y16.4978
G01 X16.0440 Y16.4889
G01 X16.0549 Y16.4637
G01 X16.0601 Y16.4529
G01 X16.0766 Y16.4233
G01 X16.0795 Y16.4126
G01 X16.0859 Y16.3935
G01 X16.0906 Y16.3816
G01 X16.0943 Y16.3544
G01 X16.0964 Y16.3427
G01 X16.1042 Y16.3097
G01 X16.1025 Y16.2564
G01 X16.1025 Y13.7881
G01 X16.1029 Y13.7779
G01 X16.1051 Y13.7553
G01 X16.1074 Y13.7408
G01 X16.1107 Y13.7284
G01 X16.1161 Y13.7147
G01 X16.1202 Y13.7067
G01 X16.1528 Y13.6478
G01 X16.1587 Y13.6383
G01 X16.1653 Y13.6294
G01 X16.1691 Y13.6249
G01 X16.1769 Y13.6170
G01 X16.1854 Y13.6098
G01 X16.1901 Y13.6063
G01 X16.1995 Y13.6003
G01 X16.2093 Y13.5951
G01 X16.2704 Y13.5666
G01 X16.2788 Y13.5631
G01 X16.2932 Y13.5586
G01 X16.3080 Y13.5558
G01 X16.3230 Y13.5549
G01 X16.3380 Y13.5558
G01 X16.3471 Y13.5572
G01 X16.4132 Y13.5701
G01 X16.4240 Y13.5727
G01 X16.4296 Y13.5745
G01 X16.4400 Y13.5785
G01 X16.4499 Y13.5834
G01 X16.4626 Y13.5915
G01 X16.4742 Y13.6011
G01 X16.4808 Y13.6075
G01 X16.5267 Y13.6568
G01 X16.5339 Y13.6653
G01 X16.5403 Y13.6743
G01 X16.5444 Y13.6811
G01 X16.5492 Y13.6905
G01 X16.7395 Y13.5002
G01 X16.7188 Y13.4423
G01 X16.7162 Y13.4341
G01 X16.6961 Y13.3544
G01 X16.6944 Y13.3460
G01 X16.6822 Y13.2648
G01 X16.6813 Y13.2562
G01 X16.6771 Y13.1705
G01 X16.6772 Y13.1619
G01 X16.6813 Y13.0798
G01 X16.6822 Y13.0712
G01 X16.6944 Y12.9900
G01 X16.6961 Y12.9816
G01 X16.7162 Y12.9019
G01 X16.7188 Y12.8937
G01 X16.7395 Y12.8358
G01 X16.5492 Y12.6455
G01 X16.5430 Y12.6574
G01 X16.5314 Y12.6771
G01 X16.5253 Y12.6861
G01 X16.5185 Y12.6946
G01 X16.5109 Y12.7024
G01 X16.5067 Y12.7063
G01 X16.4982 Y12.7131
G01 X16.4421 Y12.7538
G01 X16.4327 Y12.7598
G01 X16.4246 Y12.7641
G01 X16.4107 Y12.7698
G01 X16.3981 Y12.7734
G01 X16.3852 Y12.7756
G01 X16.3721 Y12.7765
G01 X16.3028 Y12.7766
G01 X16.2898 Y12.7759
G01 X16.2768 Y12.7738
G01 X16.2661 Y12.7710
G01 X16.2538 Y12.7665
G01 X16.2438 Y12.7617
G01 X16.2386 Y12.7588
G01 X16.2293 Y12.7527
G01 X16.1748 Y12.7131
G01 X16.1632 Y12.7035
G01 X16.1541 Y12.6941
G01 X16.1450 Y12.6822
G01 X16.1401 Y12.6745
G01 X16.1358 Y12.6664
G01 X16.1301 Y12.6525
G01 X16.1075 Y12.5828
G01 X16.1052 Y12.5739
G01 X16.1037 Y12.5649
G01 X16.1025 Y12.5499
G01 X16.1025 Y11.7888
G01 X16.1028 Y11.7798
G01 X16.1045 Y11.7597
G01 X16.1063 Y11.7471
G01 X16.1029 Y11.7133
G01 X16.1025 Y11.7014
G01 X16.1025 Y11.6739
G01 X16.0998 Y11.6631
G01 X16.0960 Y11.6433
G01 X16.0943 Y11.6307
G01 X16.0842 Y11.6052
G01 X16.0802 Y11.5938
G01 X16.0709 Y11.5613
G01 X16.0655 Y11.5516
G01 X16.0565 Y11.5336
G01 X16.0514 Y11.5219
G01 X16.0348 Y11.5000
G01 X16.0279 Y11.4902
G01 X16.0102 Y11.4613
G01 X15.9712 Y11.4249
G01 X15.5884 Y11.0420
G01 X15.5822 Y11.0354
G01 X15.5692 Y11.0200
G01 X15.5615 Y11.0098
G01 X15.5353 Y10.9883
G01 X15.5265 Y10.9802
G01 X15.5071 Y10.9608
G01 X15.4976 Y10.9550
G01 X15.4809 Y10.9437
G01 X15.4708 Y10.9360
G01 X15.4398 Y10.9224
G01 X15.4291 Y10.9169
G01 X15.4052 Y10.9034
G01 X15.3945 Y10.9005
G01 X15.3753 Y10.8941
G01 X15.3635 Y10.8894
G01 X15.3344 Y10.8854
G01 X15.3201 Y10.8827
G01 X15.2808 Y10.8731
G01 X15.2715 Y10.8704
G01 X15.2610 Y10.8662
G01 X15.2508 Y10.8611
G01 X15.1981 Y10.8314
G01 X15.1871 Y10.8242
G01 X15.1808 Y10.8193
G01 X15.1749 Y10.8140
G01 X14.0543 Y9.6936
G01 X14.0451 Y9.6832
G01 X14.0373 Y9.6723
G01 X14.0078 Y9.6241
G01 X14.0033 Y9.6155
G01 X13.9994 Y9.6066
G01 X13.9958 Y9.5957
G01 X13.9935 Y9.5862
G01 X13.9918 Y9.5749
G01 X13.9911 Y9.5635
G01 X13.9911 Y9.4944
G01 X13.9915 Y9.4853
G01 X13.9923 Y9.4775
G01 X13.9943 Y9.4665
G01 X13.9972 Y9.4558
G01 X14.0019 Y9.4436
G01 X14.0079 Y9.4319
G01 X14.0138 Y9.4225
G01 X14.0558 Y9.3649
G01 X14.0628 Y9.3563
G01 X14.0692 Y9.3497
G01 X14.0807 Y9.3400
G01 X14.0949 Y9.3307
G01 X14.1049 Y9.3257
G01 X14.1134 Y9.3223
G01 X14.1811 Y9.3002
G01 X14.1938 Y9.2968
G01 X14.2067 Y9.2948
G01 X14.2198 Y9.2941
G01 X14.7434 Y9.2941
G01 X14.8073 Y9.2659
G01 X14.8537 Y9.2195
G01 X14.8819 Y9.1556
G01 X14.8820 Y8.7846
G01 X14.8832 Y8.7694
G01 X14.8891 Y8.7325
G01 X14.8916 Y8.7210
G01 X14.8952 Y8.7098
G01 X14.9007 Y8.6974
G01 X14.9046 Y8.6902
G01 X14.9091 Y8.6833
G01 X14.9507 Y8.6258
G01 X14.9603 Y8.6142
G01 X14.9682 Y8.6064
G01 X14.9752 Y8.6006
G01 X14.9800 Y8.5971
G01 X14.9893 Y8.5911
G01 X14.9992 Y8.5859
G01 X15.0046 Y8.5836
G01 X15.0132 Y8.5804
G01 X15.0773 Y8.5596
G01 X15.0880 Y8.5567
G01 X15.1028 Y8.5542
G01 X15.1159 Y8.5535
G01 X16.5593 Y8.5535
G01 X16.5734 Y8.5543
G01 X16.5869 Y8.5566
G01 X16.6394 Y8.5694
G01 X16.6521 Y8.5733
G01 X16.6612 Y8.5770
G01 X16.6715 Y8.5822
G01 X16.6813 Y8.5884
G01 X16.6904 Y8.5954
G01 X16.6989 Y8.6033
G01 X16.7461 Y8.6513
G01 X16.7548 Y8.6611
G01 X16.7624 Y8.6718
G01 X16.7691 Y8.6837
G01 X16.8780 Y8.8280
G01 X17.0116 Y8.9498
G01 X17.1653 Y9.0450
G01 X17.3339 Y9.1103
G01 X17.5116 Y9.1435
G01 X17.6924 Y9.1435
G01 X17.8701 Y9.1103
G01 X18.0387 Y9.0450
G01 X18.1924 Y8.9498
G01 X18.3260 Y8.8280
G01 X18.4349 Y8.6837
G01 X18.5155 Y8.5219
G01 X18.5650 Y8.3480
G01 X18.5817 Y8.1680
G01 X18.5650 Y7.9880
G01 X18.5155 Y7.8141
G01 X18.4349 Y7.6523
G01 X18.3260 Y7.5080
G01 X18.1924 Y7.3862
G01 X18.0387 Y7.2910
G01 X17.8701 Y7.2257
G01 X17.6924 Y7.1925
G01 X17.5116 Y7.1925
G01 X17.3339 Y7.2257
G01 X17.1653 Y7.2910
G01 X17.0116 Y7.3862
G01 X16.8780 Y7.5080
G01 X16.7973 Y7.6146
G01 X16.7892 Y7.6234
G01 X16.7662 Y7.6459
G01 X16.7590 Y7.6525
G01 X16.7498 Y7.6595
G01 X16.7415 Y7.6647
G01 X16.7354 Y7.6680
G01 X16.7265 Y7.6722
G01 X16.7173 Y7.6756
G01 X16.6532 Y7.6964
G01 X16.6425 Y7.6993
G01 X16.6367 Y7.7005
G01 X16.6257 Y7.7020
G01 X16.6146 Y7.7025
G01 X15.1159 Y7.7025
G01 X15.1071 Y7.7022
G01 X15.0978 Y7.7012
G01 X15.0627 Y7.6956
G01 X15.0546 Y7.6940
G01 X15.0477 Y7.6923
G01 X15.0382 Y7.6892
G01 X15.0290 Y7.6853
G01 X15.0186 Y7.6798
G01 X15.0087 Y7.6733
G01 X14.9511 Y7.6313
G01 X14.9441 Y7.6255
G01 X14.9375 Y7.6191
G01 X14.9278 Y7.6076
G01 X14.9195 Y7.5951
G01 X14.9127 Y7.5816
G01 X14.9088 Y7.5712
G01 X14.8874 Y7.5053
G01 X14.8842 Y7.4926
G01 X14.8823 Y7.4777
G01 X14.8819 Y7.4685
G01 X14.8819 Y7.1004
G01 X14.8537 Y7.0365
G01 X14.8073 Y6.9901
G01 X14.7434 Y6.9619
G01 X14.1106 Y6.9619
G01 X14.0467 Y6.9901
G01 X13.9978 Y7.0390
G01 X13.9928 Y7.0465
G01 X13.9658 Y7.0837
G01 X13.9588 Y7.0924
G01 X13.9482 Y7.1032
G01 X13.9363 Y7.1126
G01 X13.9269 Y7.1186
G01 X13.9170 Y7.1237
G01 X13.8517 Y7.1525
G01 X13.8413 Y7.1564
G01 X13.8306 Y7.1593
G01 X13.8138 Y7.1619
G01 X13.8007 Y7.1624
G01 X13.7857 Y7.1611
G01 X13.7767 Y7.1596
G01 X13.7108 Y7.1454
G01 X13.7001 Y7.1425
G01 X13.6896 Y7.1387
G01 X13.6842 Y7.1364
G01 X13.6744 Y7.1312
G01 X13.6618 Y7.1229
G01 X13.6533 Y7.1158
G01 X13.6467 Y7.1094
G01 X13.5978 Y7.0548
G01 X13.5909 Y7.0461
G01 X13.5862 Y7.0390
G01 X13.5373 Y6.9901
G01 X13.4734 Y6.9619
G01 X12.8406 Y6.9619
G01 X12.7767 Y6.9901
G01 X12.7066 Y7.0602
G01 X12.6990 Y7.0672
G01 X12.6892 Y7.0747
G01 X12.6819 Y7.0793
G01 X12.6609 Y7.0967
G01 X12.6526 Y7.1031
G01 X12.6406 Y7.1105
G01 X12.6295 Y7.1158
G01 X12.6161 Y7.1206
G01 X12.6060 Y7.1231
G01 X12.5975 Y7.1245
G01 X12.5268 Y7.1318
G01 X12.5157 Y7.1325
G01 X12.5007 Y7.1318
G01 X12.4877 Y7.1297
G01 X12.4751 Y7.1263
G01 X12.4611 Y7.1207
G01 X12.4513 Y7.1156
G01 X12.3930 Y7.0818
G01 X12.3836 Y7.0758
G01 X12.3734 Y7.0677
G01 X12.3654 Y7.0600
G01 X12.3568 Y7.0500
G01 X12.3522 Y7.0437
G01 X12.3473 Y7.0359
G01 X12.3423 Y7.0260
G01 X12.3127 Y6.9590
G01 X12.3095 Y6.9504
G01 X12.3071 Y6.9416
G01 X12.3043 Y6.9264
G01 X12.2920 Y6.8947
G01 X12.2884 Y6.8833
G01 X12.2809 Y6.8569
G01 X12.2755 Y6.8472
G01 X12.2665 Y6.8292
G01 X12.2614 Y6.8175
G01 X12.2410 Y6.7904
G01 X12.2344 Y6.7804
G01 X12.2202 Y6.7569
G01 X12.1812 Y6.7205
G01 X11.4228 Y5.9620
G01 X11.4166 Y5.9554
G01 X11.4036 Y5.9400
G01 X11.3959 Y5.9298
G01 X11.3746 Y5.9125
G01 X11.3656 Y5.9046
G01 X11.3415 Y5.8808
G01 X11.3320 Y5.8750
G01 X11.3153 Y5.8637
G01 X11.3052 Y5.8560
G01 X11.2742 Y5.8424
G01 X11.2635 Y5.8369
G01 X11.2396 Y5.8234
G01 X11.2289 Y5.8205
G01 X11.2097 Y5.8141
G01 X11.1979 Y5.8094
G01 X11.1707 Y5.8057
G01 X11.1589 Y5.8036
G01 X11.1259 Y5.7958
G01 X11.0726 Y5.7975
G01 X3.7138 Y5.7975
G01 X3.7048 Y5.7972
G01 X3.6847 Y5.7955
G01 X3.6721 Y5.7937
G01 X3.6447 Y5.7966
G01 X3.6328 Y5.7973
G01 X3.5989 Y5.7975
G01 X3.5866 Y5.8005
G01 X3.5667 Y5.8042
G01 X3.5557 Y5.8057
G01 X3.5241 Y5.8180
G01 X3.5127 Y5.8216
G01 X3.4863 Y5.8291
G01 X3.4752 Y5.8353
G01 X3.4571 Y5.8442
G01 X3.4469 Y5.8486
G01 X3.4250 Y5.8652
G01 X3.4152 Y5.8721
G01 X3.3863 Y5.8898
G01 X3.3499 Y5.9288
G01 X3.2105 Y6.0681
G01 X3.1939 Y6.0831
G01 X3.1833 Y6.0913
G01 X3.1764 Y6.0958
G01 X3.1692 Y6.0997
G01 X3.1570 Y6.1052
G01 X3.0921 Y6.1290
G01 X3.0815 Y6.1323
G01 X3.0667 Y6.1354
G01 X3.0537 Y6.1365
G01 X3.0406 Y6.1363
G01 X3.0257 Y6.1344
G01 X3.0149 Y6.1318
G01 X2.9501 Y6.1134
G01 X2.9395 Y6.1099
G01 X2.9341 Y6.1076
G01 X2.9258 Y6.1037
G01 X2.9179 Y6.0990
G01 X2.9057 Y6.0903
G01 X2.8945 Y6.0802
G01 X2.8859 Y6.0703
G01 X2.8444 Y6.0173
G01 X2.8390 Y6.0099
G01 X2.8358 Y6.0049
G01 X2.8305 Y5.9952
G01 X2.8247 Y5.9813
G01 X2.8206 Y5.9668
G01 X2.8189 Y5.9578
G01 X2.8180 Y5.9487
G01 X2.8153 Y5.8775
G01 X2.8154 Y5.8663
G01 X2.8168 Y5.8533
G01 X2.8195 Y5.8405
G01 X2.8664 Y5.6756
G01 X2.8839 Y5.4864
G01 X2.8682 Y5.3175
G01 X2.8677 Y5.3067
G01 X2.8683 Y5.2940
G01 X2.8736 Y5.2465
G01 X2.8754 Y5.2356
G01 X2.8788 Y5.2232
G01 X2.8827 Y5.2129
G01 X2.8875 Y5.2030
G01 X2.8904 Y5.1979
G01 X2.8965 Y5.1887
G01 X2.9384 Y5.1311
G01 X2.9443 Y5.1241
G01 X2.9507 Y5.1175
G01 X2.9606 Y5.1090
G01 X2.9653 Y5.1055
G01 X2.9747 Y5.0995
G01 X2.9846 Y5.0943
G01 X2.9900 Y5.0920
G01 X2.9985 Y5.0888
G01 X3.0626 Y5.0680
G01 X3.0753 Y5.0646
G01 X3.0882 Y5.0626
G01 X3.1012 Y5.0619
G01 X43.6822 Y5.0619
G01 X43.6906 Y5.0622
G01 X43.7091 Y5.0636
G01 X43.7213 Y5.0652
G01 X43.7332 Y5.0679
G01 X43.7448 Y5.0718
G01 X43.7544 Y5.0761
G01 X43.8160 Y5.1074
G01 X43.8240 Y5.1119
G01 X43.8364 Y5.1205
G01 X43.8477 Y5.1304
G01 X47.5880 Y8.8707
G01 X47.5937 Y8.8768
G01 X47.6057 Y8.8909
G01 X47.6122 Y8.8991
G01 X47.6197 Y8.9110
G01 X47.6259 Y8.9237
G01 X47.6296 Y8.9335
G01 X47.6515 Y9.0013
G01 X47.6538 Y9.0102
G01 X47.6553 Y9.0192
G01 X47.6565 Y9.0342
G01 X47.6565 Y12.2998
G01 X47.6562 Y12.3082
G01 X47.6548 Y12.3267
G01 X47.6535 Y12.3370
G01 X47.6509 Y12.3490
G01 X47.6472 Y12.3607
G01 X47.6415 Y12.3736
G01 X47.6091 Y12.4371
G01 X47.6044 Y12.4450
G01 X47.5991 Y12.4525
G01 X47.5893 Y12.4639
G01 X46.0501 Y14.0031
G01 X46.0428 Y14.0097
G01 X46.0366 Y14.0145
G01 X46.0028 Y14.0385
G01 X45.9957 Y14.0430
G01 X45.9866 Y14.0477
G01 X45.9738 Y14.0529
G01 X45.9623 Y14.0562
G01 X45.9523 Y14.0582
G01 X45.8837 Y14.0677
G01 X45.8707 Y14.0688
G01 X45.8596 Y14.0686
G01 X45.8466 Y14.0672
G01 X45.8338 Y14.0645
G01 X45.8214 Y14.0604
G01 X45.8094 Y14.0550
G01 X45.7483 Y14.0223
G01 X45.7404 Y14.0177
G01 X45.7282 Y14.0089
G01 X45.7171 Y13.9987
G01 X45.7073 Y13.9873
G01 X45.6991 Y13.9747
G01 X45.6947 Y13.9666
G01 X45.6645 Y13.9043
G01 X45.6602 Y13.8940
G01 X45.6565 Y13.8815
G01 X45.6540 Y13.8686
G01 X45.6529 Y13.8556
G01 X45.6531 Y13.8425
G01 X45.6548 Y13.8295
G01 X45.6670 Y13.7613
G01 X45.6696 Y13.7505
G01 X45.6725 Y13.7418
G01 X45.6746 Y13.7363
G01 X45.6794 Y13.7262
G01 X45.7662 Y13.5639
G01 X45.8191 Y13.3894
G01 X45.8370 Y13.2080
G01 X45.8191 Y13.0266
G01 X45.7662 Y12.8521
G01 X45.6802 Y12.6913
G01 X45.5646 Y12.5504
G01 X45.4168 Y12.4291
G01 X45.4064 Y12.4193
G01 X45.3860 Y12.3975
G01 X45.3797 Y12.3902
G01 X45.3730 Y12.3806
G01 X45.3698 Y12.3753
G01 X45.3644 Y12.3648
G01 X45.3601 Y12.3539
G01 X45.3380 Y12.2860
G01 X45.3352 Y12.2752
G01 X45.3334 Y12.2643
G01 X45.3325 Y12.2493
G01 X45.3325 Y10.0894
G01 X45.3328 Y10.0804
G01 X45.3345 Y10.0603
G01 X45.3363 Y10.0477
G01 X45.3329 Y10.0139
G01 X45.3325 Y10.0020
G01 X45.3325 Y9.9745
G01 X45.3295 Y9.9622
G01 X45.3258 Y9.9423
G01 X45.3243 Y9.9313
G01 X45.3142 Y9.9058
G01 X45.3102 Y9.8945
G01 X45.3009 Y9.8619
G01 X45.2955 Y9.8522
G01 X45.2865 Y9.8342
G01 X45.2814 Y9.8225
G01 X45.2648 Y9.8006
G01 X45.2579 Y9.7908
G01 X45.2402 Y9.7619
G01 X45.2012 Y9.7255
G01 X43.9778 Y8.5020
G01 X43.9716 Y8.4954
G01 X43.9586 Y8.4800
G01 X43.9509 Y8.4698
G01 X43.9296 Y8.4525
G01 X43.9206 Y8.4446
G01 X43.8965 Y8.4208
G01 X43.8870 Y8.4150
G01 X43.8703 Y8.4037
G01 X43.8602 Y8.3960
G01 X43.8292 Y8.3824
G01 X43.8185 Y8.3769
G01 X43.7946 Y8.3634
G01 X43.7839 Y8.3605
G01 X43.7647 Y8.3541
G01 X43.7529 Y8.3494
G01 X43.7257 Y8.3457
G01 X43.7139 Y8.3436
G01 X43.6809 Y8.3358
G01 X43.6276 Y8.3375
G01 X32.8984 Y8.3375
G01 X32.8894 Y8.3372
G01 X32.8693 Y8.3355
G01 X32.8567 Y8.3337
G01 X32.8293 Y8.3366
G01 X32.8174 Y8.3373
G01 X32.7835 Y8.3375
G01 X32.7712 Y8.3405
G01 X32.7513 Y8.3442
G01 X32.7403 Y8.3457
G01 X32.7087 Y8.3580
G01 X32.6973 Y8.3616
G01 X32.6709 Y8.3691
G01 X32.6598 Y8.3753
G01 X32.6417 Y8.3842
G01 X32.6315 Y8.3886
G01 X32.6096 Y8.4052
G01 X32.5998 Y8.4121
G01 X32.5709 Y8.4298
G01 X32.5345 Y8.4688
G01 X21.6209 Y19.3824
G01 X21.6148 Y19.3881
G01 X21.6007 Y19.4001
G01 X21.5925 Y19.4066
G01 X21.5806 Y19.4141
G01 X21.5696 Y19.4196
G01 X21.5581 Y19.4240
G01 X21.4903 Y19.4459
G01 X21.4814 Y19.4482
G01 X21.4704 Y19.4500
G01 X21.4554 Y19.4509
G01 X5.9100 Y19.4509
G01 X5.9010 Y19.4506
G01 X5.8809 Y19.4489
G01 X5.8683 Y19.4471
G01 X5.8409 Y19.4500
G01 X5.8290 Y19.4507
G01 X5.7951 Y19.4509
G01 X5.7828 Y19.4539
G01 X5.7629 Y19.4576
G01 X5.7519 Y19.4591
G01 X5.7203 Y19.4714
G01 X5.7089 Y19.4750
G01 X5.6825 Y19.4825
G01 X5.6714 Y19.4887
G01 X5.6533 Y19.4976
G01 X5.6431 Y19.5020
G01 X5.6212 Y19.5186
G01 X5.6114 Y19.5255
G01 X5.5825 Y19.5432
G01 X5.5461 Y19.5822
G01 X4.8959 Y20.2324
G01 X4.8898 Y20.2381
G01 X4.8743 Y20.2513
G01 X4.8660 Y20.2576
G01 X4.8556 Y20.2641
G01 X4.8429 Y20.2703
G01 X4.8331 Y20.2740
G01 X4.7653 Y20.2959
G01 X4.7564 Y20.2982
G01 X4.7474 Y20.2997
G01 X4.7324 Y20.3009
G01 X2.9326 Y20.3009
G01 X2.9185 Y20.3001
G01 X2.9051 Y20.2978
G01 X2.8525 Y20.2850
G01 X2.8398 Y20.2811
G01 X2.8307 Y20.2774
G01 X2.8204 Y20.2722
G01 X2.8107 Y20.2660
G01 X2.8015 Y20.2590
G01 X2.7931 Y20.2511
G01 X2.7669 Y20.2245
G01 X2.7578 Y20.2175
G01 X2.7502 Y20.2103
G01 X2.7409 Y20.1998
G01 X2.7332 Y20.1890
G01 X2.6151 Y20.0326
G01 X2.4746 Y19.9045
G01 X2.3131 Y19.8045
G01 X2.1358 Y19.7358
G01 X1.9490 Y19.7009
G01 X1.7590 Y19.7009
G01 X1.5722 Y19.7358
G01 X1.3949 Y19.8045
G01 X1.2334 Y19.9045
G01 X1.0929 Y20.0326
G01 X0.9784 Y20.1842
G01 X0.8937 Y20.3544
G01 X0.8416 Y20.5372
G01 X0.8241 Y20.7264
G01 X0.8416 Y20.9156
G01 X0.8937 Y21.0984
G01 X0.9784 Y21.2686
G01 X1.0929 Y21.4202
G01 X1.2333 Y21.5483
G01 X1.3949 Y21.6483
G01 X1.5722 Y21.7170
G01 X1.7590 Y21.7519
G01 X1.9490 Y21.7519
G01 X2.1358 Y21.7170
G01 X2.3131 Y21.6483
G01 X2.4746 Y21.5483
G01 X2.6151 Y21.4202
G01 X2.7332 Y21.2638
G01 X2.7408 Y21.2530
G01 X2.7476 Y21.2451
G01 X2.7569 Y21.2361
G01 X2.7786 Y21.2110
G01 X2.7896 Y21.2008
G01 X2.7989 Y21.1939
G01 X2.8072 Y21.1888
G01 X2.8160 Y21.1843
G01 X2.8223 Y21.1816
G01 X2.8299 Y21.1788
G01 X2.8940 Y21.1580
G01 X2.9047 Y21.1551
G01 X2.9105 Y21.1539
G01 X2.9215 Y21.1524
G01 X2.9326 Y21.1519
G01 X4.9472 Y21.1519
G01 X4.9562 Y21.1522
G01 X4.9763 Y21.1539
G01 X4.9889 Y21.1557
G01 X5.0163 Y21.1528
G01 X5.0282 Y21.1521
G01 X5.0621 Y21.1519
G01 X5.0729 Y21.1492
G01 X5.0927 Y21.1454
G01 X5.1053 Y21.1437
G01 X5.1369 Y21.1314
G01 X5.1483 Y21.1278
G01 X5.1747 Y21.1203
G01 X5.1844 Y21.1149
G01 X5.2024 Y21.1059
G01 X5.2141 Y21.1008
G01 X5.2360 Y21.0842
G01 X5.2458 Y21.0773
G01 X5.2746 Y21.0596
G01 X5.3111 Y21.0206
G01 X5.9613 Y20.3704
G01 X5.9674 Y20.3647
G01 X5.9829 Y20.3515
G01 X5.9912 Y20.3452
G01 X6.0016 Y20.3387
G01 X6.0109 Y20.3340
G01 X6.0206 Y20.3301
G01 X6.0900 Y20.3074
G01 X6.1027 Y20.3042
G01 X6.1157 Y20.3024
G01 X6.1268 Y20.3019
G01 X21.6722 Y20.3019
G01 X21.6812 Y20.3022
G01 X21.7013 Y20.3039
G01 X21.7139 Y20.3057
G01 X21.7413 Y20.3028
G01 X21.7532 Y20.3021
G01 X21.7871 Y20.3019
G01 X21.7979 Y20.2992
G01 X21.8177 Y20.2954
G01 X21.8303 Y20.2937
G01 X21.8619 Y20.2814
G01 X21.8733 Y20.2778
G01 X21.8997 Y20.2703
G01 X21.9094 Y20.2649
G01 X21.9274 Y20.2559
G01 X21.9391 Y20.2508
G01 X21.9610 Y20.2342
G01 X21.9708 Y20.2273
G01 X21.9996 Y20.2096
G01 X22.0361 Y20.1706
G01 X32.9497 Y9.2570
G01 X32.9558 Y9.2513
G01 X32.9699 Y9.2393
G01 X32.9781 Y9.2328
G01 X32.9884 Y9.2262
G01 X32.9993 Y9.2206
G01 X33.0125 Y9.2154
G01 X33.0765 Y9.1946
G01 X33.0911 Y9.1908
G01 X33.1021 Y9.1892
G01 X33.1152 Y9.1885
G01 X43.3638 Y9.1885
G01 X43.3722 Y9.1888
G01 X43.3907 Y9.1902
G01 X43.4010 Y9.1915
G01 X43.4130 Y9.1941
G01 X43.4247 Y9.1978
G01 X43.4376 Y9.2035
G01 X43.4976 Y9.2340
G01 X43.5090 Y9.2406
G01 X43.5196 Y9.2483
G01 X43.5293 Y9.2570
G01 X44.4150 Y10.1428
G01 X44.4307 Y10.1609
G01 X44.4372 Y10.1691
G01 X44.4447 Y10.1810
G01 X44.4502 Y10.1920
G01 X44.4546 Y10.2035
G01 X44.4760 Y10.2694
G01 X44.4788 Y10.2802
G01 X44.4806 Y10.2912
G01 X44.4815 Y10.3062
G01 X44.4815 Y12.2493
G01 X44.4807 Y12.2636
G01 X44.4770 Y12.2927
G01 X44.4749 Y12.3042
G01 X44.4718 Y12.3155
G01 X44.4689 Y12.3233
G01 X44.4641 Y12.3340
G01 X44.4582 Y12.3442
G01 X44.4219 Y12.4009
G01 X44.4131 Y12.4131
G01 X44.4056 Y12.4213
G01 X44.3959 Y12.4301
G01 X44.2494 Y12.5504
G01 X44.1338 Y12.6913
G01 X44.0478 Y12.8521
G01 X43.9949 Y13.0266
G01 X43.9770 Y13.2080
G01 X43.9949 Y13.3894
G01 X44.0478 Y13.5639
G01 X44.1337 Y13.7247
G01 X44.2494 Y13.8656
G01 X44.3903 Y13.9812
G01 X44.5511 Y14.0672
G01 X44.7256 Y14.1201
G01 X44.9070 Y14.1380
G01 X45.0884 Y14.1201
G01 X45.2629 Y14.0672
G01 X45.4252 Y13.9804
G01 X45.4337 Y13.9763
G01 X45.4429 Y13.9727
G01 X45.4787 Y13.9606
G01 X45.4903 Y13.9573
G01 X45.5057 Y13.9548
G01 X45.5141 Y13.9542
G01 X45.5243 Y13.9543
G01 X45.5381 Y13.9557
G01 X45.6046 Y13.9662
G01 X45.6155 Y13.9684
G01 X45.6261 Y13.9716
G01 X45.6335 Y13.9745
G01 X45.6435 Y13.9792
G01 X45.6547 Y13.9859
G01 X45.6637 Y13.9925
G01 X45.6720 Y13.9999
G01 X45.7211 Y14.0489
G01 X45.7310 Y14.0602
G01 X45.7396 Y14.0726
G01 X45.7440 Y14.0805
G01 X45.7479 Y14.0889
G01 X45.7529 Y14.1031
G01 X45.7561 Y14.1177
G01 X45.7667 Y14.1843
G01 X45.7677 Y14.1934
G01 X45.7681 Y14.1992
G01 X45.7680 Y14.2104
G01 X45.7663 Y14.2253
G01 X45.7628 Y14.2399
G01 X45.7599 Y14.2486
G01 X45.7555 Y14.2588
G01 X45.7231 Y14.3223
G01 X45.7175 Y14.3319
G01 X45.7122 Y14.3394
G01 X45.7085 Y14.3440
G01 X45.7010 Y14.3522
G01 X45.2841 Y14.7692
G01 X45.2733 Y14.7787
G01 X45.2485 Y14.7979
G01 X45.2388 Y14.8045
G01 X45.2285 Y14.8101
G01 X45.2228 Y14.8127
G01 X45.2118 Y14.8168
G01 X45.2005 Y14.8199
G01 X45.1347 Y14.8343
G01 X45.1198 Y14.8366
G01 X45.1087 Y14.8372
G01 X45.0957 Y14.8366
G01 X44.9070 Y14.8180
G01 X44.7256 Y14.8359
G01 X44.5511 Y14.8888
G01 X44.3903 Y14.9748
G01 X44.2494 Y15.0904
G01 X44.1338 Y15.2313
G01 X44.0478 Y15.3921
G01 X43.9949 Y15.5666
G01 X43.9770 Y15.7480
G01 X43.9949 Y15.9294
G01 X44.0478 Y16.1039
G01 X44.1337 Y16.2647
G01 X44.2494 Y16.4056
G01 X44.3903 Y16.5212
G01 X44.5511 Y16.6072
G01 X44.7256 Y16.6601
G01 X44.9070 Y16.6780
G01 X45.0884 Y16.6601
G01 X45.2629 Y16.6072
G01 X45.4237 Y16.5212
G01 X45.5646 Y16.4056
G01 X45.6802 Y16.2647
G01 X45.7662 Y16.1039
G01 X45.8191 Y15.9294
G01 X45.8370 Y15.7480
G01 X45.8183 Y15.5577
G01 X45.8178 Y15.5434
G01 X45.8188 Y15.5136
G01 X45.8198 Y15.5019
G01 X45.8220 Y15.4904
G01 X45.8236 Y15.4844
G01 X45.8267 Y15.4752
G01 X45.8313 Y15.4645
G01 X45.8637 Y15.4008
G01 X45.8694 Y15.3913
G01 X45.8771 Y15.3807
G01 X45.8858 Y15.3709
G01 X48.3430 Y12.9138
G01 X48.3496 Y12.9076
G01 X48.3650 Y12.8946
G01 X48.3752 Y12.8869
G01 X48.3925 Y12.8656
G01 X48.4004 Y12.8566
G01 X48.4242 Y12.8325
G01 X48.4309 Y12.8217
G01 X48.4422 Y12.8050
G01 X48.4490 Y12.7962
G01 X48.4599 Y12.7710
G01 X48.4651 Y12.7602
G01 X48.4816 Y12.7306
G01 X48.4845 Y12.7199
G01 X48.4909 Y12.7007
G01 X48.4956 Y12.6889
G01 X48.4993 Y12.6617
G01 X48.5014 Y12.6499
G01 X48.5092 Y12.6169
G01 X48.5075 Y12.5636
G01 X48.5075 Y8.8194
G01 X48.5078 Y8.8104
G01 X48.5095 Y8.7903
G01 X48.5113 Y8.7777
G01 X48.5079 Y8.7439
G01 X48.5075 Y8.7320
G01 X48.5075 Y8.7045
G01 X48.5045 Y8.6922
G01 X48.5008 Y8.6723
G01 X48.4993 Y8.6613
G01 X48.4892 Y8.6358
G01 X48.4852 Y8.6245
G01 X48.4759 Y8.5919
G01 X48.4705 Y8.5822
G01 X48.4615 Y8.5642
G01 X48.4564 Y8.5525
G01 X48.4360 Y8.5254
G01 X48.4294 Y8.5154
G01 X48.4152 Y8.4919
G01 X48.3762 Y8.4555
G01 X44.2962 Y4.3754
G01 X44.2900 Y4.3688
G01 X44.2770 Y4.3534
G01 X44.2693 Y4.3432
G01 X44.2480 Y4.3259
G01 X44.2390 Y4.3180
G01 X44.2149 Y4.2942
G01 X44.2054 Y4.2884
G01 X44.1887 Y4.2771
G01 X44.1786 Y4.2694
G01 X44.1476 Y4.2558
G01 X44.1369 Y4.2503
G01 X44.1130 Y4.2368
G01 X44.1023 Y4.2339
G01 X44.0831 Y4.2275
G01 X44.0713 Y4.2228
G01 X44.0441 Y4.2191
G01 X44.0323 Y4.2170
G01 X43.9993 Y4.2092
G01 X43.9460 Y4.2109
G01 X2.8846 Y4.2109
G01 X2.8730 Y4.2101
G01 X2.8598 Y4.2079
G01 X2.8065 Y4.1951
G01 X2.7972 Y4.1924
G01 X2.7897 Y4.1895
G01 X2.7763 Y4.1831
G01 X2.7651 Y4.1760
G01 X2.7574 Y4.1701
G01 X2.7514 Y4.1648
G01 X2.7013 Y4.1148
G01 X2.6938 Y4.1066
G01 X2.6849 Y4.0945
G01 X2.6783 Y4.0831
G01 X2.6730 Y4.0712
G01 X2.6685 Y4.0568
G01 X2.6663 Y4.0459
G01 X2.6552 Y3.9755
G01 X2.6544 Y3.9664
G01 X2.6543 Y3.9553
G01 X2.6557 Y3.9403
G01 X2.6590 Y3.9256
G01 X2.6625 Y3.9151
G01 X2.6661 Y3.9066
G01 X2.6984 Y3.8431
G01 X2.7060 Y3.8301
G01 X2.7126 Y3.8212
G01 X2.7200 Y3.8128
G01 X2.7960 Y3.7368
G01 X2.9189 Y3.5612
G01 X3.0095 Y3.3670
G01 X3.0217 Y3.3214
G01 X2.7539 Y3.3214
G01 X2.7150 Y3.4038
G01 X2.7108 Y3.4114
G01 X2.6680 Y3.4829
G01 X2.6612 Y3.4931
G01 X2.6115 Y3.5601
G01 X2.6061 Y3.5668
G01 X2.5451 Y3.6341
G01 X2.5390 Y3.6401
G01 X2.4772 Y3.6961
G01 X2.4677 Y3.7039
G01 X2.4007 Y3.7536
G01 X2.3936 Y3.7584
G01 X2.3157 Y3.8051
G01 X2.3081 Y3.8090
G01 X2.2327 Y3.8447
G01 X2.2214 Y3.8494
G01 X2.1429 Y3.8775
G01 X2.1347 Y3.8801
G01 X2.0466 Y3.9021
G01 X2.0382 Y3.9037
G01 X1.9557 Y3.9160
G01 X1.9434 Y3.9172
G01 X1.8601 Y3.9212
G01 X1.8515 Y3.9213
G01 X1.7609 Y3.9169
G01 X1.7523 Y3.9160
G01 X1.6698 Y3.9037
G01 X1.6578 Y3.9013
G01 X1.5769 Y3.8811
G01 X1.5686 Y3.8786
G01 X1.4832 Y3.8481
G01 X1.4753 Y3.8447
G01 X1.3999 Y3.8090
G01 X1.3890 Y3.8032
G01 X1.3175 Y3.7604
G01 X1.3103 Y3.7557
G01 X1.2374 Y3.7016
G01 X1.2308 Y3.6961
G01 X1.1690 Y3.6401
G01 X1.1603 Y3.6314
G01 X1.1043 Y3.5696
G01 X1.0988 Y3.5630
G01 X1.0447 Y3.4901
G01 X1.0400 Y3.4829
G01 X0.9972 Y3.4114
G01 X0.9914 Y3.4005
G01 X0.9541 Y3.3214
G00 Z1.0000
G00 X0.9541 Y3.3214
G01 F300.00
G01 Z-0.1000
G01 F600.00
G01 X0.7950 Y3.3964
G00 Z1.0000
G00 X0.7950 Y3.3964
G01 F300.00
G01 Z-0.1000
G01 F600.00
G01 X0.8543 Y3.5236
G01 X0.9697 Y3.6884
G01 X1.1120 Y3.8307
G01 X1.2768 Y3.9461
G01 X1.4670 Y4.0348
G01 X1.4806 Y4.0407
G01 X1.4995 Y4.0509
G01 X1.5157 Y4.0620
G01 X1.5595 Y4.0904
G01 X1.5717 Y4.0992
G01 X1.5792 Y4.1055
G01 X1.5888 Y4.1143
G01 X1.5984 Y4.1245
G01 X1.6042 Y4.1312
G01 X1.6131 Y4.1433
G01 X1.6200 Y4.1540
G01 X1.6268 Y4.1663
G01 X1.6338 Y4.1817
G01 X1.6619 Y4.2547
G01 X1.6650 Y4.2643
G01 X1.6674 Y4.2738
G01 X1.6697 Y4.2847
G01 X1.6712 Y4.2954
G01 X1.6725 Y4.3094
G01 X1.6726 Y4.3264
G01 X1.6714 Y4.3424
G01 X1.6695 Y4.3550
G01 X1.6663 Y4.3697
G01 X1.6486 Y4.4368
G01 X1.6447 Y4.4493
G01 X1.6414 Y4.4583
G01 X1.6579 Y4.4550
G01 X1.7413 Y4.4427
G01 X1.7600 Y4.4408
G01 X1.8442 Y4.4366
G01 X1.8565 Y4.4365
G01 X1.9488 Y4.4408
G00 Z1.0000
G00 X1.9488 Y4.4408
G01 F300.00
G01 Z-0.1000
G01 F600.00
G01 X1.9667 Y4.4427
G01 X2.0492 Y4.4549
G01 X2.0639 Y4.4577
G01 X2.1538 Y4.4802
G01 X2.1673 Y4.4844
G01 X2.2055 Y4.4981
G01 X2.3901 Y4.3139
G01 X2.4117 Y4.2942
G01 X2.4204 Y4.2869
G01 X2.4519 Y4.2635
G01 X2.4614 Y4.2574
G01 X2.4841 Y4.2438
G01 X2.4998 Y4.2354
G01 X2.5295 Y4.2215
G01 X2.5400 Y4.2173
G01 X2.5649 Y4.2084
G01 X2.5801 Y4.2037
G01 X2.6138 Y4.1955
G01 X2.6249 Y4.1934
G01 X2.6510 Y4.1895
G01 X2.6683 Y4.1878
G01 X2.6476 Y4.1671
G01 X2.6387 Y4.1575
G01 X2.6313 Y4.1484
G01 X2.6225 Y4.1361
G01 X2.6138 Y4.1215
G01 X2.6085 Y4.1110
G01 X2.6027 Y4.0971
G01 X2.5973 Y4.0810
G01 X2.5949 Y4.0715
G01 X2.5922 Y4.0577
G01 X2.5815 Y3.9902
G01 X2.5795 Y3.9713
G01 X2.5793 Y3.9523
G01 X2.5807 Y3.9354
G01 X2.5831 Y3.9208
G01 X2.5873 Y3.9034
G01 X2.5928 Y3.8873
G01 X2.5997 Y3.8717
G01 X2.6329 Y3.8064
G01 X2.6394 Y3.7951
G01 X2.6448 Y3.7868
G01 X2.6550 Y3.7732
G01 X2.6663 Y3.7605
G01 X2.7383 Y3.6884
G01 X2.8537 Y3.5236
G01 X2.9130 Y3.3964
G01 X2.8016 Y3.3964
G01 X2.7840 Y3.4334
G01 X2.7775 Y3.4459
G01 X2.7318 Y3.5222
G01 X2.7230 Y3.5355
G01 X2.6717 Y3.6048
G01 X2.6635 Y3.6151
G01 X2.6032 Y3.6818
G01 X2.5914 Y3.6938
G01 X2.5275 Y3.7516
G01 X2.5182 Y3.7596
G01 X2.4454 Y3.8138
G01 X2.4345 Y3.8213
G01 X2.3575 Y3.8676
G01 X2.3460 Y3.8739
G01 X2.2640 Y3.9129
G01 X2.2467 Y3.9200
G01 X2.1681 Y3.9481
G01 X2.1564 Y3.9518
G01 X2.0684 Y3.9741
G01 X2.0564 Y3.9766
G01 X1.9667 Y3.9901
G01 X1.9545 Y3.9915
G01 X1.8565 Y3.9963
G01 X1.8442 Y3.9962
G01 X1.7535 Y3.9915
G01 X1.7413 Y3.9901
G01 X1.6525 Y3.9768
G01 X1.6396 Y3.9741
G01 X1.5524 Y3.9521
G01 X1.5399 Y3.9481
G01 X1.4660 Y3.9217
G00 Z1.0000
G00 X1.4660 Y3.9217
G01 F300.00
G01 Z-0.1000
G01 F600.00
G01 X1.4553 Y3.9177
G01 X1.4432 Y3.9125
G01 X1.3670 Y3.8764
G01 X1.3513 Y3.8680
G01 X1.2789 Y3.8247
G01 X1.2686 Y3.8180
G01 X1.1920 Y3.7613
G01 X1.1805 Y3.7516
G01 X1.1186 Y3.6956
G01 X1.1066 Y3.6838
G01 X1.0445 Y3.6151
G01 X1.0369 Y3.6055
G01 X1.0019 Y3.5584
G00 Z1.0000
G00 X1.0019 Y3.5584
G01 F300.00
G01 Z-0.1000
G01 F600.00
G01 X0.9850 Y3.5355
G01 X0.9781 Y3.5254
G01 X0.9324 Y3.4491
G01 X0.9248 Y3.4351
G01 X0.9064 Y3.3964
G01 X0.7950 Y3.3964
G00 Z1.0000
G00 X0.7950 Y3.3964
G01 F300.00
G01 Z-0.1000
G01 F600.00
G01 X1.0019 Y3.5584
G00 Z1.0000
G00 X1.0019 Y3.5584
G01 F300.00
G01 Z-0.1000
G01 F600.00
G01 X1.4660 Y3.9217
G00 Z1.0000
G00 X1.4660 Y3.9217
G01 F300.00
G01 Z-0.1000
G01 F600.00
G01 X1.6278 Y4.0483
G00 Z1.0000
G00 X1.6278 Y4.0483
G01 F300.00
G01 Z-0.1000
G01 F600.00
G01 X1.6438 Y4.0632
G01 X1.6592 Y4.0801
G01 X1.6660 Y4.0885
G01 X1.6743 Y4.0998
G01 X1.6848 Y4.1163
G01 X1.6940 Y4.1329
G01 X1.7023 Y4.1510
G01 X1.7309 Y4.2248
G01 X1.7368 Y4.2428
G01 X1.7408 Y4.2585
G01 X1.7444 Y4.2766
G01 X1.7467 Y4.2964
G01 X1.7476 Y4.3121
G01 X1.7475 Y4.3321
G01 X1.7458 Y4.3515
G01 X1.7436 Y4.3669
G01 X1.7572 Y4.3658
G01 X1.8511 Y4.3615
G01 X1.8670 Y4.3617
G01 X1.9542 Y4.3660
G00 Z1.0000
G00 X1.9542 Y4.3660
G01 F300.00
G01 Z-0.1000
G01 F600.00
G01 X1.9488 Y4.4408
G00 Z1.0000
G00 X1.9488 Y4.4408
G01 F300.00
G01 Z-0.1000
G01 F600.00
G01 X1.9434 Y4.5156
G00 Z1.0000
G00 X1.9434 Y4.5156
G01 F300.00
G01 Z-0.1000
G01 F600.00
G01 X1.9557 Y4.5168
G01 X2.0382 Y4.5291
G01 X2.0502 Y4.5315
G01 X2.1311 Y4.5517
G01 X2.1394 Y4.5542
G01 X2.2251 Y4.5848
G01 X2.4401 Y4.3699
G01 X2.4642 Y4.3480
G01 X2.4709 Y4.3426
G01 X2.4936 Y4.3259
G01 X2.5218 Y4.3086
G01 X2.5326 Y4.3028
G01 X2.5627 Y4.2889
G01 X2.5928 Y4.2782
G01 X2.6248 Y4.2698
G01 X2.6369 Y4.2674
G01 X2.6697 Y4.2629
G01 X2.7040 Y4.2613
G01 X43.9554 Y4.2613
G01 X43.9897 Y4.2629
G01 X43.9983 Y4.2638
G01 X44.0244 Y4.2677
G01 X44.0328 Y4.2694
G01 X44.0584 Y4.2758
G01 X44.0701 Y4.2794
G01 X44.1012 Y4.2908
G01 X44.1300 Y4.3045
G01 X44.1586 Y4.3212
G01 X44.1688 Y4.3280
G01 X44.1952 Y4.3480
G01 X44.2207 Y4.3711
G01 X48.3473 Y8.4977
G01 X48.3704 Y8.5232
G01 X48.3904 Y8.5496
G01 X48.3972 Y8.5598
G01 X48.4139 Y8.5884
G01 X48.4269 Y8.6155
G01 X48.4308 Y8.6252
G01 X48.4416 Y8.6565
G01 X48.4486 Y8.6838
G01 X48.4507 Y8.6940
G01 X48.4550 Y8.7238
G01 X48.4558 Y8.7324
G01 X48.4571 Y8.7630
G01 X48.4571 Y12.5730
G01 X48.4555 Y12.6073
G01 X48.4546 Y12.6159
G01 X48.4507 Y12.6420
G01 X48.4490 Y12.6504
G01 X48.4426 Y12.6760
G01 X48.4390 Y12.6877
G01 X48.4276 Y12.7188
G01 X48.4139 Y12.7476
G01 X48.3972 Y12.7762
G01 X48.3904 Y12.7864
G01 X48.3704 Y12.8128
G01 X48.3485 Y12.8369
G01 X45.7305 Y15.4550
G01 X45.7424 Y15.4882
G01 X45.7455 Y15.4981
G01 X45.7638 Y15.5713
G01 X45.7659 Y15.5815
G01 X45.7775 Y15.6598
G01 X45.7782 Y15.6684
G01 X45.7819 Y15.7437
G01 X45.7818 Y15.7541
G01 X45.7782 Y15.8276
G01 X45.7770 Y15.8399
G01 X45.7662 Y15.9127
G01 X45.7646 Y15.9211
G01 X45.7455 Y15.9979
G01 X45.7424 Y16.0078
G01 X45.7176 Y16.0771
G01 X45.7129 Y16.0885
G01 X45.6814 Y16.1550
G01 X45.6775 Y16.1626
G01 X45.6358 Y16.2321
G01 X45.6310 Y16.2391
G01 X45.5872 Y16.2983
G01 X45.5794 Y16.3077
G01 X45.5299 Y16.3623
G01 X45.5239 Y16.3684
G01 X45.4654 Y16.4216
G01 X45.4573 Y16.4282
G01 X45.3951 Y16.4741
G01 X45.3879 Y16.4788
G01 X45.3216 Y16.5185
G01 X45.3140 Y16.5224
G01 X45.2441 Y16.5554
G01 X45.2361 Y16.5586
G01 X45.1633 Y16.5846
G01 X45.1551 Y16.5870
G01 X45.0801 Y16.6056
G01 X45.0717 Y16.6072
G01 X44.9952 Y16.6185
G01 X44.9866 Y16.6192
G01 X44.9095 Y16.6229
G01 X44.9009 Y16.6228
G01 X44.8237 Y16.6190
G01 X44.8151 Y16.6180
G01 X44.7387 Y16.6066
G01 X44.7303 Y16.6048
G01 X44.6554 Y16.5860
G01 X44.6472 Y16.5834
G01 X44.5744 Y16.5573
G01 X44.5665 Y16.5539
G01 X44.4967 Y16.5208
G01 X44.4892 Y16.5167
G01 X44.4229 Y16.4768
G01 X44.4159 Y16.4720
G01 X44.3538 Y16.4259
G01 X44.3473 Y16.4204
G01 X44.2901 Y16.3684
G01 X44.2841 Y16.3623
G01 X44.2334 Y16.3064
G01 X44.2268 Y16.2983
G01 X44.1809 Y16.2361
G01 X44.1762 Y16.2289
G01 X44.1383 Y16.1658
G01 X44.1326 Y16.1550
G01 X44.1011 Y16.0885
G01 X44.0964 Y16.0771
G01 X44.0716 Y16.0078
G01 X44.0690 Y15.9996
G01 X44.0502 Y15.9247
G01 X44.0484 Y15.9163
G01 X44.0370 Y15.8399
G01 X44.0360 Y15.8313
G01 X44.0322 Y15.7541
G01 X44.0321 Y15.7455
G01 X44.0360 Y15.6647
G01 X44.0370 Y15.6561
G01 X44.0484 Y15.5797
G01 X44.0502 Y15.5713
G01 X44.0690 Y15.4964
G01 X44.0716 Y15.4882
G01 X44.0964 Y15.4189
G01 X44.1011 Y15.4075
G01 X44.1326 Y15.3410
G01 X44.1383 Y15.3302
G01 X44.1762 Y15.2671
G01 X44.1809 Y15.2599
G01 X44.2268 Y15.1977
G01 X44.2346 Y15.1883
G01 X44.2866 Y15.1311
G01 X44.2927 Y15.1251
G01 X44.3473 Y15.0756
G01 X44.3567 Y15.0678
G01 X44.4159 Y15.0240
G01 X44.4229 Y15.0192
G01 X44.4924 Y14.9775
G01 X44.5000 Y14.9736
G01 X44.5665 Y14.9421
G01 X44.5779 Y14.9374
G01 X44.6472 Y14.9126
G01 X44.6571 Y14.9095
G01 X44.7339 Y14.8904
G01 X44.7423 Y14.8888
G01 X44.8151 Y14.8780
G01 X44.8274 Y14.8768
G01 X44.9009 Y14.8732
G01 X44.9113 Y14.8731
G01 X44.9866 Y14.8768
G01 X44.9952 Y14.8775
G01 X45.0735 Y14.8891
G01 X45.0837 Y14.8912
G01 X45.1569 Y14.9095
G01 X45.1668 Y14.9126
G01 X45.2000 Y14.9245
G01 X47.7069 Y12.4176
G01 X47.7069 Y8.9184
G01 X43.8000 Y5.0115
G01 X2.8594 Y5.0115
G01 X2.7556 Y5.1153
G01 X2.7862 Y5.2010
G01 X2.7887 Y5.2093
G01 X2.8089 Y5.2902
G01 X2.8113 Y5.3022
G01 X2.8236 Y5.3847
G01 X2.8245 Y5.3933
G01 X2.8289 Y5.4839
G01 X2.8288 Y5.4925
G01 X2.8248 Y5.5758
G01 X2.8236 Y5.5881
G01 X2.8113 Y5.6706
G01 X2.8093 Y5.6808
G01 X2.7887 Y5.7635
G01 X2.7862 Y5.7718
G01 X2.7570 Y5.8538
G01 X2.7523 Y5.8651
G01 X2.7166 Y5.9405
G01 X2.7108 Y5.9514
G01 X2.6660 Y6.0260
G01 X2.6612 Y6.0331
G01 X2.6115 Y6.1001
G01 X2.6037 Y6.1096
G01 X2.5477 Y6.1714
G01 X2.5417 Y6.1775
G01 X2.4772 Y6.2361
G01 X2.4677 Y6.2439
G01 X2.3977 Y6.2957
G01 X2.3905 Y6.3004
G01 X2.3190 Y6.3432
G01 X2.3081 Y6.3490
G01 X2.2294 Y6.3862
G01 X2.2214 Y6.3894
G01 X2.1429 Y6.4175
G01 X2.1347 Y6.4201
G01 X2.0502 Y6.4413
G01 X2.0382 Y6.4437
G01 X1.9520 Y6.4564
G01 X1.9434 Y6.4572
G01 X1.8601 Y6.4612
G01 X1.8479 Y6.4612
G01 X1.7609 Y6.4569
G01 X1.7523 Y6.4560
G01 X1.6662 Y6.4431
G01 X1.6578 Y6.4413
G01 X1.5733 Y6.4201
G01 X1.5651 Y6.4175
G01 X1.4832 Y6.3881
G01 X1.4753 Y6.3847
G01 X1.3966 Y6.3474
G01 X1.3890 Y6.3432
G01 X1.3144 Y6.2984
G01 X1.3073 Y6.2936
G01 X1.2374 Y6.2416
G01 X1.2308 Y6.2361
G01 X1.1663 Y6.1775
G01 X1.1603 Y6.1714
G01 X1.1019 Y6.1068
G01 X1.0965 Y6.1001
G01 X1.0447 Y6.0301
G01 X1.0400 Y6.0229
G01 X0.9953 Y5.9481
G01 X0.9914 Y5.9405
G01 X0.9542 Y5.8618
G01 X0.9510 Y5.8538
G01 X0.9218 Y5.7718
G01 X0.9193 Y5.7635
G01 X0.8983 Y5.6790
G01 X0.8967 Y5.6706
G01 X0.8840 Y5.5844
G01 X0.8832 Y5.5758
G01 X0.8791 Y5.4889
G01 X0.8792 Y5.4803
G01 X0.8835 Y5.3933
G01 X0.8844 Y5.3847
G01 X0.8973 Y5.2986
G01 X0.8991 Y5.2902
G01 X0.9203 Y5.2057
G01 X0.9229 Y5.1975
G01 X0.9523 Y5.1156
G01 X0.9557 Y5.1077
G01 X0.9930 Y5.0290
G01 X0.9972 Y5.0214
G01 X1.0420 Y4.9468
G01 X1.0468 Y4.9397
G01 X1.0988 Y4.8698
G01 X1.1043 Y4.8632
G01 X1.1629 Y4.7987
G01 X1.1690 Y4.7927
G01 X1.2336 Y4.7343
G01 X1.2403 Y4.7289
G01 X1.3103 Y4.6771
G01 X1.3175 Y4.6724
G01 X1.3923 Y4.6277
G01 X1.3999 Y4.6238
G01 X1.4786 Y4.5866
G01 X1.4866 Y4.5834
G01 X1.5686 Y4.5542
G01 X1.5769 Y4.5517
G01 X1.6614 Y4.5307
G01 X1.6698 Y4.5291
G01 X1.7560 Y4.5164
G01 X1.7646 Y4.5156
G01 X1.8515 Y4.5115
G01 X1.8601 Y4.5116
G01 X1.9434 Y4.5156
G00 Z1.0000
G00 X1.9542 Y4.3660
G01 F300.00
G01 Z-0.1000
G01 F600.00
G01 X1.9595 Y4.2912
G00 Z1.0000
G00 X1.9542 Y4.3660
G01 F300.00
G01 Z-0.1000
G01 F600.00
G01 X1.9763 Y4.3683
G01 X2.0711 Y4.3826
G01 X2.0862 Y4.3859
G01 X2.1676 Y4.4062
G01 X2.1860 Y4.4116
G01 X2.3353 Y4.2625
G01 X2.3634 Y4.2368
G01 X2.3778 Y4.2250
G01 X2.4027 Y4.2065
G01 X2.4147 Y4.1982
G01 X2.4539 Y4.1747
G01 X2.4673 Y4.1678
G01 X2.4974 Y4.1537
G01 X2.5122 Y4.1477
G01 X2.5385 Y4.1382
G01 X2.5323 Y4.1231
G01 X2.5270 Y4.1075
G01 X2.5231 Y4.0938
G01 X2.5200 Y4.0795
G01 X2.5070 Y3.9990
G01 X2.5051 Y3.9821
G01 X2.5044 Y3.9693
G01 X2.5043 Y3.9523
G01 X2.5050 Y3.9386
G01 X2.5069 Y3.9217
G01 X2.5093 Y3.9072
G01 X2.5131 Y3.8906
G01 X2.5169 Y3.8774
G01 X2.5228 Y3.8604
G01 X2.5295 Y3.8448
G01 X2.4889 Y3.8748
G01 X2.4754 Y3.8841
G01 X2.3929 Y3.9338
G01 X2.3735 Y3.9440
G01 X2.2935 Y3.9818
G01 X2.2732 Y3.9902
G01 X2.1842 Y4.0218
G01 X2.1680 Y4.0264
G01 X2.0822 Y4.0479
G01 X2.0606 Y4.0520
G01 X1.9672 Y4.0656
G01 X1.9508 Y4.0670
G01 X1.8565 Y4.0713
G01 X1.8410 Y4.0711
G01 X1.7572 Y4.0670
G01 X1.7413 Y4.0657
G01 X1.6474 Y4.0520
G01 X1.6278 Y4.0483
G00 Z1.0000
G00 X1.6278 Y4.0483
G01 F300.00
G01 Z-0.1000
G01 F600.00
G01 X1.7798 Y4.1432
G00 Z1.0000
G00 X1.7798 Y4.1432
G01 F300.00
G01 Z-0.1000
G01 F600.00
G01 X1.9649 Y4.2164
G00 Z1.0000
G00 X1.9649 Y4.2164
G01 F300.00
G01 Z-0.1000
G01 F600.00
G01 X1.9961 Y4.2196
G01 X2.0876 Y4.2332
G01 X2.1126 Y4.2380
G01 X2.1406 Y4.2449
G01 X2.2171 Y4.1685
G01 X2.1219 Y4.1926
G01 X2.0976 Y4.1978
G01 X2.0831 Y4.2003
G01 X1.9971 Y4.2131
G01 X1.9824 Y4.2149
G01 X1.9649 Y4.2164
G00 Z1.0000
G00 X1.9649 Y4.2164
G01 F300.00
G01 Z-0.1000
G01 F600.00
G01 X1.9595 Y4.2912
G00 Z1.0000
G00 X1.9595 Y4.2912
G01 F300.00
G01 Z-0.1000
G01 F600.00
G01 X1.9866 Y4.2940
G01 X2.0807 Y4.3081
G01 X2.1024 Y4.3126
G01 X2.1636 Y4.3279
G01 X2.2829 Y4.2088
G01 X2.3104 Y4.1836
G01 X2.3212 Y4.1742
G01 X2.3332 Y4.1647
G01 X2.3573 Y4.1468
G01 X2.3781 Y4.1326
G01 X2.4149 Y4.1106
G01 X2.4290 Y4.1031
G01 X2.4465 Y4.0947
G01 X2.4441 Y4.0819
G01 X2.4335 Y4.0146
G01 X2.4313 Y3.9982
G01 X2.4068 Y4.0112
G01 X2.3289 Y4.0481
G01 X2.3161 Y4.0538
G01 X2.2996 Y4.0604
G01 X2.2178 Y4.0896
G01 X2.1998 Y4.0954
G01 X2.1860 Y4.0993
G01 X2.0968 Y4.1215
G01 X2.0732 Y4.1260
G01 X1.9887 Y4.1385
G01 X1.9605 Y4.1415
G01 X1.8585 Y4.1463
G01 X1.8389 Y4.1461
G01 X1.7798 Y4.1432
G00 Z1.0000
G00 X1.7798 Y4.1432
G01 F300.00
G01 Z-0.1000
G01 F600.00
G01 X1.8010 Y4.1981
G01 X1.8092 Y4.2232
G01 X1.8131 Y4.2379
G01 X1.8171 Y4.2569
G01 X1.8193 Y4.2705
G01 X1.8212 Y4.2876
G01 X1.8451 Y4.2865
G01 X1.8647 Y4.2866
G01 X1.9595 Y4.2912
G00 Z1.0000
G00 X2.8450 Y5.1320
G01 F300.00
G01 Z-0.1000
G01 F600.00
G01 X2.8423 Y5.1347
G01 X2.8425 Y5.1354
G01 X2.8450 Y5.1320
G00 Z1.0000
G00 X2.7585 Y6.0178
G01 F300.00
G01 Z-0.1000
G01 F600.00
G01 X2.7617 Y6.1550
G00 Z1.0000
G00 X2.7617 Y6.1550
G01 F300.00
G01 Z-0.1000
G01 F600.00
G01 X2.7595 Y6.1522
G01 X2.7308 Y6.1909
G01 X2.7191 Y6.2055
G01 X2.6585 Y6.2725
G01 X2.6467 Y6.2846
G01 X2.5724 Y6.3521
G01 X2.5585 Y6.3632
G01 X2.5231 Y6.3895
G00 Z1.0000
G00 X2.5231 Y6.3895
G01 F300.00
G01 Z-0.1000
G01 F600.00
G01 X2.7644 Y6.2673
G00 Z1.0000
G00 X2.5231 Y6.3895
G01 F300.00
G01 Z-0.1000
G01 F600.00
G01 X2.5679 Y6.4344
G01 X2.5787 Y6.4463
G01 X2.5862 Y6.4554
G01 X2.5968 Y6.4699
G01 X2.6048 Y6.4822
G01 X2.6141 Y6.4988
G01 X2.6221 Y6.5156
G01 X2.8873 Y6.2505
G01 X2.8710 Y6.2437
G01 X2.8514 Y6.2339
G01 X2.8326 Y6.2226
G01 X2.8168 Y6.2112
G01 X2.8027 Y6.1997
G01 X2.7875 Y6.1853
G01 X2.7742 Y6.1705
G01 X2.7617 Y6.1550
G00 Z1.0000
G00 X2.7617 Y6.1550
G01 F300.00
G01 Z-0.1000
G01 F600.00
G01 X2.7644 Y6.2673
G00 Z1.0000
G00 X2.7644 Y6.2673
G01 F300.00
G01 Z-0.1000
G01 F600.00
G01 X2.7654 Y6.2663
G01 X2.7654 Y6.2662
G01 X2.7644 Y6.2673
G00 Z1.0000
G00 X2.7585 Y6.0178
G01 F300.00
G01 Z-0.1000
G01 F600.00
G01 X2.7318 Y6.0622
G01 X2.7251 Y6.0725
G01 X2.6700 Y6.1470
G01 X2.6592 Y6.1599
G01 X2.5982 Y6.2271
G01 X2.5894 Y6.2356
G01 X2.5275 Y6.2916
G01 X2.5146 Y6.3024
G01 X2.4416 Y6.3565
G01 X2.4298 Y6.3642
G01 X2.3885 Y6.3890
G01 X2.3968 Y6.3921
G01 X2.4061 Y6.3961
G01 X2.4192 Y6.4028
G01 X2.4338 Y6.4116
G01 X2.4505 Y6.4242
G01 X2.4631 Y6.4356
G01 X2.5135 Y6.4860
G01 X2.5248 Y6.4987
G01 X2.5350 Y6.5123
G01 X2.5445 Y6.5276
G01 X2.5504 Y6.5390
G01 X2.5571 Y6.5546
G01 X2.5624 Y6.5707
G01 X2.5671 Y6.5912
G01 X2.5787 Y6.6651
G01 X3.0329 Y6.2109
G01 X3.0157 Y6.2088
G01 X2.9991 Y6.2052
G01 X2.9230 Y6.1835
G01 X2.9088 Y6.1784
G01 X2.8951 Y6.1722
G01 X2.8839 Y6.1661
G01 X2.8704 Y6.1575
G01 X2.8568 Y6.1473
G01 X2.8463 Y6.1379
G01 X2.8373 Y6.1288
G01 X2.8275 Y6.1174
G01 X2.7853 Y6.0636
G01 X2.7777 Y6.0530
G01 X2.7718 Y6.0440
G01 X2.7663 Y6.0343
G01 X2.7627 Y6.0273
G01 X2.7585 Y6.0178
G00 Z1.0000
G00 X2.2251 Y7.1248
G01 F300.00
G01 Z-0.1000
G01 F600.00
G01 X3.3966 Y5.9535
G01 X3.4214 Y5.9315
G01 X3.4455 Y5.9135
G01 X3.4526 Y5.9088
G01 X3.4752 Y5.8952
G01 X3.4860 Y5.8894
G01 X3.5161 Y5.8755
G01 X3.5427 Y5.8660
G01 X3.5509 Y5.8634
G01 X3.5818 Y5.8556
G01 X3.6145 Y5.8504
G01 X3.6268 Y5.8492
G01 X3.6574 Y5.8479
G01 X11.0820 Y5.8479
G01 X11.1126 Y5.8492
G01 X11.1212 Y5.8500
G01 X11.1491 Y5.8540
G01 X11.1576 Y5.8556
G01 X11.1885 Y5.8634
G01 X11.2198 Y5.8742
G01 X11.2312 Y5.8789
G01 X11.2610 Y5.8934
G01 X11.2883 Y5.9098
G01 X11.3151 Y5.9292
G01 X11.3232 Y5.9358
G01 X11.3459 Y5.9565
G01 X12.1552 Y6.7658
G01 X12.1730 Y6.7854
G01 X12.1796 Y6.7934
G01 X12.1965 Y6.8161
G01 X12.2022 Y6.8248
G01 X12.2166 Y6.8490
G01 X12.2311 Y6.8788
G01 X12.2351 Y6.8884
G01 X12.2440 Y6.9133
G01 X12.2471 Y6.9232
G01 X12.2540 Y6.9506
G01 X12.2560 Y6.9609
G01 X12.2598 Y6.9870
G01 X12.2608 Y6.9974
G01 X12.2620 Y7.0237
G01 X12.2621 Y7.0570
G01 X12.2693 Y7.0664
G01 X12.2748 Y7.0753
G01 X12.2783 Y7.0818
G01 X12.2826 Y7.0913
G01 X12.2860 Y7.1011
G01 X12.2890 Y7.1130
G01 X12.2908 Y7.1251
G01 X12.2914 Y7.1356
G01 X12.2914 Y9.1186
G01 X12.2908 Y9.1309
G01 X12.2890 Y9.1430
G01 X12.2860 Y9.1549
G01 X12.2826 Y9.1647
G01 X12.2783 Y9.1742
G01 X12.2748 Y9.1807
G01 X12.2693 Y9.1896
G01 X12.2630 Y9.1979
G01 X12.2548 Y9.2070
G01 X12.2471 Y9.2140
G01 X12.2374 Y9.2215
G01 X12.2285 Y9.2270
G01 X12.2220 Y9.2305
G01 X12.2125 Y9.2348
G01 X12.2027 Y9.2382
G01 X12.1908 Y9.2412
G01 X12.1805 Y9.2428
G01 X12.1701 Y9.2435
G01 X11.6076 Y9.2436
G01 X11.5953 Y9.2430
G01 X11.5814 Y9.2408
G01 X11.5713 Y9.2382
G01 X11.5632 Y9.2354
G01 X11.5503 Y9.2297
G01 X11.5382 Y9.2225
G01 X11.5269 Y9.2140
G01 X11.5167 Y9.2043
G01 X11.5110 Y9.1979
G01 X11.5047 Y9.1896
G01 X11.4974 Y9.1775
G01 X11.4914 Y9.1647
G01 X11.4870 Y9.1513
G01 X11.4850 Y9.1430
G01 X11.4834 Y9.1327
G01 X11.4826 Y9.1186
G01 X11.4826 Y7.1541
G01 X10.9266 Y6.5981
G01 X3.8128 Y6.5981
G01 X2.7556 Y7.6553
G01 X2.7851 Y7.7375
G01 X2.7887 Y7.7493
G01 X2.8089 Y7.8302
G01 X2.8107 Y7.8386
G01 X2.8240 Y7.9284
G01 X2.8248 Y7.9370
G01 X2.8288 Y8.0203
G01 X2.8288 Y8.0325
G01 X2.8248 Y8.1158
G01 X2.8240 Y8.1244
G01 X2.8107 Y8.2142
G01 X2.8089 Y8.2226
G01 X2.7887 Y8.3035
G01 X2.7851 Y8.3153
G01 X2.7570 Y8.3938
G01 X2.7538 Y8.4018
G01 X2.7150 Y8.4838
G01 X2.7108 Y8.4914
G01 X2.6680 Y8.5629
G01 X2.6612 Y8.5731
G01 X2.6115 Y8.6401
G01 X2.6061 Y8.6468
G01 X2.5451 Y8.7141
G01 X2.5390 Y8.7201
G01 X2.4772 Y8.7761
G01 X2.4677 Y8.7839
G01 X2.4007 Y8.8336
G01 X2.3936 Y8.8384
G01 X2.3157 Y8.8851
G01 X2.3081 Y8.8890
G01 X2.2327 Y8.9247
G01 X2.2214 Y8.9294
G01 X2.1429 Y8.9575
G01 X2.1347 Y8.9601
G01 X2.0466 Y8.9821
G01 X2.0382 Y8.9837
G01 X1.9557 Y8.9960
G01 X1.9434 Y8.9972
G01 X1.8601 Y9.0012
G01 X1.8515 Y9.0013
G01 X1.7609 Y8.9969
G01 X1.7523 Y8.9960
G01 X1.6698 Y8.9837
G01 X1.6578 Y8.9813
G01 X1.5769 Y8.9611
G01 X1.5686 Y8.9586
G01 X1.4832 Y8.9281
G01 X1.4753 Y8.9247
G01 X1.3966 Y8.8874
G01 X1.3890 Y8.8832
G01 X1.3144 Y8.8384
G01 X1.3073 Y8.8336
G01 X1.2374 Y8.7816
G01 X1.2308 Y8.7761
G01 X1.1663 Y8.7175
G01 X1.1603 Y8.7114
G01 X1.1019 Y8.6468
G01 X1.0965 Y8.6401
G01 X1.0447 Y8.5701
G01 X1.0400 Y8.5629
G01 X0.9953 Y8.4881
G01 X0.9914 Y8.4805
G01 X0.9542 Y8.4018
G01 X0.9510 Y8.3938
G01 X0.9218 Y8.3118
G01 X0.9193 Y8.3035
G01 X0.8983 Y8.2190
G01 X0.8967 Y8.2106
G01 X0.8840 Y8.1244
G01 X0.8832 Y8.1158
G01 X0.8791 Y8.0289
G01 X0.8792 Y8.0203
G01 X0.8835 Y7.9333
G01 X0.8844 Y7.9247
G01 X0.8973 Y7.8386
G01 X0.8991 Y7.8302
G01 X0.9203 Y7.7457
G01 X0.9229 Y7.7375
G01 X0.9523 Y7.6556
G01 X0.9557 Y7.6477
G01 X0.9930 Y7.5690
G01 X0.9972 Y7.5614
G01 X1.0420 Y7.4868
G01 X1.0468 Y7.4797
G01 X1.0988 Y7.4098
G01 X1.1043 Y7.4032
G01 X1.1629 Y7.3387
G01 X1.1690 Y7.3327
G01 X1.2336 Y7.2743
G01 X1.2403 Y7.2689
G01 X1.3103 Y7.2171
G01 X1.3175 Y7.2124
G01 X1.3923 Y7.1677
G01 X1.3999 Y7.1638
G01 X1.4786 Y7.1266
G01 X1.4866 Y7.1234
G01 X1.5686 Y7.0942
G01 X1.5769 Y7.0917
G01 X1.6614 Y7.0707
G01 X1.6698 Y7.0691
G01 X1.7560 Y7.0564
G01 X1.7646 Y7.0556
G01 X1.8515 Y7.0515
G01 X1.8601 Y7.0516
G01 X1.9471 Y7.0559
G01 X1.9557 Y7.0568
G01 X2.0418 Y7.0697
G01 X2.0502 Y7.0715
G01 X2.1347 Y7.0927
G01 X2.1429 Y7.0953
G01 X2.2251 Y7.1248
G00 Z1.0000
G00 X1.9434 Y9.5956
G01 F300.00
G01 Z-0.1000
G01 F600.00
G01 X1.9557 Y9.5968
G01 X2.0382 Y9.6091
G01 X2.0502 Y9.6115
G01 X2.1347 Y9.6327
G01 X2.1429 Y9.6353
G01 X2.2214 Y9.6634
G01 X2.2327 Y9.6681
G01 X2.3114 Y9.7054
G01 X2.3190 Y9.7096
G01 X2.3905 Y9.7524
G01 X2.4007 Y9.7592
G01 X2.4706 Y9.8112
G01 X2.4772 Y9.8167
G01 X2.5390 Y9.8727
G01 X2.5477 Y9.8814
G01 X2.6037 Y9.9432
G01 X2.6092 Y9.9498
G01 X2.6633 Y10.0227
G01 X2.6680 Y10.0299
G01 X2.7108 Y10.1014
G01 X2.7166 Y10.1123
G01 X2.7539 Y10.1913
G01 X6.1182 Y10.1913
G01 X8.4467 Y7.8627
G01 X8.4694 Y7.8420
G01 X8.4760 Y7.8365
G01 X8.4986 Y7.8196
G01 X8.5072 Y7.8138
G01 X8.5330 Y7.7984
G01 X8.5628 Y7.7839
G01 X8.5742 Y7.7792
G01 X8.6055 Y7.7684
G01 X8.6346 Y7.7610
G01 X8.6449 Y7.7590
G01 X8.6777 Y7.7545
G01 X8.7077 Y7.7530
G01 X10.2126 Y7.7529
G01 X10.2126 Y7.1374
G01 X10.2130 Y7.1270
G01 X10.2150 Y7.1130
G01 X10.2180 Y7.1011
G01 X10.2221 Y7.0896
G01 X10.2274 Y7.0785
G01 X10.2337 Y7.0680
G01 X10.2410 Y7.0581
G01 X10.2492 Y7.0490
G01 X10.2583 Y7.0408
G01 X10.2666 Y7.0345
G01 X10.2755 Y7.0290
G01 X10.2820 Y7.0255
G01 X10.2915 Y7.0212
G01 X10.3013 Y7.0178
G01 X10.3132 Y7.0148
G01 X10.3235 Y7.0132
G01 X10.3339 Y7.0125
G01 X10.8964 Y7.0124
G01 X10.9068 Y7.0128
G01 X10.9172 Y7.0142
G01 X10.9244 Y7.0156
G01 X10.9344 Y7.0183
G01 X10.9442 Y7.0219
G01 X10.9537 Y7.0263
G01 X10.9627 Y7.0315
G01 X10.9757 Y7.0408
G01 X10.9835 Y7.0477
G01 X10.9906 Y7.0553
G01 X11.0003 Y7.0680
G01 X11.0058 Y7.0769
G01 X11.0104 Y7.0862
G01 X11.0132 Y7.0930
G01 X11.0165 Y7.1029
G01 X11.0190 Y7.1130
G01 X11.0203 Y7.1215
G01 X11.0214 Y7.1374
G01 X11.0214 Y9.1204
G01 X11.0206 Y9.1327
G01 X11.0182 Y9.1466
G01 X11.0149 Y9.1584
G01 X11.0119 Y9.1664
G01 X11.0083 Y9.1742
G01 X11.0013 Y9.1865
G01 X10.9942 Y9.1965
G01 X10.9848 Y9.2070
G01 X10.9757 Y9.2152
G01 X10.9674 Y9.2215
G01 X10.9585 Y9.2270
G01 X10.9520 Y9.2305
G01 X10.9425 Y9.2348
G01 X10.9327 Y9.2382
G01 X10.9208 Y9.2412
G01 X10.9105 Y9.2428
G01 X10.9001 Y9.2435
G01 X10.3376 Y9.2436
G01 X10.3253 Y9.2430
G01 X10.3132 Y9.2412
G01 X10.3013 Y9.2382
G01 X10.2898 Y9.2341
G01 X10.2787 Y9.2288
G01 X10.2682 Y9.2225
G01 X10.2583 Y9.2152
G01 X10.2505 Y9.2083
G01 X10.2422 Y9.1993
G01 X10.2347 Y9.1896
G01 X10.2282 Y9.1791
G01 X10.2236 Y9.1698
G01 X10.2185 Y9.1566
G01 X10.2158 Y9.1466
G01 X10.2144 Y9.1394
G01 X10.2129 Y9.1272
G01 X10.2126 Y9.1186
G01 X10.2126 Y8.5031
G01 X8.8674 Y8.5031
G01 X6.5375 Y10.8329
G01 X6.5148 Y10.8536
G01 X6.5067 Y10.8602
G01 X6.4799 Y10.8796
G01 X6.4558 Y10.8942
G01 X6.4466 Y10.8992
G01 X6.4194 Y10.9120
G01 X6.3883 Y10.9234
G01 X6.3784 Y10.9265
G01 X6.3492 Y10.9338
G01 X6.3165 Y10.9390
G01 X6.3042 Y10.9402
G01 X6.2736 Y10.9415
G01 X2.7539 Y10.9415
G01 X2.7150 Y11.0238
G01 X2.7108 Y11.0314
G01 X2.6660 Y11.1060
G01 X2.6612 Y11.1131
G01 X2.6092 Y11.1830
G01 X2.6037 Y11.1896
G01 X2.5477 Y11.2514
G01 X2.5390 Y11.2601
G01 X2.4744 Y11.3185
G01 X2.4677 Y11.3239
G01 X2.4007 Y11.3736
G01 X2.3905 Y11.3804
G01 X2.3190 Y11.4232
G01 X2.3081 Y11.4290
G01 X2.2327 Y11.4647
G01 X2.2248 Y11.4681
G01 X2.1429 Y11.4975
G01 X2.1347 Y11.5001
G01 X2.0502 Y11.5213
G01 X2.0418 Y11.5231
G01 X1.9557 Y11.5360
G01 X1.9471 Y11.5369
G01 X1.8601 Y11.5412
G01 X1.8515 Y11.5413
G01 X1.7609 Y11.5369
G01 X1.7523 Y11.5360
G01 X1.6662 Y11.5231
G01 X1.6578 Y11.5213
G01 X1.5733 Y11.5001
G01 X1.5651 Y11.4975
G01 X1.4832 Y11.4681
G01 X1.4753 Y11.4647
G01 X1.3966 Y11.4274
G01 X1.3890 Y11.4232
G01 X1.3144 Y11.3784
G01 X1.3073 Y11.3736
G01 X1.2403 Y11.3239
G01 X1.2308 Y11.3161
G01 X1.1690 Y11.2601
G01 X1.1603 Y11.2514
G01 X1.1043 Y11.1896
G01 X1.0988 Y11.1830
G01 X1.0468 Y11.1131
G01 X1.0400 Y11.1029
G01 X0.9972 Y11.0314
G01 X0.9930 Y11.0238
G01 X0.9557 Y10.9451
G01 X0.9523 Y10.9372
G01 X0.9229 Y10.8553
G01 X0.9203 Y10.8471
G01 X0.8991 Y10.7626
G01 X0.8973 Y10.7542
G01 X0.8844 Y10.6681
G01 X0.8835 Y10.6595
G01 X0.8792 Y10.5725
G01 X0.8791 Y10.5639
G01 X0.8832 Y10.4770
G01 X0.8840 Y10.4684
G01 X0.8973 Y10.3786
G01 X0.8991 Y10.3702
G01 X0.9203 Y10.2857
G01 X0.9229 Y10.2775
G01 X0.9523 Y10.1956
G01 X0.9557 Y10.1877
G01 X0.9930 Y10.1090
G01 X0.9972 Y10.1014
G01 X1.0400 Y10.0299
G01 X1.0468 Y10.0197
G01 X1.0988 Y9.9498
G01 X1.1043 Y9.9432
G01 X1.1603 Y9.8814
G01 X1.1690 Y9.8727
G01 X1.2308 Y9.8167
G01 X1.2403 Y9.8089
G01 X1.3073 Y9.7592
G01 X1.3144 Y9.7544
G01 X1.3890 Y9.7096
G01 X1.3966 Y9.7054
G01 X1.4753 Y9.6681
G01 X1.4832 Y9.6647
G01 X1.5651 Y9.6353
G01 X1.5733 Y9.6327
G01 X1.6614 Y9.6107
G01 X1.6698 Y9.6091
G01 X1.7560 Y9.5964
G01 X1.7646 Y9.5956
G01 X1.8515 Y9.5915
G01 X1.8601 Y9.5916
G01 X1.9434 Y9.5956
G00 Z1.0000
G00 X1.9434 Y12.1356
G01 F300.00
G01 Z-0.1000
G01 F600.00
G01 X1.9557 Y12.1368
G01 X2.0382 Y12.1491
G01 X2.0502 Y12.1515
G01 X2.1347 Y12.1727
G01 X2.1429 Y12.1753
G01 X2.2214 Y12.2034
G01 X2.2327 Y12.2081
G01 X2.3114 Y12.2454
G01 X2.3190 Y12.2496
G01 X2.3905 Y12.2924
G01 X2.4007 Y12.2992
G01 X2.4706 Y12.3512
G01 X2.4772 Y12.3567
G01 X2.5390 Y12.4127
G01 X2.5477 Y12.4214
G01 X2.6037 Y12.4832
G01 X2.6092 Y12.4898
G01 X2.6633 Y12.5627
G01 X2.6680 Y12.5699
G01 X2.7108 Y12.6414
G01 X2.7166 Y12.6523
G01 X2.7539 Y12.7313
G01 X5.5497 Y12.7313
G01 X8.5133 Y9.7677
G01 X8.5387 Y9.7446
G01 X8.5651 Y9.7246
G01 X8.5753 Y9.7178
G01 X8.5979 Y9.7043
G01 X8.6072 Y9.6994
G01 X8.6310 Y9.6881
G01 X8.6407 Y9.6842
G01 X8.6673 Y9.6748
G01 X8.6994 Y9.6664
G01 X8.7096 Y9.6643
G01 X8.7393 Y9.6600
G01 X8.7479 Y9.6592
G01 X8.7785 Y9.6579
G01 X11.8870 Y9.6579
G01 X11.9213 Y9.6595
G01 X11.9541 Y9.6640
G01 X11.9644 Y9.6660
G01 X11.9900 Y9.6724
G01 X12.0017 Y9.6760
G01 X12.0328 Y9.6874
G01 X12.0616 Y9.7011
G01 X12.0902 Y9.7178
G01 X12.1004 Y9.7246
G01 X12.1268 Y9.7446
G01 X12.1509 Y9.7665
G01 X13.4235 Y11.0391
G01 X13.4430 Y11.0604
G01 X13.4485 Y11.0670
G01 X13.4654 Y11.0896
G01 X13.4702 Y11.0967
G01 X13.4848 Y11.1208
G01 X13.4889 Y11.1284
G01 X13.5011 Y11.1538
G01 X13.5051 Y11.1634
G01 X13.5140 Y11.1883
G01 X13.5166 Y11.1965
G01 X13.5244 Y11.2274
G01 X13.5260 Y11.2359
G01 X13.5300 Y11.2638
G01 X13.5320 Y11.2969
G01 X13.5321 Y11.7814
G01 X13.5393 Y11.7908
G01 X13.5448 Y11.7997
G01 X13.5483 Y11.8062
G01 X13.5526 Y11.8157
G01 X13.5560 Y11.8255
G01 X13.5590 Y11.8374
G01 X13.5608 Y11.8495
G01 X13.5614 Y11.8600
G01 X13.5614 Y13.8430
G01 X13.5610 Y13.8534
G01 X13.5596 Y13.8638
G01 X13.5570 Y13.8757
G01 X13.5549 Y13.8828
G01 X13.5512 Y13.8925
G01 X13.5458 Y13.9035
G01 X13.5403 Y13.9124
G01 X13.5330 Y13.9223
G01 X13.5248 Y13.9314
G01 X13.5171 Y13.9384
G01 X13.5074 Y13.9459
G01 X13.4985 Y13.9514
G01 X13.4920 Y13.9549
G01 X13.4825 Y13.9592
G01 X13.4727 Y13.9626
G01 X13.4608 Y13.9656
G01 X13.4505 Y13.9672
G01 X13.4401 Y13.9679
G01 X12.8776 Y13.9680
G01 X12.8653 Y13.9674
G01 X12.8514 Y13.9652
G01 X12.8378 Y13.9615
G01 X12.8298 Y13.9585
G01 X12.8203 Y13.9541
G01 X12.8082 Y13.9469
G01 X12.7969 Y13.9384
G01 X12.7867 Y13.9287
G01 X12.7810 Y13.9223
G01 X12.7747 Y13.9140
G01 X12.7674 Y13.9019
G01 X12.7614 Y13.8891
G01 X12.7580 Y13.8793
G01 X12.7558 Y13.8710
G01 X12.7534 Y13.8571
G01 X12.7526 Y13.8430
G01 X12.7526 Y11.8618
G01 X12.7532 Y11.8495
G01 X12.7547 Y11.8392
G01 X12.7575 Y11.8273
G01 X12.7608 Y11.8174
G01 X12.7636 Y11.8106
G01 X12.7692 Y11.7997
G01 X12.7747 Y11.7908
G01 X12.7819 Y11.7814
G01 X12.7819 Y11.4584
G01 X11.7316 Y10.4081
G01 X8.9339 Y10.4081
G01 X5.9691 Y13.3729
G01 X5.9450 Y13.3948
G01 X5.9185 Y13.4148
G01 X5.9083 Y13.4216
G01 X5.8798 Y13.4383
G01 X5.8509 Y13.4520
G01 X5.8198 Y13.4634
G01 X5.8081 Y13.4670
G01 X5.7825 Y13.4734
G01 X5.7741 Y13.4751
G01 X5.7480 Y13.4790
G01 X5.7394 Y13.4799
G01 X5.7051 Y13.4815
G01 X2.7539 Y13.4815
G01 X2.7150 Y13.5638
G01 X2.7108 Y13.5714
G01 X2.6660 Y13.6460
G01 X2.6612 Y13.6531
G01 X2.6092 Y13.7230
G01 X2.6037 Y13.7296
G01 X2.5451 Y13.7941
G01 X2.5390 Y13.8001
G01 X2.4744 Y13.8585
G01 X2.4677 Y13.8639
G01 X2.3977 Y13.9157
G01 X2.3905 Y13.9204
G01 X2.3157 Y13.9651
G01 X2.3081 Y13.9690
G01 X2.2327 Y14.0047
G01 X2.2214 Y14.0094
G01 X2.1394 Y14.0386
G01 X2.1311 Y14.0411
G01 X2.0466 Y14.0621
G01 X2.0382 Y14.0637
G01 X1.9520 Y14.0764
G01 X1.9434 Y14.0772
G01 X1.8601 Y14.0812
G01 X1.8479 Y14.0812
G01 X1.7646 Y14.0772
G01 X1.7523 Y14.0760
G01 X1.6698 Y14.0637
G01 X1.6614 Y14.0621
G01 X1.5769 Y14.0411
G01 X1.5651 Y14.0375
G01 X1.4866 Y14.0094
G01 X1.4786 Y14.0062
G01 X1.3999 Y13.9690
G01 X1.3923 Y13.9651
G01 X1.3175 Y13.9204
G01 X1.3103 Y13.9157
G01 X1.2403 Y13.8639
G01 X1.2336 Y13.8585
G01 X1.1663 Y13.7975
G01 X1.1603 Y13.7914
G01 X1.1019 Y13.7268
G01 X1.0965 Y13.7201
G01 X1.0447 Y13.6501
G01 X1.0400 Y13.6429
G01 X0.9972 Y13.5714
G01 X0.9914 Y13.5605
G01 X0.9542 Y13.4818
G01 X0.9510 Y13.4738
G01 X0.9229 Y13.3953
G01 X0.9193 Y13.3835
G01 X0.8991 Y13.3026
G01 X0.8967 Y13.2906
G01 X0.8844 Y13.2081
G01 X0.8835 Y13.1995
G01 X0.8792 Y13.1125
G01 X0.8791 Y13.1039
G01 X0.8832 Y13.0170
G01 X0.8840 Y13.0084
G01 X0.8973 Y12.9186
G01 X0.8991 Y12.9102
G01 X0.9203 Y12.8257
G01 X0.9229 Y12.8175
G01 X0.9523 Y12.7356
G01 X0.9557 Y12.7277
G01 X0.9930 Y12.6490
G01 X0.9972 Y12.6414
G01 X1.0400 Y12.5699
G01 X1.0468 Y12.5597
G01 X1.0988 Y12.4898
G01 X1.1043 Y12.4832
G01 X1.1603 Y12.4214
G01 X1.1690 Y12.4127
G01 X1.2308 Y12.3567
G01 X1.2403 Y12.3489
G01 X1.3073 Y12.2992
G01 X1.3144 Y12.2944
G01 X1.3890 Y12.2496
G01 X1.3966 Y12.2454
G01 X1.4753 Y12.2081
G01 X1.4832 Y12.2047
G01 X1.5651 Y12.1753
G01 X1.5733 Y12.1727
G01 X1.6614 Y12.1507
G01 X1.6698 Y12.1491
G01 X1.7560 Y12.1364
G01 X1.7646 Y12.1356
G01 X1.8515 Y12.1315
G01 X1.8601 Y12.1316
G01 X1.9434 Y12.1356
G00 Z1.0000
G00 X1.9434 Y14.6756
G01 F300.00
G01 Z-0.1000
G01 F600.00
G01 X1.9557 Y14.6768
G01 X2.0382 Y14.6891
G01 X2.0502 Y14.6915
G01 X2.1311 Y14.7117
G01 X2.1394 Y14.7142
G01 X2.2214 Y14.7434
G01 X2.2327 Y14.7481
G01 X2.3081 Y14.7838
G01 X2.3157 Y14.7877
G01 X2.3905 Y14.8324
G01 X2.4007 Y14.8392
G01 X2.4706 Y14.8912
G01 X2.4772 Y14.8967
G01 X2.5390 Y14.9527
G01 X2.5477 Y14.9614
G01 X2.6037 Y15.0232
G01 X2.6092 Y15.0298
G01 X2.6633 Y15.1027
G01 X2.6680 Y15.1099
G01 X2.7108 Y15.1814
G01 X2.7166 Y15.1923
G01 X2.7539 Y15.2713
G01 X10.5632 Y15.2713
G01 X11.5119 Y14.3226
G01 X11.5119 Y13.9234
G01 X11.5047 Y13.9140
G01 X11.4992 Y13.9051
G01 X11.4936 Y13.8942
G01 X11.4908 Y13.8874
G01 X11.4875 Y13.8775
G01 X11.4847 Y13.8656
G01 X11.4832 Y13.8553
G01 X11.4826 Y13.8430
G01 X11.4826 Y11.8618
G01 X11.4834 Y11.8477
G01 X11.4858 Y11.8338
G01 X11.4880 Y11.8255
G01 X11.4908 Y11.8174
G01 X11.4965 Y11.8045
G01 X11.5037 Y11.7924
G01 X11.5134 Y11.7797
G01 X11.5192 Y11.7734
G01 X11.5269 Y11.7664
G01 X11.5382 Y11.7579
G01 X11.5503 Y11.7507
G01 X11.5632 Y11.7450
G01 X11.5713 Y11.7422
G01 X11.5814 Y11.7396
G01 X11.5953 Y11.7374
G01 X11.6076 Y11.7368
G01 X12.1682 Y11.7368
G01 X12.1787 Y11.7374
G01 X12.1890 Y11.7389
G01 X12.1991 Y11.7412
G01 X12.2062 Y11.7433
G01 X12.2159 Y11.7470
G01 X12.2253 Y11.7516
G01 X12.2358 Y11.7579
G01 X12.2443 Y11.7640
G01 X12.2521 Y11.7709
G01 X12.2573 Y11.7761
G01 X12.2642 Y11.7839
G01 X12.2703 Y11.7924
G01 X12.2758 Y11.8013
G01 X12.2804 Y11.8106
G01 X12.2832 Y11.8174
G01 X12.2865 Y11.8273
G01 X12.2890 Y11.8374
G01 X12.2903 Y11.8459
G01 X12.2914 Y11.8618
G01 X12.2914 Y13.8448
G01 X12.2908 Y13.8553
G01 X12.2890 Y13.8674
G01 X12.2860 Y13.8793
G01 X12.2826 Y13.8891
G01 X12.2783 Y13.8986
G01 X12.2748 Y13.9051
G01 X12.2693 Y13.9140
G01 X12.2621 Y13.9234
G01 X12.2620 Y14.4823
G01 X12.2608 Y14.5086
G01 X12.2600 Y14.5172
G01 X12.2557 Y14.5470
G01 X12.2540 Y14.5554
G01 X12.2476 Y14.5810
G01 X12.2440 Y14.5927
G01 X12.2351 Y14.6176
G01 X12.2311 Y14.6272
G01 X12.2189 Y14.6526
G01 X12.2022 Y14.6812
G01 X12.1965 Y14.6899
G01 X12.1785 Y14.7140
G01 X12.1730 Y14.7206
G01 X12.1535 Y14.7419
G01 X10.9839 Y15.9117
G01 X10.9612 Y15.9324
G01 X10.9517 Y15.9402
G01 X10.9290 Y15.9569
G01 X10.9008 Y15.9742
G01 X10.8916 Y15.9792
G01 X10.8644 Y15.9920
G01 X10.8333 Y16.0034
G01 X10.8234 Y16.0065
G01 X10.7942 Y16.0138
G01 X10.7615 Y16.0190
G01 X10.7492 Y16.0202
G01 X10.7186 Y16.0215
G01 X2.7539 Y16.0215
G01 X2.7150 Y16.1038
G01 X2.7108 Y16.1114
G01 X2.6680 Y16.1829
G01 X2.6612 Y16.1931
G01 X2.6115 Y16.2601
G01 X2.6037 Y16.2696
G01 X2.5477 Y16.3314
G01 X2.5417 Y16.3375
G01 X2.4772 Y16.3961
G01 X2.4706 Y16.4016
G01 X2.4007 Y16.4536
G01 X2.3936 Y16.4584
G01 X2.3157 Y16.5051
G01 X2.3081 Y16.5090
G01 X2.2294 Y16.5462
G01 X2.2214 Y16.5494
G01 X2.1429 Y16.5775
G01 X2.1311 Y16.5811
G01 X2.0502 Y16.6013
G01 X2.0382 Y16.6037
G01 X1.9557 Y16.6160
G01 X1.9471 Y16.6169
G01 X1.8601 Y16.6212
G01 X1.8515 Y16.6213
G01 X1.7609 Y16.6169
G01 X1.7523 Y16.6160
G01 X1.6698 Y16.6037
G01 X1.6578 Y16.6013
G01 X1.5733 Y16.5801
G01 X1.5651 Y16.5775
G01 X1.4832 Y16.5481
G01 X1.4753 Y16.5447
G01 X1.3966 Y16.5074
G01 X1.3890 Y16.5032
G01 X1.3144 Y16.4584
G01 X1.3073 Y16.4536
G01 X1.2374 Y16.4016
G01 X1.2308 Y16.3961
G01 X1.1663 Y16.3375
G01 X1.1603 Y16.3314
G01 X1.1019 Y16.2668
G01 X1.0965 Y16.2601
G01 X1.0468 Y16.1931
G01 X1.0400 Y16.1829
G01 X0.9972 Y16.1114
G01 X0.9914 Y16.1005
G01 X0.9557 Y16.0251
G01 X0.9523 Y16.0172
G01 X0.9229 Y15.9353
G01 X0.9193 Y15.9235
G01 X0.8991 Y15.8426
G01 X0.8973 Y15.8342
G01 X0.8844 Y15.7481
G01 X0.8835 Y15.7395
G01 X0.8792 Y15.6525
G01 X0.8791 Y15.6439
G01 X0.8832 Y15.5570
G01 X0.8844 Y15.5447
G01 X0.8967 Y15.4622
G01 X0.8983 Y15.4538
G01 X0.9193 Y15.3693
G01 X0.9218 Y15.3610
G01 X0.9510 Y15.2790
G01 X0.9542 Y15.2710
G01 X0.9914 Y15.1923
G01 X0.9953 Y15.1847
G01 X1.0400 Y15.1099
G01 X1.0447 Y15.1027
G01 X1.0965 Y15.0327
G01 X1.1019 Y15.0260
G01 X1.1629 Y14.9587
G01 X1.1690 Y14.9527
G01 X1.2336 Y14.8943
G01 X1.2403 Y14.8889
G01 X1.3103 Y14.8371
G01 X1.3175 Y14.8324
G01 X1.3923 Y14.7877
G01 X1.3999 Y14.7838
G01 X1.4786 Y14.7466
G01 X1.4866 Y14.7434
G01 X1.5686 Y14.7142
G01 X1.5769 Y14.7117
G01 X1.6614 Y14.6907
G01 X1.6698 Y14.6891
G01 X1.7560 Y14.6764
G01 X1.7646 Y14.6756
G01 X1.8515 Y14.6715
G01 X1.8601 Y14.6716
G01 X1.9434 Y14.6756
G00 Z1.0000
G00 X1.9434 Y17.2156
G01 F300.00
G01 Z-0.1000
G01 F600.00
G01 X1.9557 Y17.2168
G01 X2.0382 Y17.2291
G01 X2.0502 Y17.2315
G01 X2.1311 Y17.2517
G01 X2.1394 Y17.2542
G01 X2.2214 Y17.2834
G01 X2.2327 Y17.2881
G01 X2.3114 Y17.3254
G01 X2.3190 Y17.3296
G01 X2.3905 Y17.3724
G01 X2.4007 Y17.3792
G01 X2.4706 Y17.4312
G01 X2.4772 Y17.4367
G01 X2.5390 Y17.4927
G01 X2.5477 Y17.5014
G01 X2.6037 Y17.5632
G01 X2.6092 Y17.5698
G01 X2.6633 Y17.6427
G01 X2.6680 Y17.6499
G01 X2.7108 Y17.7214
G01 X2.7166 Y17.7323
G01 X2.7539 Y17.8113
G01 X13.6010 Y17.8113
G01 X15.3019 Y16.1104
G01 X15.3019 Y11.8878
G01 X15.0922 Y11.6781
G01 X15.0602 Y11.6781
G01 X15.0295 Y11.6767
G01 X15.0210 Y11.6758
G01 X14.9949 Y11.6720
G01 X14.9846 Y11.6700
G01 X14.9572 Y11.6631
G01 X14.9490 Y11.6606
G01 X14.9242 Y11.6518
G01 X14.9145 Y11.6479
G01 X14.8890 Y11.6358
G01 X14.8798 Y11.6308
G01 X14.8572 Y11.6172
G01 X14.8486 Y11.6114
G01 X14.8260 Y11.5945
G01 X14.8194 Y11.5890
G01 X14.7998 Y11.5712
G01 X12.8917 Y9.6633
G01 X12.8710 Y9.6406
G01 X12.8655 Y9.6340
G01 X12.8486 Y9.6114
G01 X12.8438 Y9.6043
G01 X12.8292 Y9.5802
G01 X12.8251 Y9.5726
G01 X12.8121 Y9.5455
G01 X12.8082 Y9.5358
G01 X12.7974 Y9.5045
G01 X12.7900 Y9.4754
G01 X12.7880 Y9.4651
G01 X12.7842 Y9.4390
G01 X12.7833 Y9.4305
G01 X12.7819 Y9.3980
G01 X12.7819 Y9.1990
G01 X12.7747 Y9.1896
G01 X12.7692 Y9.1807
G01 X12.7657 Y9.1742
G01 X12.7614 Y9.1647
G01 X12.7580 Y9.1549
G01 X12.7550 Y9.1430
G01 X12.7532 Y9.1309
G01 X12.7526 Y9.1204
G01 X12.7526 Y7.1374
G01 X12.7537 Y7.1215
G01 X12.7554 Y7.1112
G01 X12.7580 Y7.1011
G01 X12.7614 Y7.0913
G01 X12.7657 Y7.0818
G01 X12.7737 Y7.0680
G01 X12.7798 Y7.0595
G01 X12.7867 Y7.0517
G01 X12.7919 Y7.0465
G01 X12.7997 Y7.0396
G01 X12.8082 Y7.0335
G01 X12.8171 Y7.0280
G01 X12.8315 Y7.0212
G01 X12.8413 Y7.0178
G01 X12.8514 Y7.0152
G01 X12.8617 Y7.0135
G01 X12.8690 Y7.0127
G01 X12.8776 Y7.0124
G01 X13.4364 Y7.0124
G01 X13.4468 Y7.0128
G01 X13.4590 Y7.0145
G01 X13.4709 Y7.0173
G01 X13.4825 Y7.0212
G01 X13.4937 Y7.0263
G01 X13.5043 Y7.0325
G01 X13.5143 Y7.0396
G01 X13.5235 Y7.0477
G01 X13.5318 Y7.0567
G01 X13.5393 Y7.0664
G01 X13.5448 Y7.0753
G01 X13.5483 Y7.0818
G01 X13.5532 Y7.0930
G01 X13.5565 Y7.1029
G01 X13.5593 Y7.1148
G01 X13.5608 Y7.1251
G01 X13.5614 Y7.1374
G01 X13.5614 Y9.1204
G01 X13.5608 Y9.1309
G01 X13.5590 Y9.1430
G01 X13.5560 Y9.1549
G01 X13.5526 Y9.1647
G01 X13.5483 Y9.1742
G01 X13.5448 Y9.1807
G01 X13.5393 Y9.1896
G01 X13.5321 Y9.1990
G01 X13.5321 Y9.2426
G01 X15.2174 Y10.9279
G01 X15.2494 Y10.9279
G01 X15.2801 Y10.9293
G01 X15.2886 Y10.9302
G01 X15.3147 Y10.9340
G01 X15.3250 Y10.9360
G01 X15.3524 Y10.9429
G01 X15.3623 Y10.9460
G01 X15.3872 Y10.9549
G01 X15.3968 Y10.9589
G01 X15.4222 Y10.9711
G01 X15.4298 Y10.9752
G01 X15.4539 Y10.9898
G01 X15.4610 Y10.9946
G01 X15.4836 Y11.0115
G01 X15.4902 Y11.0170
G01 X15.5129 Y11.0377
G01 X15.9423 Y11.4671
G01 X15.9630 Y11.4898
G01 X15.9696 Y11.4978
G01 X15.9875 Y11.5220
G01 X15.9922 Y11.5292
G01 X16.0057 Y11.5518
G01 X16.0098 Y11.5594
G01 X16.0211 Y11.5832
G01 X16.0258 Y11.5946
G01 X16.0366 Y11.6259
G01 X16.0436 Y11.6532
G01 X16.0453 Y11.6616
G01 X16.0500 Y11.6932
G01 X16.0520 Y11.7263
G01 X16.0521 Y16.2658
G01 X16.0505 Y16.3001
G01 X16.0460 Y16.3329
G01 X16.0436 Y16.3449
G01 X16.0352 Y16.3770
G01 X16.0251 Y16.4053
G01 X16.0211 Y16.4149
G01 X16.0066 Y16.4447
G01 X15.9922 Y16.4690
G01 X15.9865 Y16.4777
G01 X15.9685 Y16.5018
G01 X15.9630 Y16.5084
G01 X15.9435 Y16.5297
G01 X14.0216 Y18.4517
G01 X13.9976 Y18.4736
G01 X13.9895 Y18.4802
G01 X13.9683 Y18.4959
G01 X13.9612 Y18.5006
G01 X13.9385 Y18.5142
G01 X13.9277 Y18.5200
G01 X13.9039 Y18.5313
G01 X13.8942 Y18.5352
G01 X13.8629 Y18.5460
G01 X13.8355 Y18.5530
G01 X13.8271 Y18.5547
G01 X13.7992 Y18.5590
G01 X13.7907 Y18.5599
G01 X13.7564 Y18.5615
G01 X2.7539 Y18.5615
G01 X2.7150 Y18.6438
G01 X2.7108 Y18.6514
G01 X2.6680 Y18.7229
G01 X2.6612 Y18.7331
G01 X2.6115 Y18.8001
G01 X2.6037 Y18.8096
G01 X2.5477 Y18.8714
G01 X2.5417 Y18.8775
G01 X2.4744 Y18.9385
G01 X2.4677 Y18.9439
G01 X2.3977 Y18.9957
G01 X2.3905 Y19.0004
G01 X2.3190 Y19.0432
G01 X2.3081 Y19.0490
G01 X2.2327 Y19.0847
G01 X2.2214 Y19.0894
G01 X2.1429 Y19.1175
G01 X2.1347 Y19.1201
G01 X2.0466 Y19.1421
G01 X2.0382 Y19.1437
G01 X1.9557 Y19.1560
G01 X1.9434 Y19.1572
G01 X1.8601 Y19.1612
G01 X1.8515 Y19.1613
G01 X1.7646 Y19.1572
G01 X1.7560 Y19.1564
G01 X1.6698 Y19.1437
G01 X1.6614 Y19.1421
G01 X1.5769 Y19.1211
G01 X1.5686 Y19.1186
G01 X1.4866 Y19.0894
G01 X1.4786 Y19.0862
G01 X1.3999 Y19.0490
G01 X1.3923 Y19.0451
G01 X1.3175 Y19.0004
G01 X1.3103 Y18.9957
G01 X1.2403 Y18.9439
G01 X1.2336 Y18.9385
G01 X1.1690 Y18.8801
G01 X1.1629 Y18.8741
G01 X1.1043 Y18.8096
G01 X1.0988 Y18.8030
G01 X1.0468 Y18.7331
G01 X1.0420 Y18.7260
G01 X0.9953 Y18.6481
G01 X0.9914 Y18.6405
G01 X0.9542 Y18.5618
G01 X0.9510 Y18.5538
G01 X0.9218 Y18.4718
G01 X0.9193 Y18.4635
G01 X0.8983 Y18.3790
G01 X0.8967 Y18.3706
G01 X0.8840 Y18.2844
G01 X0.8832 Y18.2758
G01 X0.8791 Y18.1889
G01 X0.8792 Y18.1803
G01 X0.8835 Y18.0933
G01 X0.8844 Y18.0847
G01 X0.8973 Y17.9986
G01 X0.8991 Y17.9902
G01 X0.9203 Y17.9057
G01 X0.9229 Y17.8975
G01 X0.9523 Y17.8156
G01 X0.9557 Y17.8077
G01 X0.9930 Y17.7290
G01 X0.9972 Y17.7214
G01 X1.0420 Y17.6468
G01 X1.0468 Y17.6397
G01 X1.0988 Y17.5698
G01 X1.1043 Y17.5632
G01 X1.1629 Y17.4987
G01 X1.1690 Y17.4927
G01 X1.2336 Y17.4343
G01 X1.2403 Y17.4289
G01 X1.3103 Y17.3771
G01 X1.3175 Y17.3724
G01 X1.3923 Y17.3277
G01 X1.3999 Y17.3238
G01 X1.4786 Y17.2866
G01 X1.4866 Y17.2834
G01 X1.5686 Y17.2542
G01 X1.5769 Y17.2517
G01 X1.6614 Y17.2307
G01 X1.6698 Y17.2291
G01 X1.7560 Y17.2164
G01 X1.7646 Y17.2156
G01 X1.8515 Y17.2115
G01 X1.8601 Y17.2116
G01 X1.9434 Y17.2156
G00 Z1.0000
G00 X1.9434 Y19.7556
G01 F300.00
G01 Z-0.1000
G01 F600.00
G01 X1.9557 Y19.7568
G01 X2.0382 Y19.7691
G01 X2.0502 Y19.7715
G01 X2.1311 Y19.7917
G01 X2.1394 Y19.7942
G01 X2.2214 Y19.8234
G01 X2.2327 Y19.8281
G01 X2.3114 Y19.8654
G01 X2.3190 Y19.8696
G01 X2.3905 Y19.9124
G01 X2.4007 Y19.9192
G01 X2.4706 Y19.9712
G01 X2.4772 Y19.9767
G01 X2.5390 Y20.0327
G01 X2.5477 Y20.0414
G01 X2.6037 Y20.1032
G01 X2.6092 Y20.1098
G01 X2.6633 Y20.1827
G01 X2.6680 Y20.1899
G01 X2.7108 Y20.2614
G01 X2.7166 Y20.2723
G01 X2.7539 Y20.3513
G01 X4.8482 Y20.3513
G01 X5.5883 Y19.6111
G01 X5.6124 Y19.5892
G01 X5.6190 Y19.5838
G01 X5.6402 Y19.5680
G01 X5.6504 Y19.5612
G01 X5.6790 Y19.5445
G01 X5.7044 Y19.5323
G01 X5.7123 Y19.5289
G01 X5.7424 Y19.5182
G01 X5.7744 Y19.5098
G01 X5.7865 Y19.5074
G01 X5.8126 Y19.5036
G01 X5.8230 Y19.5026
G01 X5.8536 Y19.5013
G01 X21.5732 Y19.5013
G01 X32.5767 Y8.4977
G01 X32.5994 Y8.4770
G01 X32.6089 Y8.4692
G01 X32.6357 Y8.4498
G01 X32.6630 Y8.4334
G01 X32.6928 Y8.4189
G01 X32.7042 Y8.4142
G01 X32.7355 Y8.4034
G01 X32.7646 Y8.3960
G01 X32.7749 Y8.3940
G01 X32.8028 Y8.3900
G01 X32.8114 Y8.3892
G01 X32.8420 Y8.3879
G01 X43.6370 Y8.3879
G01 X43.6676 Y8.3892
G01 X43.6780 Y8.3902
G01 X43.7041 Y8.3940
G01 X43.7126 Y8.3956
G01 X43.7435 Y8.4034
G01 X43.7517 Y8.4060
G01 X43.7783 Y8.4155
G01 X43.8084 Y8.4294
G01 X43.8176 Y8.4343
G01 X43.8402 Y8.4478
G01 X43.8504 Y8.4546
G01 X43.8768 Y8.4746
G01 X43.9023 Y8.4977
G01 X45.1752 Y9.7708
G01 X45.1954 Y9.7932
G01 X45.2154 Y9.8196
G01 X45.2212 Y9.8282
G01 X45.2366 Y9.8540
G01 X45.2511 Y9.8838
G01 X45.2558 Y9.8952
G01 X45.2666 Y9.9265
G01 X45.2740 Y9.9556
G01 X45.2760 Y9.9659
G01 X45.2800 Y9.9938
G01 X45.2808 Y10.0024
G01 X45.2821 Y10.0330
G01 X45.2821 Y12.4185
G01 X45.3140 Y12.4336
G01 X45.3232 Y12.4384
G01 X45.3879 Y12.4772
G01 X45.3966 Y12.4829
G01 X45.4602 Y12.5301
G01 X45.4667 Y12.5356
G01 X45.5226 Y12.5863
G01 X45.5299 Y12.5937
G01 X45.5794 Y12.6483
G01 X45.5872 Y12.6577
G01 X45.6310 Y12.7169
G01 X45.6358 Y12.7239
G01 X45.6766 Y12.7918
G01 X45.6814 Y12.8010
G01 X45.7129 Y12.8675
G01 X45.7176 Y12.8789
G01 X45.7424 Y12.9482
G01 X45.7450 Y12.9564
G01 X45.7646 Y13.0349
G01 X45.7662 Y13.0433
G01 X45.7775 Y13.1198
G01 X45.7782 Y13.1284
G01 X45.7818 Y13.2019
G01 X45.7818 Y13.2141
G01 X45.7782 Y13.2876
G01 X45.7775 Y13.2962
G01 X45.7662 Y13.3727
G01 X45.7646 Y13.3811
G01 X45.7450 Y13.4596
G01 X45.7424 Y13.4678
G01 X45.7163 Y13.5406
G01 X45.7129 Y13.5485
G01 X45.6798 Y13.6183
G01 X45.6757 Y13.6258
G01 X45.6358 Y13.6921
G01 X45.6310 Y13.6991
G01 X45.5849 Y13.7612
G01 X45.5794 Y13.7677
G01 X45.5274 Y13.8249
G01 X45.5213 Y13.8309
G01 X45.4640 Y13.8828
G01 X45.4573 Y13.8882
G01 X45.3951 Y13.9341
G01 X45.3879 Y13.9388
G01 X45.3216 Y13.9785
G01 X45.3140 Y13.9824
G01 X45.2441 Y14.0154
G01 X45.2361 Y14.0186
G01 X45.1633 Y14.0446
G01 X45.1551 Y14.0470
G01 X45.0801 Y14.0656
G01 X45.0717 Y14.0672
G01 X44.9952 Y14.0785
G01 X44.9866 Y14.0792
G01 X44.9095 Y14.0829
G01 X44.9009 Y14.0828
G01 X44.8255 Y14.0791
G01 X44.8151 Y14.0780
G01 X44.7387 Y14.0666
G01 X44.7303 Y14.0648
G01 X44.6589 Y14.0470
G01 X44.6472 Y14.0434
G01 X44.5779 Y14.0186
G01 X44.5665 Y14.0139
G01 X44.5000 Y13.9824
G01 X44.4924 Y13.9785
G01 X44.4261 Y13.9388
G01 X44.4189 Y13.9341
G01 X44.3567 Y13.8882
G01 X44.3500 Y13.8828
G01 X44.2927 Y13.8309
G01 X44.2866 Y13.8249
G01 X44.2322 Y13.7650
G01 X44.2268 Y13.7583
G01 X44.1809 Y13.6961
G01 X44.1762 Y13.6889
G01 X44.1365 Y13.6226
G01 X44.1326 Y13.6150
G01 X44.1011 Y13.5485
G01 X44.0964 Y13.5371
G01 X44.0716 Y13.4678
G01 X44.0680 Y13.4561
G01 X44.0502 Y13.3847
G01 X44.0484 Y13.3763
G01 X44.0370 Y13.2999
G01 X44.0359 Y13.2895
G01 X44.0321 Y13.2105
G01 X44.0322 Y13.2019
G01 X44.0358 Y13.1284
G01 X44.0370 Y13.1161
G01 X44.0478 Y13.0433
G01 X44.0494 Y13.0349
G01 X44.0690 Y12.9564
G01 X44.0716 Y12.9482
G01 X44.0964 Y12.8789
G01 X44.1011 Y12.8675
G01 X44.1326 Y12.8010
G01 X44.1374 Y12.7918
G01 X44.1782 Y12.7239
G01 X44.1830 Y12.7169
G01 X44.2268 Y12.6577
G01 X44.2346 Y12.6483
G01 X44.2841 Y12.5937
G01 X44.2914 Y12.5863
G01 X44.3473 Y12.5356
G01 X44.3538 Y12.5301
G01 X44.4174 Y12.4829
G01 X44.4261 Y12.4772
G01 X44.4908 Y12.4384
G01 X44.5000 Y12.4336
G01 X44.5319 Y12.4185
G01 X44.5319 Y10.1884
G01 X43.4816 Y9.1381
G01 X32.9974 Y9.1381
G01 X21.9939 Y20.1417
G01 X21.9712 Y20.1624
G01 X21.9617 Y20.1702
G01 X21.9349 Y20.1896
G01 X21.9076 Y20.2060
G01 X21.8778 Y20.2205
G01 X21.8664 Y20.2252
G01 X21.8351 Y20.2360
G01 X21.8060 Y20.2434
G01 X21.7957 Y20.2454
G01 X21.7678 Y20.2494
G01 X21.7592 Y20.2502
G01 X21.7286 Y20.2515
G01 X6.0090 Y20.2515
G01 X5.2658 Y20.9946
G01 X5.2462 Y21.0124
G01 X5.2382 Y21.0190
G01 X5.2155 Y21.0359
G01 X5.2068 Y21.0416
G01 X5.1826 Y21.0560
G01 X5.1528 Y21.0705
G01 X5.1432 Y21.0745
G01 X5.1166 Y21.0840
G01 X5.1084 Y21.0865
G01 X5.0828 Y21.0930
G01 X5.0707 Y21.0954
G01 X5.0379 Y21.0999
G01 X5.0036 Y21.1015
G01 X2.7539 Y21.1015
G01 X2.7150 Y21.1838
G01 X2.7108 Y21.1914
G01 X2.6680 Y21.2629
G01 X2.6612 Y21.2731
G01 X2.6115 Y21.3401
G01 X2.6061 Y21.3468
G01 X2.5451 Y21.4141
G01 X2.5390 Y21.4201
G01 X2.4772 Y21.4761
G01 X2.4677 Y21.4839
G01 X2.4007 Y21.5336
G01 X2.3905 Y21.5404
G01 X2.3190 Y21.5832
G01 X2.3114 Y21.5874
G01 X2.2327 Y21.6247
G01 X2.2248 Y21.6281
G01 X2.1394 Y21.6586
G01 X2.1311 Y21.6611
G01 X2.0502 Y21.6813
G01 X2.0382 Y21.6837
G01 X1.9557 Y21.6960
G01 X1.9434 Y21.6972
G01 X1.8601 Y21.7012
G01 X1.8515 Y21.7013
G01 X1.7609 Y21.6969
G01 X1.7523 Y21.6960
G01 X1.6662 Y21.6831
G01 X1.6578 Y21.6813
G01 X1.5733 Y21.6601
G01 X1.5651 Y21.6575
G01 X1.4832 Y21.6281
G01 X1.4753 Y21.6247
G01 X1.3966 Y21.5874
G01 X1.3890 Y21.5832
G01 X1.3144 Y21.5384
G01 X1.3073 Y21.5336
G01 X1.2374 Y21.4816
G01 X1.2308 Y21.4761
G01 X1.1663 Y21.4175
G01 X1.1603 Y21.4114
G01 X1.1019 Y21.3468
G01 X1.0965 Y21.3401
G01 X1.0447 Y21.2701
G01 X1.0400 Y21.2629
G01 X0.9953 Y21.1881
G01 X0.9914 Y21.1805
G01 X0.9542 Y21.1018
G01 X0.9510 Y21.0938
G01 X0.9218 Y21.0118
G01 X0.9193 Y21.0035
G01 X0.8983 Y20.9190
G01 X0.8967 Y20.9106
G01 X0.8840 Y20.8244
G01 X0.8832 Y20.8158
G01 X0.8791 Y20.7289
G01 X0.8792 Y20.7203
G01 X0.8835 Y20.6333
G01 X0.8844 Y20.6247
G01 X0.8973 Y20.5386
G01 X0.8991 Y20.5302
G01 X0.9203 Y20.4457
G01 X0.9229 Y20.4375
G01 X0.9523 Y20.3556
G01 X0.9557 Y20.3477
G01 X0.9930 Y20.2690
G01 X0.9972 Y20.2614
G01 X1.0420 Y20.1868
G01 X1.0468 Y20.1797
G01 X1.0988 Y20.1098
G01 X1.1043 Y20.1032
G01 X1.1629 Y20.0387
G01 X1.1690 Y20.0327
G01 X1.2336 Y19.9743
G01 X1.2403 Y19.9689
G01 X1.3103 Y19.9171
G01 X1.3175 Y19.9124
G01 X1.3923 Y19.8677
G01 X1.3999 Y19.8638
G01 X1.4786 Y19.8266
G01 X1.4866 Y19.8234
G01 X1.5686 Y19.7942
G01 X1.5769 Y19.7917
G01 X1.6614 Y19.7707
G01 X1.6698 Y19.7691
G01 X1.7560 Y19.7564
G01 X1.7646 Y19.7556
G01 X1.8515 Y19.7515
G01 X1.8601 Y19.7516
G01 X1.9434 Y19.7556
G00 Z1.0000
G00 X1.9434 Y22.2956
G01 F300.00
G01 Z-0.1000
G01 F600.00
G01 X1.9557 Y22.2968
G01 X2.0382 Y22.3091
G01 X2.0502 Y22.3115
G01 X2.1311 Y22.3317
G01 X2.1394 Y22.3342
G01 X2.2214 Y22.3634
G01 X2.2327 Y22.3681
G01 X2.3114 Y22.4054
G01 X2.3190 Y22.4096
G01 X2.3905 Y22.4524
G01 X2.4007 Y22.4592
G01 X2.4706 Y22.5112
G01 X2.4772 Y22.5167
G01 X2.5390 Y22.5727
G01 X2.5477 Y22.5814
G01 X2.6037 Y22.6432
G01 X2.6092 Y22.6498
G01 X2.6633 Y22.7227
G01 X2.6680 Y22.7299
G01 X2.7108 Y22.8014
G01 X2.7166 Y22.8123
G01 X2.7539 Y22.8913
G01 X5.1657 Y22.8913
G01 X6.8606 Y21.1965
G01 X6.8833 Y21.1758
G01 X6.8914 Y21.1692
G01 X6.9182 Y21.1498
G01 X6.9423 Y21.1352
G01 X6.9515 Y21.1302
G01 X6.9787 Y21.1174
G01 X7.0098 Y21.1060
G01 X7.0180 Y21.1034
G01 X7.0489 Y21.0956
G01 X7.0816 Y21.0904
G01 X7.0939 Y21.0892
G01 X7.1245 Y21.0879
G01 X11.2520 Y21.0879
G01 X11.2826 Y21.0892
G01 X11.2912 Y21.0900
G01 X11.3191 Y21.0940
G01 X11.3294 Y21.0960
G01 X11.3585 Y21.1034
G01 X11.3898 Y21.1142
G01 X11.4012 Y21.1189
G01 X11.4310 Y21.1334
G01 X11.4583 Y21.1498
G01 X11.4851 Y21.1692
G01 X11.4946 Y21.1770
G01 X11.5173 Y21.1977
G01 X12.1565 Y21.8372
G01 X12.1754 Y21.8582
G01 X12.1954 Y21.8846
G01 X12.2012 Y21.8932
G01 X12.2157 Y21.9174
G01 X12.2206 Y21.9266
G01 X12.2326 Y21.9522
G01 X12.2440 Y21.9833
G01 X12.2471 Y21.9932
G01 X12.2544 Y22.0224
G01 X12.2596 Y22.0551
G01 X12.2607 Y22.0655
G01 X12.2620 Y22.0937
G01 X12.2621 Y22.4348
G01 X12.2693 Y22.4442
G01 X12.2748 Y22.4531
G01 X12.2783 Y22.4596
G01 X12.2826 Y22.4691
G01 X12.2860 Y22.4789
G01 X12.2890 Y22.4908
G01 X12.2908 Y22.5029
G01 X12.2914 Y22.5134
G01 X12.2914 Y24.4964
G01 X12.2908 Y24.5087
G01 X12.2886 Y24.5226
G01 X12.2860 Y24.5327
G01 X12.2819 Y24.5442
G01 X12.2775 Y24.5537
G01 X12.2723 Y24.5627
G01 X12.2682 Y24.5689
G01 X12.2618 Y24.5771
G01 X12.2548 Y24.5848
G01 X12.2457 Y24.5930
G01 X12.2358 Y24.6003
G01 X12.2269 Y24.6058
G01 X12.2176 Y24.6104
G01 X12.2108 Y24.6132
G01 X12.2009 Y24.6165
G01 X12.1908 Y24.6190
G01 X12.1787 Y24.6208
G01 X12.1682 Y24.6214
G01 X11.6076 Y24.6214
G01 X11.5935 Y24.6206
G01 X11.5832 Y24.6190
G01 X11.5749 Y24.6170
G01 X11.5615 Y24.6126
G01 X11.5487 Y24.6066
G01 X11.5351 Y24.5982
G01 X11.5283 Y24.5930
G01 X11.5205 Y24.5861
G01 X11.5110 Y24.5757
G01 X11.5017 Y24.5627
G01 X11.4974 Y24.5553
G01 X11.4928 Y24.5459
G01 X11.4880 Y24.5327
G01 X11.4850 Y24.5208
G01 X11.4832 Y24.5087
G01 X11.4826 Y24.4964
G01 X11.4826 Y22.5152
G01 X11.4832 Y22.5029
G01 X11.4847 Y22.4926
G01 X11.4875 Y22.4807
G01 X11.4908 Y22.4708
G01 X11.4936 Y22.4640
G01 X11.4992 Y22.4531
G01 X11.5047 Y22.4442
G01 X11.5119 Y22.4348
G01 X11.5119 Y22.2534
G01 X11.0966 Y21.8381
G01 X7.2799 Y21.8381
G01 X5.5864 Y23.5317
G01 X5.5609 Y23.5548
G01 X5.5542 Y23.5602
G01 X5.5315 Y23.5769
G01 X5.5243 Y23.5816
G01 X5.5001 Y23.5960
G01 X5.4925 Y23.6000
G01 X5.4686 Y23.6113
G01 X5.4589 Y23.6152
G01 X5.4323 Y23.6246
G01 X5.4241 Y23.6270
G01 X5.3967 Y23.6338
G01 X5.3882 Y23.6354
G01 X5.3603 Y23.6394
G01 X5.3517 Y23.6402
G01 X5.3211 Y23.6415
G01 X2.7539 Y23.6415
G01 X2.7150 Y23.7238
G01 X2.7108 Y23.7314
G01 X2.6680 Y23.8029
G01 X2.6612 Y23.8131
G01 X2.6115 Y23.8801
G01 X2.6061 Y23.8868
G01 X2.5451 Y23.9541
G01 X2.5390 Y23.9601
G01 X2.4772 Y24.0161
G01 X2.4677 Y24.0239
G01 X2.4007 Y24.0736
G01 X2.3905 Y24.0804
G01 X2.3190 Y24.1232
G01 X2.3114 Y24.1274
G01 X2.2327 Y24.1647
G01 X2.2248 Y24.1681
G01 X2.1394 Y24.1986
G01 X2.1311 Y24.2011
G01 X2.0502 Y24.2213
G01 X2.0382 Y24.2237
G01 X1.9557 Y24.2360
G01 X1.9434 Y24.2372
G01 X1.8601 Y24.2412
G01 X1.8515 Y24.2413
G01 X1.7609 Y24.2369
G01 X1.7523 Y24.2360
G01 X1.6662 Y24.2231
G01 X1.6578 Y24.2213
G01 X1.5733 Y24.2001
G01 X1.5651 Y24.1975
G01 X1.4832 Y24.1681
G01 X1.4753 Y24.1647
G01 X1.3966 Y24.1274
G01 X1.3890 Y24.1232
G01 X1.3144 Y24.0784
G01 X1.3073 Y24.0736
G01 X1.2374 Y24.0216
G01 X1.2308 Y24.0161
G01 X1.1663 Y23.9575
G01 X1.1603 Y23.9514
G01 X1.1019 Y23.8868
G01 X1.0965 Y23.8801
G01 X1.0447 Y23.8101
G01 X1.0400 Y23.8029
G01 X0.9953 Y23.7281
G01 X0.9914 Y23.7205
G01 X0.9542 Y23.6418
G01 X0.9510 Y23.6338
G01 X0.9218 Y23.5518
G01 X0.9193 Y23.5435
G01 X0.8983 Y23.4590
G01 X0.8967 Y23.4506
G01 X0.8840 Y23.3644
G01 X0.8832 Y23.3558
G01 X0.8791 Y23.2689
G01 X0.8792 Y23.2603
G01 X0.8835 Y23.1733
G01 X0.8844 Y23.1647
G01 X0.8973 Y23.0786
G01 X0.8991 Y23.0702
G01 X0.9203 Y22.9857
G01 X0.9229 Y22.9775
G01 X0.9523 Y22.8956
G01 X0.9557 Y22.8877
G01 X0.9930 Y22.8090
G01 X0.9972 Y22.8014
G01 X1.0420 Y22.7268
G01 X1.0468 Y22.7197
G01 X1.0988 Y22.6498
G01 X1.1043 Y22.6432
G01 X1.1629 Y22.5787
G01 X1.1690 Y22.5727
G01 X1.2336 Y22.5143
G01 X1.2403 Y22.5089
G01 X1.3103 Y22.4571
G01 X1.3175 Y22.4524
G01 X1.3923 Y22.4077
G01 X1.3999 Y22.4038
G01 X1.4786 Y22.3666
G01 X1.4866 Y22.3634
G01 X1.5686 Y22.3342
G01 X1.5769 Y22.3317
G01 X1.6614 Y22.3107
G01 X1.6698 Y22.3091
G01 X1.7560 Y22.2964
G01 X1.7646 Y22.2956
G01 X1.8515 Y22.2915
G01 X1.8601 Y22.2916
G01 X1.9434 Y22.2956
G00 Z1.0000
G00 X0.8241 Y23.2664
G01 F300.00
G01 Z-0.1000
G01 F600.00
G01 X0.8416 Y23.4556
G01 X0.8937 Y23.6384
G01 X0.9784 Y23.8086
G01 X1.0929 Y23.9602
G01 X1.2333 Y24.0883
G01 X1.3949 Y24.1883
G01 X1.5722 Y24.2570
G01 X1.7590 Y24.2919
G01 X1.9490 Y24.2919
G01 X2.1358 Y24.2570
G01 X2.3131 Y24.1883
G01 X2.4746 Y24.0883
G01 X2.6151 Y23.9602
G01 X2.7332 Y23.8038
G01 X2.7408 Y23.7930
G01 X2.7476 Y23.7851
G01 X2.7569 Y23.7761
G01 X2.7743 Y23.7557
G01 X2.7835 Y23.7461
G01 X2.7909 Y23.7397
G01 X2.8003 Y23.7330
G01 X2.8103 Y23.7271
G01 X2.8207 Y23.7222
G01 X2.8299 Y23.7188
G01 X2.8940 Y23.6980
G01 X2.9086 Y23.6942
G01 X2.9195 Y23.6926
G01 X2.9326 Y23.6919
G01 X5.2647 Y23.6919
G01 X5.2737 Y23.6922
G01 X5.2938 Y23.6939
G01 X5.3064 Y23.6957
G01 X5.3338 Y23.6928
G01 X5.3457 Y23.6921
G01 X5.3796 Y23.6919
G01 X5.3904 Y23.6892
G01 X5.4102 Y23.6854
G01 X5.4228 Y23.6837
G01 X5.4544 Y23.6714
G01 X5.4658 Y23.6678
G01 X5.4922 Y23.6603
G01 X5.5019 Y23.6549
G01 X5.5199 Y23.6459
G01 X5.5316 Y23.6408
G01 X5.5535 Y23.6242
G01 X5.5633 Y23.6173
G01 X5.5921 Y23.5996
G01 X5.6286 Y23.5606
G01 X7.2333 Y21.9560
G01 X7.2524 Y21.9393
G01 X7.2606 Y21.9328
G01 X7.2709 Y21.9262
G01 X7.2802 Y21.9214
G01 X7.2950 Y21.9154
G01 X7.3609 Y21.8940
G01 X7.3717 Y21.8912
G01 X7.3807 Y21.8897
G01 X7.3866 Y21.8890
G01 X7.3977 Y21.8885
G01 X10.2132 Y21.8885
G01 X10.2244 Y21.8890
G01 X10.2494 Y21.8917
G01 X10.2643 Y21.8942
G01 X10.2788 Y21.8985
G01 X10.2873 Y21.9019
G01 X10.2955 Y21.9060
G01 X10.3589 Y21.9428
G01 X10.3682 Y21.9489
G01 X10.3783 Y21.9572
G01 X10.3875 Y21.9665
G01 X10.3946 Y21.9751
G01 X10.4018 Y21.9860
G01 X10.4079 Y21.9975
G01 X10.4360 Y22.0610
G01 X10.4406 Y22.0732
G01 X10.4440 Y22.0858
G01 X10.4461 Y22.1007
G01 X10.4465 Y22.1158
G01 X10.4459 Y22.1249
G01 X10.4445 Y22.1339
G01 X10.4296 Y22.2037
G01 X10.4262 Y22.2163
G01 X10.4214 Y22.2285
G01 X10.4164 Y22.2384
G01 X10.4094 Y22.2495
G01 X10.4026 Y22.2582
G01 X10.3922 Y22.2691
G01 X10.3406 Y22.3154
G01 X10.3319 Y22.3224
G01 X10.3271 Y22.3258
G01 X10.3194 Y22.3307
G01 X10.3095 Y22.3357
G01 X10.2367 Y22.3679
G01 X10.1903 Y22.4143
G01 X10.1621 Y22.4782
G01 X10.1621 Y22.8478
G01 X10.1616 Y22.8571
G01 X10.1608 Y22.8644
G01 X10.1549 Y22.9013
G01 X10.1524 Y22.9128
G01 X10.1481 Y22.9256
G01 X10.1433 Y22.9364
G01 X10.1394 Y22.9436
G01 X10.1349 Y22.9505
G01 X10.0933 Y23.0080
G01 X10.0876 Y23.0151
G01 X10.0773 Y23.0260
G01 X10.0656 Y23.0356
G01 X10.0564 Y23.0417
G01 X10.0466 Y23.0470
G01 X10.0412 Y23.0495
G01 X10.0308 Y23.0534
G01 X9.9667 Y23.0742
G01 X9.9579 Y23.0767
G01 X9.9431 Y23.0794
G01 X9.9301 Y23.0803
G01 X7.9956 Y23.0803
G01 X7.9866 Y23.0800
G01 X7.9665 Y23.0783
G01 X7.9539 Y23.0765
G01 X7.9265 Y23.0794
G01 X7.9146 Y23.0801
G01 X7.8807 Y23.0803
G01 X7.8684 Y23.0833
G01 X7.8485 Y23.0870
G01 X7.8375 Y23.0885
G01 X7.8059 Y23.1008
G01 X7.7945 Y23.1044
G01 X7.7681 Y23.1119
G01 X7.7570 Y23.1181
G01 X7.7389 Y23.1270
G01 X7.7287 Y23.1314
G01 X7.7068 Y23.1480
G01 X7.6970 Y23.1549
G01 X7.6681 Y23.1726
G01 X7.6317 Y23.2116
G01 X5.5309 Y25.3124
G01 X5.5248 Y25.3181
G01 X5.5107 Y25.3301
G01 X5.5025 Y25.3366
G01 X5.4922 Y25.3432
G01 X5.4813 Y25.3488
G01 X5.4681 Y25.3540
G01 X5.4003 Y25.3759
G01 X5.3914 Y25.3782
G01 X5.3804 Y25.3800
G01 X5.3654 Y25.3809
G01 X2.9326 Y25.3809
G01 X2.9221 Y25.3804
G01 X2.9150 Y25.3796
G01 X2.9029 Y25.3773
G01 X2.8525 Y25.3650
G01 X2.8414 Y25.3617
G01 X2.8307 Y25.3574
G01 X2.8204 Y25.3522
G01 X2.8107 Y25.3460
G01 X2.8029 Y25.3401
G01 X2.7943 Y25.3324
G01 X2.7669 Y25.3045
G01 X2.7593 Y25.2986
G01 X2.7537 Y25.2938
G01 X2.7476 Y25.2877
G01 X2.7420 Y25.2812
G01 X2.7332 Y25.2690
G01 X2.6151 Y25.1126
G01 X2.4746 Y24.9845
G01 X2.3131 Y24.8845
G01 X2.1358 Y24.8158
G01 X1.9490 Y24.7809
G01 X1.7590 Y24.7809
G01 X1.5722 Y24.8158
G01 X1.3949 Y24.8845
G01 X1.3694 Y24.9003
G01 X1.2334 Y24.9845
G01 X1.0929 Y25.1126
G01 X0.9784 Y25.2642
G01 X0.8937 Y25.4344
G01 X0.8416 Y25.6172
G01 X0.8241 Y25.8064
G01 X0.8416 Y25.9956
G01 X0.8937 Y26.1784
G01 X0.9784 Y26.3486
G01 X1.0929 Y26.5002
G01 X1.2333 Y26.6283
G01 X1.3949 Y26.7283
G01 X1.5722 Y26.7970
G01 X1.7590 Y26.8319
G01 X1.9490 Y26.8319
G01 X2.1358 Y26.7970
G01 X2.3131 Y26.7283
G01 X2.4747 Y26.6283
G01 X2.6151 Y26.5002
G01 X2.7332 Y26.3438
G01 X2.7408 Y26.3330
G01 X2.7476 Y26.3251
G01 X2.7569 Y26.3161
G01 X2.7786 Y26.2910
G01 X2.7896 Y26.2808
G01 X2.7989 Y26.2739
G01 X2.8072 Y26.2688
G01 X2.8160 Y26.2643
G01 X2.8223 Y26.2616
G01 X2.8299 Y26.2588
G01 X2.8959 Y26.2374
G01 X2.9066 Y26.2346
G01 X2.9157 Y26.2331
G01 X2.9215 Y26.2324
G01 X2.9326 Y26.2319
G01 X5.5822 Y26.2319
G01 X5.5912 Y26.2322
G01 X5.6113 Y26.2339
G01 X5.6239 Y26.2357
G01 X5.6513 Y26.2328
G01 X5.6632 Y26.2321
G01 X5.6971 Y26.2319
G01 X5.7079 Y26.2292
G01 X5.7277 Y26.2254
G01 X5.7403 Y26.2237
G01 X5.7719 Y26.2114
G01 X5.7833 Y26.2078
G01 X5.8097 Y26.2003
G01 X5.8194 Y26.1949
G01 X5.8374 Y26.1859
G01 X5.8491 Y26.1808
G01 X5.8710 Y26.1642
G01 X5.8808 Y26.1573
G01 X5.9096 Y26.1396
G01 X5.9461 Y26.1006
G01 X8.0469 Y23.9998
G01 X8.0541 Y23.9932
G01 X8.0700 Y23.9797
G01 X8.0784 Y23.9735
G01 X8.0872 Y23.9681
G01 X8.0982 Y23.9626
G01 X8.1079 Y23.9588
G01 X8.1756 Y23.9368
G01 X8.1864 Y23.9340
G01 X8.1954 Y23.9325
G01 X8.2104 Y23.9313
G01 X9.9350 Y23.9315
G01 X9.9477 Y23.9328
G01 X9.9831 Y23.9385
G01 X9.9929 Y23.9406
G01 X10.0025 Y23.9434
G01 X10.0118 Y23.9471
G01 X10.0254 Y23.9540
G01 X10.0353 Y23.9605
G01 X10.0898 Y24.0001
G01 X10.0999 Y24.0083
G01 X10.1092 Y24.0176
G01 X10.1162 Y24.0262
G01 X10.1235 Y24.0370
G01 X10.1288 Y24.0468
G01 X10.1345 Y24.0607
G01 X10.1566 Y24.1285
G01 X10.1598 Y24.1412
G01 X10.1616 Y24.1542
G01 X10.1621 Y24.1653
G01 X10.1621 Y24.5334
G01 X10.1903 Y24.5973
G01 X10.2367 Y24.6437
G01 X10.3006 Y24.6719
G01 X10.9334 Y24.6719
G01 X10.9973 Y24.6437
G01 X11.0462 Y24.5948
G01 X11.0512 Y24.5874
G01 X11.0782 Y24.5502
G01 X11.0852 Y24.5414
G01 X11.0958 Y24.5306
G01 X11.1076 Y24.5212
G01 X11.1171 Y24.5152
G01 X11.1270 Y24.5101
G01 X11.1923 Y24.4813
G01 X11.2027 Y24.4774
G01 X11.2134 Y24.4745
G01 X11.2244 Y24.4726
G01 X11.2322 Y24.4718
G01 X11.2413 Y24.4714
G01 X11.2505 Y24.4718
G01 X11.2634 Y24.4735
G01 X11.3332 Y24.4884
G01 X11.3439 Y24.4913
G01 X11.3495 Y24.4932
G01 X11.3598 Y24.4974
G01 X11.3696 Y24.5026
G01 X11.3821 Y24.5109
G01 X11.3907 Y24.5180
G01 X11.3972 Y24.5244
G01 X11.4462 Y24.5790
G01 X11.4531 Y24.5877
G01 X11.4578 Y24.5948
G01 X11.5067 Y24.6437
G01 X11.5706 Y24.6719
G01 X12.2034 Y24.6719
G01 X12.2673 Y24.6437
G01 X12.3368 Y24.5742
G01 X12.3432 Y24.5684
G01 X12.3613 Y24.5535
G01 X12.3717 Y24.5459
G01 X12.3829 Y24.5393
G01 X12.3946 Y24.5340
G01 X12.4068 Y24.5299
G01 X12.4717 Y24.5117
G01 X12.4825 Y24.5092
G01 X12.4975 Y24.5073
G01 X12.5086 Y24.5071
G01 X12.5145 Y24.5074
G01 X12.5236 Y24.5084
G01 X12.5326 Y24.5101
G01 X12.5470 Y24.5142
G01 X12.6139 Y24.5390
G01 X12.6241 Y24.5435
G01 X12.6338 Y24.5489
G01 X12.6446 Y24.5563
G01 X12.6531 Y24.5634
G01 X12.6587 Y24.5689
G01 X12.6661 Y24.5773
G01 X12.6726 Y24.5862
G01 X12.7100 Y24.6423
G01 X12.7166 Y24.6536
G01 X12.7213 Y24.6636
G01 X12.7234 Y24.6691
