(G-CODE GENERATED BY FLATCAM v8.994 - www.flatcam.org - Version Date: 2020/11/7)

(Name: hack_soc_shield-PTH.drl_cnc)
(Type: G-code from Geometry)
(Units: MM)

(Created on Friday, 26 January 2024 at 20:12)

(This preprocessor is the default preprocessor used by FlatCAM.)
(It is made to work with MACH3 compatible motion controllers.)


(TOOLS DIAMETER: )
(Tool: 1 -> Dia: 0.70104)
(Tool: 2 -> Dia: 0.8000999999999999)
(Tool: 3 -> Dia: 0.89916)
(Tool: 4 -> Dia: 1.0007599999999999)
(Tool: 5 -> Dia: 1.0998199999999998)

(FEEDRATE Z: )
(Tool: 1 -> Feedrate: 200.0)
(Tool: 2 -> Feedrate: 200.0)
(Tool: 3 -> Feedrate: 200.0)
(Tool: 4 -> Feedrate: 200.0)
(Tool: 5 -> Feedrate: 200.0)

(FEEDRATE RAPIDS: )
(Tool: 1 -> Feedrate Rapids: 1500)
(Tool: 2 -> Feedrate Rapids: 1500)
(Tool: 3 -> Feedrate Rapids: 1500)
(Tool: 4 -> Feedrate Rapids: 1500)
(Tool: 5 -> Feedrate Rapids: 1500)

(Z_CUT: )
(Tool: 1 -> Z_Cut: -1.8)
(Tool: 2 -> Z_Cut: -1.8)
(Tool: 3 -> Z_Cut: -1.8)
(Tool: 4 -> Z_Cut: -1.8)
(Tool: 5 -> Z_Cut: -1.8)

(Tools Offset: )
(Tool: 3 -> Offset Z: 0.0)
(Tool: 4 -> Offset Z: 0.0)
(Tool: 5 -> Offset Z: 0.0)

(Z_MOVE: )
(Tool: 1 -> Z_Move: 1.0)
(Tool: 2 -> Z_Move: 1.0)
(Tool: 3 -> Z_Move: 1.0)
(Tool: 4 -> Z_Move: 1.0)
(Tool: 5 -> Z_Move: 1.0)

(Z Toolchange: 15 mm)
(X,Y Toolchange: 0.0000, 0.0000 mm)
(Z Start: None mm)
(Z End: 0.5 mm)
(X,Y End: None mm)
(Steps per circle: 64)
(Preprocessor Excellon: default)

(X range:    1.3538 ...   74.8462  mm)
(Y range:    2.4460 ...   72.2808  mm)

(Spindle Speed: 0 RPM)
G21
G90
G94

G01 F200.00

M5
G00 Z15.0000
T3
G00 X0.0000 Y0.0000                
M6
(MSG, Change to Tool Dia = 0.8992 ||| Total drills for tool T3 = 92)
M0
G00 Z15.0000

G01 F200.00
M03
G00 X67.4878 Y29.0830
G01 Z-1.8000
G01 Z0
G00 Z1.0000
G00 X33.1978 Y36.3576
G01 Z-1.8000
G01 Z0
G00 Z1.0000
G00 X33.1978 Y40.8584
G01 Z-1.8000
G01 Z0
G00 Z1.0000
G00 X39.6977 Y36.3576
G01 Z-1.8000
G01 Z0
G00 Z1.0000
G00 X39.6977 Y40.8584
G01 Z-1.8000
G01 Z0
G00 Z1.0000
G00 X1.8542 Y3.0480
G01 Z-1.8000
G01 Z0
G00 Z1.0000
G00 X1.8542 Y5.5880
G01 Z-1.8000
G01 Z0
G00 Z1.0000
G00 X1.8542 Y8.1280
G01 Z-1.8000
G01 Z0
G00 Z1.0000
G00 X1.8542 Y10.6680
G01 Z-1.8000
G01 Z0
G00 Z1.0000
G00 X1.8542 Y13.2080
G01 Z-1.8000
G01 Z0
G00 Z1.0000
G00 X1.8542 Y15.7480
G01 Z-1.8000
G01 Z0
G00 Z1.0000
G00 X1.8542 Y18.2880
G01 Z-1.8000
G01 Z0
G00 Z1.0000
G00 X1.8542 Y20.8280
G01 Z-1.8000
G01 Z0
G00 Z1.0000
G00 X1.8542 Y23.3680
G01 Z-1.8000
G01 Z0
G00 Z1.0000
G00 X1.8542 Y25.9080
G01 Z-1.8000
G01 Z0
G00 Z1.0000
G00 X1.8542 Y28.4480
G01 Z-1.8000
G01 Z0
G00 Z1.0000
G00 X1.8542 Y30.9880
G01 Z-1.8000
G01 Z0
G00 Z1.0000
G00 X1.8542 Y33.5280
G01 Z-1.8000
G01 Z0
G00 Z1.0000
G00 X1.8542 Y36.0680
G01 Z-1.8000
G01 Z0
G00 Z1.0000
G00 X1.8542 Y38.6080
G01 Z-1.8000
G01 Z0
G00 Z1.0000
G00 X1.8542 Y41.1480
G01 Z-1.8000
G01 Z0
G00 Z1.0000
G00 X1.8542 Y43.6880
G01 Z-1.8000
G01 Z0
G00 Z1.0000
G00 X1.8542 Y46.2280
G01 Z-1.8000
G01 Z0
G00 Z1.0000
G00 X1.8542 Y48.7680
G01 Z-1.8000
G01 Z0
G00 Z1.0000
G00 X1.8542 Y51.3080
G01 Z-1.8000
G01 Z0
G00 Z1.0000
G00 X1.8542 Y53.8480
G01 Z-1.8000
G01 Z0
G00 Z1.0000
G00 X1.8542 Y56.3880
G01 Z-1.8000
G01 Z0
G00 Z1.0000
G00 X1.8542 Y58.9280
G01 Z-1.8000
G01 Z0
G00 Z1.0000
G00 X1.8542 Y61.4680
G01 Z-1.8000
G01 Z0
G00 Z1.0000
G00 X1.8542 Y64.0080
G01 Z-1.8000
G01 Z0
G00 Z1.0000
G00 X1.8542 Y66.5480
G01 Z-1.8000
G01 Z0
G00 Z1.0000
G00 X1.8542 Y69.0880
G01 Z-1.8000
G01 Z0
G00 Z1.0000
G00 X1.8542 Y71.6280
G01 Z-1.8000
G01 Z0
G00 Z1.0000
G00 X7.3863 Y71.7804
G01 Z-1.8000
G01 Z0
G00 Z1.0000
G00 X9.9263 Y71.7804
G01 Z-1.8000
G01 Z0
G00 Z1.0000
G00 X37.0078 Y52.5780
G01 Z-1.8000
G01 Z0
G00 Z1.0000
G00 X37.0078 Y55.1180
G01 Z-1.8000
G01 Z0
G00 Z1.0000
G00 X37.0078 Y57.6580
G01 Z-1.8000
G01 Z0
G00 Z1.0000
G00 X37.0078 Y60.1980
G01 Z-1.8000
G01 Z0
G00 Z1.0000
G00 X37.0078 Y62.7380
G01 Z-1.8000
G01 Z0
G00 Z1.0000
G00 X52.2478 Y41.7830
G01 Z-1.8000
G01 Z0
G00 Z1.0000
G00 X54.7878 Y41.7830
G01 Z-1.8000
G01 Z0
G00 Z1.0000
G00 X57.3278 Y41.7830
G01 Z-1.8000
G01 Z0
G00 Z1.0000
G00 X59.8678 Y41.7830
G01 Z-1.8000
G01 Z0
G00 Z1.0000
G00 X62.4078 Y41.7830
G01 Z-1.8000
G01 Z0
G00 Z1.0000
G00 X74.3458 Y2.9464
G01 Z-1.8000
G01 Z0
G00 Z1.0000
G00 X74.3458 Y5.4864
G01 Z-1.8000
G01 Z0
G00 Z1.0000
G00 X74.3458 Y8.0264
G01 Z-1.8000
G01 Z0
G00 Z1.0000
G00 X74.3458 Y10.5664
G01 Z-1.8000
G01 Z0
G00 Z1.0000
G00 X74.3458 Y13.1064
G01 Z-1.8000
G01 Z0
G00 Z1.0000
G00 X74.3458 Y15.6464
G01 Z-1.8000
G01 Z0
G00 Z1.0000
G00 X74.3458 Y18.1864
G01 Z-1.8000
G01 Z0
G00 Z1.0000
G00 X74.3458 Y20.7264
G01 Z-1.8000
G01 Z0
G00 Z1.0000
G00 X74.3458 Y23.2664
G01 Z-1.8000
G01 Z0
G00 Z1.0000
G00 X74.3458 Y25.8064
G01 Z-1.8000
G01 Z0
G00 Z1.0000
G00 X74.3458 Y28.3464
G01 Z-1.8000
G01 Z0
G00 Z1.0000
G00 X74.3458 Y30.8864
G01 Z-1.8000
G01 Z0
G00 Z1.0000
G00 X74.3458 Y33.4264
G01 Z-1.8000
G01 Z0
G00 Z1.0000
G00 X74.3458 Y35.9664
G01 Z-1.8000
G01 Z0
G00 Z1.0000
G00 X74.3458 Y38.5064
G01 Z-1.8000
G01 Z0
G00 Z1.0000
G00 X74.3458 Y41.0464
G01 Z-1.8000
G01 Z0
G00 Z1.0000
G00 X74.3458 Y43.5864
G01 Z-1.8000
G01 Z0
G00 Z1.0000
G00 X74.3458 Y46.1264
G01 Z-1.8000
G01 Z0
G00 Z1.0000
G00 X74.3458 Y48.6664
G01 Z-1.8000
G01 Z0
G00 Z1.0000
G00 X74.3458 Y51.2064
G01 Z-1.8000
G01 Z0
G00 Z1.0000
G00 X74.3458 Y53.7464
G01 Z-1.8000
G01 Z0
G00 Z1.0000
G00 X74.3458 Y56.2864
G01 Z-1.8000
G01 Z0
G00 Z1.0000
G00 X74.3458 Y58.8264
G01 Z-1.8000
G01 Z0
G00 Z1.0000
G00 X74.3458 Y61.3664
G01 Z-1.8000
G01 Z0
G00 Z1.0000
G00 X74.3458 Y63.9064
G01 Z-1.8000
G01 Z0
G00 Z1.0000
G00 X74.3458 Y66.4464
G01 Z-1.8000
G01 Z0
G00 Z1.0000
G00 X74.3458 Y68.9864
G01 Z-1.8000
G01 Z0
G00 Z1.0000
G00 X74.3458 Y71.5264
G01 Z-1.8000
G01 Z0
G00 Z1.0000
G00 X7.7978 Y8.1280
G01 Z-1.8000
G01 Z0
G00 Z1.0000
G00 X12.8778 Y69.0880
G01 Z-1.8000
G01 Z0
G00 Z1.0000
G00 X18.5928 Y27.8130
G01 Z-1.8000
G01 Z0
G00 Z1.0000
G00 X25.5778 Y6.2230
G01 Z-1.8000
G01 Z0
G00 Z1.0000
G00 X25.5778 Y69.0880
G01 Z-1.8000
G01 Z0
G00 Z1.0000
G00 X26.8478 Y53.2130
G01 Z-1.8000
G01 Z0
G00 Z1.0000
G00 X31.2928 Y13.2080
G01 Z-1.8000
G01 Z0
G00 Z1.0000
G00 X31.2928 Y15.7480
G01 Z-1.8000
G01 Z0
G00 Z1.0000
G00 X31.2928 Y18.2880
G01 Z-1.8000
G01 Z0
G00 Z1.0000
G00 X33.1978 Y29.7180
G01 Z-1.8000
G01 Z0
G00 Z1.0000
G00 X37.0078 Y70.3580
G01 Z-1.8000
G01 Z0
G00 Z1.0000
G00 X38.9128 Y6.8580
G01 Z-1.8000
G01 Z0
G00 Z1.0000
G00 X38.9128 Y25.9080
G01 Z-1.8000
G01 Z0
G00 Z1.0000
G00 X49.7078 Y44.3230
G01 Z-1.8000
G01 Z0
G00 Z1.0000
G00 X52.8828 Y56.3880
G01 Z-1.8000
G01 Z0
G00 Z1.0000
G00 X54.7878 Y37.9730
G01 Z-1.8000
G01 Z0
G00 Z1.0000
G00 X57.3278 Y39.2430
G01 Z-1.8000
G01 Z0
G00 Z1.0000
G00 X64.3128 Y44.3230
G01 Z-1.8000
G01 Z0
G00 Z1.0000
G00 X67.4878 Y13.8430
G01 Z-1.8000
G01 Z0
G00 Z1.0000
M05
G00 Z0.50


