(G-CODE GENERATED BY FLATCAM v8.994 - www.flatcam.org - Version Date: 2020/11/7)

(Name: hack_soc_shield-B_Cu.gbr_noncopper_mt_paint_cnc)
(Type: G-code from Geometry)
(Units: MM)

(Created on Friday, 26 January 2024 at 20:09)

(This preprocessor is the default preprocessor used by FlatCAM.)
(It is made to work with MACH3 compatible motion controllers.)

(TOOL DIAMETER: 0.3 mm)
(Feedrate_XY: 600.0 mm/min)
(Feedrate_Z: 300.0 mm/min)
(Feedrate rapids 3000.0 mm/min)

(Z_Cut: -0.1 mm)
(Z_Move: 1.0 mm)
(Z Start: None mm)
(Z End: 15.0 mm)
(X,Y End: None mm)
(Steps per circle: 64)
(Preprocessor Geometry: default)

(X range:    0.6294 ...   75.5137  mm)
(Y range:    1.7787 ...   72.8059  mm)

(Spindle Speed: 0.0 RPM)
G21
G90
G94

G01 F600.00

M5
G00 Z15.0000
G00 X0.0000 Y0.0000
T3
M6    
(MSG, Change to Tool Dia = 0.3000)
M0
G00 Z15.0000

M03
G01 F600.00
G00 X0.6334 Y2.1196
G01 F300.00
G01 Z-0.1000
G01 F600.00
G01 X0.6294 Y2.1569
G01 X0.6294 Y2.6730
G01 X0.8794 Y2.6730
G01 X0.8795 Y2.1943
G01 X0.8800 Y2.1857
G01 X0.8815 Y2.1754
G01 X0.8853 Y2.1600
G01 X0.8889 Y2.1502
G01 X0.8933 Y2.1407
G01 X0.9015 Y2.1270
G01 X0.9090 Y2.1173
G01 X0.9187 Y2.1071
G01 X0.9251 Y2.1014
G01 X0.9319 Y2.0962
G01 X0.9423 Y2.0896
G01 X0.9549 Y2.0832
G01 X0.9664 Y2.0789
G01 X0.9800 Y2.0754
G01 X0.9921 Y2.0736
G01 X1.0044 Y2.0730
G01 X1.4794 Y2.0730
G01 X1.4794 Y1.8230
G01 X0.9633 Y1.8230
G01 X0.9260 Y1.8270
G01 X0.8228 Y1.8655
G01 X0.7365 Y1.9301
G01 X0.6719 Y2.0164
G01 X0.6334 Y2.1196
G00 Z1.0000
G00 X0.6334 Y2.1196
G01 F300.00
G01 Z-0.1000
G01 F600.00
G01 X0.7070 Y2.1370
G00 Z1.0000
G00 X0.7070 Y2.1370
G01 F300.00
G01 Z-0.1000
G01 F600.00
G01 X0.7044 Y2.1609
G01 X0.7044 Y2.5980
G01 X0.8044 Y2.5980
G01 X0.8044 Y2.1980
G01 X0.8053 Y2.1793
G01 X0.8074 Y2.1635
G01 X0.8099 Y2.1518
G01 X0.8138 Y2.1373
G01 X0.8200 Y2.1206
G01 X0.8267 Y2.1062
G01 X0.8346 Y2.0923
G01 X0.8418 Y2.0816
G01 X0.8516 Y2.0690
G01 X0.8636 Y2.0559
G01 X0.8782 Y2.0428
G01 X0.8925 Y2.0322
G01 X0.9093 Y2.0221
G01 X0.9270 Y2.0136
G01 X0.9437 Y2.0074
G01 X0.9627 Y2.0024
G01 X0.9802 Y1.9995
G01 X0.9894 Y1.9986
G01 X1.0044 Y1.9980
G01 X1.4044 Y1.9980
G01 X1.4044 Y1.8980
G01 X0.9673 Y1.8980
G01 X0.9434 Y1.9006
G01 X0.8591 Y1.9320
G01 X0.7901 Y1.9837
G01 X0.7384 Y2.0527
G01 X0.7070 Y2.1370
G00 Z1.0000
G00 X0.8591 Y4.1640
G01 F300.00
G01 Z-0.1000
G01 F600.00
G01 X0.9434 Y4.1954
G01 X0.9673 Y4.1980
G01 X1.1463 Y4.1980
G00 Z1.0000
G00 X1.1463 Y4.1980
G01 F300.00
G01 Z-0.1000
G01 F600.00
G01 X1.2087 Y4.1980
G01 X1.2257 Y4.1988
G01 X1.2355 Y4.2000
G01 X1.2484 Y4.2022
G01 X1.2696 Y4.2078
G01 X1.3383 Y4.2302
G01 X1.3523 Y4.2357
G01 X1.3649 Y4.2419
G01 X1.3777 Y4.2492
G01 X1.3933 Y4.2600
G01 X1.4078 Y4.2722
G01 X1.4211 Y4.2857
G01 X1.4336 Y4.3013
G01 X1.4738 Y4.3566
G01 X1.4831 Y4.3708
G01 X1.4907 Y4.3849
G01 X1.4960 Y4.3965
G01 X1.5013 Y4.4106
G01 X1.5055 Y4.4250
G01 X1.5076 Y4.4346
G01 X1.5097 Y4.4475
G01 X1.5112 Y4.4655
G01 X1.5114 Y4.5436
G01 X1.5104 Y4.5606
G01 X1.5085 Y4.5745
G01 X1.5064 Y4.5851
G01 X1.5025 Y4.5998
G01 X1.5411 Y4.5860
G01 X1.5546 Y4.5818
G01 X1.6409 Y4.5601
G01 X1.6565 Y4.5569
G01 X1.7417 Y4.5443
G01 X1.7548 Y4.5428
G01 X1.8455 Y4.5382
G01 X1.8662 Y4.5383
G00 Z1.0000
G00 X1.8662 Y4.5383
G01 F300.00
G01 Z-0.1000
G01 F600.00
G01 X1.9475 Y4.5423
G01 X1.9598 Y4.5434
G01 X2.0541 Y4.5572
G01 X2.0688 Y4.5603
G01 X2.1542 Y4.5818
G01 X2.1677 Y4.5860
G01 X2.2070 Y4.6001
G01 X2.2032 Y4.5828
G01 X2.2009 Y4.5660
G01 X2.1957 Y4.4958
G01 X2.1952 Y4.4818
G01 X2.1956 Y4.4680
G01 X2.1974 Y4.4511
G01 X2.2007 Y4.4344
G01 X2.2054 Y4.4181
G01 X2.2087 Y4.4088
G01 X2.2130 Y4.3986
G01 X2.2217 Y4.3817
G01 X2.2606 Y4.3185
G01 X2.2679 Y4.3076
G01 X2.2769 Y4.2960
G01 X2.2897 Y4.2820
G01 X2.3022 Y4.2705
G01 X2.3173 Y4.2590
G01 X2.3334 Y4.2490
G01 X2.3487 Y4.2414
G01 X2.4181 Y4.2129
G01 X2.4299 Y4.2085
G01 X2.4402 Y4.2054
G01 X2.4516 Y4.2026
G01 X2.4657 Y4.2002
G01 X2.4815 Y4.1986
G01 X2.5004 Y4.1980
G01 X2.7415 Y4.1980
G01 X2.7654 Y4.1954
G01 X2.8497 Y4.1640
G01 X2.9187 Y4.1123
G01 X2.9704 Y4.0433
G01 X3.0018 Y3.9590
G01 X3.0044 Y3.9351
G01 X3.0044 Y3.4980
G01 X2.9044 Y3.4980
G01 X2.9044 Y3.8989
G01 X2.9039 Y3.9112
G01 X2.9031 Y3.9203
G01 X2.9014 Y3.9325
G01 X2.8992 Y3.9433
G01 X2.8955 Y3.9569
G01 X2.8909 Y3.9703
G01 X2.8866 Y3.9804
G01 X2.8803 Y3.9931
G01 X2.8732 Y4.0052
G01 X2.8670 Y4.0144
G01 X2.8584 Y4.0256
G01 X2.8490 Y4.0361
G01 X2.8412 Y4.0439
G01 X2.8306 Y4.0532
G01 X2.8193 Y4.0617
G01 X2.8101 Y4.0678
G01 X2.7979 Y4.0748
G01 X2.7852 Y4.0809
G01 X2.7749 Y4.0851
G01 X2.7616 Y4.0896
G01 X2.7461 Y4.0936
G01 X2.7313 Y4.0961
G01 X2.7194 Y4.0974
G01 X2.7044 Y4.0980
G01 X1.0044 Y4.0980
G01 X0.9894 Y4.0974
G01 X0.9784 Y4.0963
G01 X0.9645 Y4.0940
G01 X0.9490 Y4.0902
G01 X0.9347 Y4.0854
G01 X0.9236 Y4.0809
G01 X0.9109 Y4.0748
G01 X0.8987 Y4.0678
G01 X0.8895 Y4.0617
G01 X0.8768 Y4.0520
G01 X0.8663 Y4.0426
G01 X0.8579 Y4.0341
G01 X0.8492 Y4.0242
G01 X0.8397 Y4.0114
G01 X0.8316 Y3.9987
G01 X0.8259 Y3.9882
G01 X0.8179 Y3.9703
G01 X0.8138 Y3.9587
G01 X0.8113 Y3.9499
G01 X0.8088 Y3.9397
G01 X0.8070 Y3.9298
G01 X0.8053 Y3.9167
G01 X0.8046 Y3.9054
G01 X0.8044 Y3.4980
G01 X0.7044 Y3.4980
G01 X0.7044 Y3.9351
G01 X0.7070 Y3.9590
G01 X0.7384 Y4.0433
G01 X0.7901 Y4.1123
G01 X0.8591 Y4.1640
G00 Z1.0000
G00 X0.8591 Y4.1640
G01 F300.00
G01 Z-0.1000
G01 F600.00
G01 X0.8228 Y4.2305
G00 Z1.0000
G00 X0.8228 Y4.2305
G01 F300.00
G01 Z-0.1000
G01 F600.00
G01 X0.9260 Y4.2690
G01 X0.9633 Y4.2730
G01 X1.2078 Y4.2730
G01 X1.2189 Y4.2735
G01 X1.2318 Y4.2753
G01 X1.2445 Y4.2785
G01 X1.3141 Y4.3012
G01 X1.3227 Y4.3046
G01 X1.3326 Y4.3096
G01 X1.3453 Y4.3177
G01 X1.3540 Y4.3246
G01 X1.3583 Y4.3286
G01 X1.3647 Y4.3352
G01 X1.3718 Y4.3438
G01 X1.4125 Y4.3998
G01 X1.4206 Y4.4125
G01 X1.4256 Y4.4225
G01 X1.4303 Y4.4347
G01 X1.4337 Y4.4473
G01 X1.4355 Y4.4583
G01 X1.4364 Y4.4733
G01 X1.4364 Y4.5426
G01 X1.4357 Y4.5537
G01 X1.4344 Y4.5628
G01 X1.4309 Y4.5774
G01 X1.4256 Y4.5915
G01 X1.4206 Y4.6015
G01 X1.4176 Y4.6065
G01 X1.4125 Y4.6142
G01 X1.3720 Y4.6700
G01 X1.3661 Y4.6772
G01 X1.3586 Y4.6852
G01 X1.3503 Y4.6925
G01 X1.3429 Y4.6980
G01 X1.3309 Y4.7059
G01 X1.2338 Y4.7661
G01 X1.0933 Y4.8942
G01 X0.9788 Y5.0458
G01 X0.8941 Y5.2160
G01 X0.8420 Y5.3988
G01 X0.8245 Y5.5880
G01 X0.8420 Y5.7772
G01 X0.8941 Y5.9600
G01 X0.9788 Y6.1302
G01 X1.0933 Y6.2818
G01 X1.2337 Y6.4099
G01 X1.3953 Y6.5099
G01 X1.5726 Y6.5786
G01 X1.7594 Y6.6135
G01 X1.9494 Y6.6135
G01 X2.1362 Y6.5786
G01 X2.3135 Y6.5099
G01 X2.4750 Y6.4099
G01 X2.6155 Y6.2818
G01 X2.7300 Y6.1302
G01 X2.8147 Y5.9600
G01 X2.8668 Y5.7772
G01 X2.8843 Y5.5880
G01 X2.8668 Y5.3988
G01 X2.8147 Y5.2160
G01 X2.7300 Y5.0458
G01 X2.6155 Y4.8942
G01 X2.4751 Y4.7661
G01 X2.3779 Y4.7059
G01 X2.3687 Y4.6997
G01 X2.3641 Y4.6960
G01 X2.3572 Y4.6899
G01 X2.3495 Y4.6819
G01 X2.3023 Y4.6259
G01 X2.2968 Y4.6186
G01 X2.2920 Y4.6108
G01 X2.2852 Y4.5974
G01 X2.2801 Y4.5832
G01 X2.2771 Y4.5705
G01 X2.2755 Y4.5575
G01 X2.2704 Y4.4883
G01 X2.2705 Y4.4733
G01 X2.2713 Y4.4642
G01 X2.2729 Y4.4552
G01 X2.2743 Y4.4494
G01 X2.2775 Y4.4388
G01 X2.2818 Y4.4285
G01 X2.2844 Y4.4232
G01 X2.2889 Y4.4153
G01 X2.3244 Y4.3580
G01 X2.3306 Y4.3488
G01 X2.3404 Y4.3373
G01 X2.3484 Y4.3297
G01 X2.3530 Y4.3259
G01 X2.3603 Y4.3204
G01 X2.3698 Y4.3146
G01 X2.3833 Y4.3081
G01 X2.4529 Y4.2799
G01 X2.4666 Y4.2761
G01 X2.4791 Y4.2741
G01 X2.5010 Y4.2730
G01 X2.7455 Y4.2730
G01 X2.7828 Y4.2690
G01 X2.8860 Y4.2305
G01 X2.9723 Y4.1659
G01 X3.0369 Y4.0796
G01 X3.0754 Y3.9764
G01 X3.0794 Y3.9391
G01 X3.0794 Y3.4230
G01 X2.8294 Y3.4230
G01 X2.8294 Y3.8980
G01 X2.8290 Y3.9084
G01 X2.8276 Y3.9188
G01 X2.8262 Y3.9260
G01 X2.8235 Y3.9360
G01 X2.8199 Y3.9458
G01 X2.8163 Y3.9536
G01 X2.8083 Y3.9674
G01 X2.7986 Y3.9801
G01 X2.7928 Y3.9864
G01 X2.7851 Y3.9934
G01 X2.7723 Y4.0029
G01 X2.7633 Y4.0082
G01 X2.7539 Y4.0128
G01 X2.7389 Y4.0181
G01 X2.7288 Y4.0206
G01 X2.7203 Y4.0219
G01 X2.7044 Y4.0230
G01 X1.0044 Y4.0230
G01 X0.9921 Y4.0224
G01 X0.9818 Y4.0209
G01 X0.9699 Y4.0181
G01 X0.9600 Y4.0148
G01 X0.9532 Y4.0120
G01 X0.9439 Y4.0074
G01 X0.9350 Y4.0019
G01 X0.9251 Y3.9946
G01 X0.9160 Y3.9864
G01 X0.9090 Y3.9787
G01 X0.9015 Y3.9690
G01 X0.8960 Y3.9601
G01 X0.8925 Y3.9536
G01 X0.8882 Y3.9441
G01 X0.8848 Y3.9343
G01 X0.8818 Y3.9224
G01 X0.8800 Y3.9103
G01 X0.8794 Y3.8980
G01 X0.8794 Y3.4230
G01 X0.6294 Y3.4230
G01 X0.6294 Y3.9391
G01 X0.6334 Y3.9764
G01 X0.6719 Y4.0796
G01 X0.7365 Y4.1659
G01 X0.8228 Y4.2305
G00 Z1.0000
G00 X0.8228 Y4.2305
G01 F300.00
G01 Z-0.1000
G01 F600.00
G01 X1.1463 Y4.1980
G00 Z1.0000
G00 X1.1463 Y4.1980
G01 F300.00
G01 Z-0.1000
G01 F600.00
G01 X1.3950 Y4.1730
G00 Z1.0000
G00 X1.3950 Y4.1730
G01 F300.00
G01 Z-0.1000
G01 F600.00
G01 X1.4135 Y4.1832
G01 X1.4254 Y4.1907
G01 X1.4350 Y4.1975
G01 X1.4544 Y4.2131
G01 X1.4715 Y4.2298
G01 X1.4813 Y4.2407
G01 X1.4934 Y4.2560
G01 X1.5362 Y4.3149
G01 X1.5486 Y4.3341
G01 X1.5593 Y4.3543
G01 X1.5664 Y4.3705
G01 X1.5736 Y4.3902
G01 X1.5796 Y4.4123
G01 X1.5834 Y4.4329
G01 X1.5854 Y4.4495
G01 X1.5864 Y4.4684
G01 X1.5864 Y4.4964
G01 X1.6253 Y4.4867
G01 X1.6410 Y4.4835
G01 X1.7307 Y4.4701
G01 X1.7530 Y4.4677
G01 X1.7946 Y4.4656
G00 Z1.0000
G00 X1.7946 Y4.4656
G01 F300.00
G01 Z-0.1000
G01 F600.00
G01 X1.8662 Y4.5383
G00 Z1.0000
G00 X1.8662 Y4.5383
G01 F300.00
G01 Z-0.1000
G01 F600.00
G01 X1.9438 Y4.6172
G00 Z1.0000
G00 X1.9438 Y4.6172
G01 F300.00
G01 Z-0.1000
G01 F600.00
G01 X1.9561 Y4.6184
G01 X2.0422 Y4.6313
G01 X2.0506 Y4.6331
G01 X2.1351 Y4.6543
G01 X2.1433 Y4.6569
G01 X2.2252 Y4.6863
G01 X2.2331 Y4.6897
G01 X2.3118 Y4.7270
G01 X2.3194 Y4.7312
G01 X2.3940 Y4.7760
G01 X2.4011 Y4.7808
G01 X2.4710 Y4.8328
G01 X2.4776 Y4.8383
G01 X2.5421 Y4.8969
G01 X2.5481 Y4.9030
G01 X2.6065 Y4.9676
G01 X2.6119 Y4.9743
G01 X2.6637 Y5.0443
G01 X2.6684 Y5.0515
G01 X2.7131 Y5.1263
G01 X2.7170 Y5.1339
G01 X2.7542 Y5.2126
G01 X2.7574 Y5.2206
G01 X2.7866 Y5.3026
G01 X2.7891 Y5.3109
G01 X2.8101 Y5.3954
G01 X2.8117 Y5.4038
G01 X2.8244 Y5.4900
G01 X2.8252 Y5.4986
G01 X2.8293 Y5.5855
G01 X2.8292 Y5.5941
G01 X2.8249 Y5.6811
G01 X2.8240 Y5.6897
G01 X2.8111 Y5.7758
G01 X2.8093 Y5.7842
G01 X2.7881 Y5.8687
G01 X2.7855 Y5.8769
G01 X2.7561 Y5.9588
G01 X2.7527 Y5.9667
G01 X2.7154 Y6.0454
G01 X2.7112 Y6.0530
G01 X2.6664 Y6.1276
G01 X2.6616 Y6.1347
G01 X2.6096 Y6.2046
G01 X2.6041 Y6.2112
G01 X2.5455 Y6.2757
G01 X2.5394 Y6.2817
G01 X2.4748 Y6.3401
G01 X2.4681 Y6.3455
G01 X2.3981 Y6.3973
G01 X2.3909 Y6.4020
G01 X2.3161 Y6.4467
G01 X2.3085 Y6.4506
G01 X2.2298 Y6.4878
G01 X2.2218 Y6.4910
G01 X2.1398 Y6.5202
G01 X2.1315 Y6.5227
G01 X2.0470 Y6.5437
G01 X2.0386 Y6.5453
G01 X1.9524 Y6.5580
G01 X1.9438 Y6.5588
G01 X1.8569 Y6.5629
G01 X1.8483 Y6.5628
G01 X1.7613 Y6.5585
G01 X1.7527 Y6.5576
G01 X1.6666 Y6.5447
G01 X1.6582 Y6.5429
G01 X1.5737 Y6.5217
G01 X1.5655 Y6.5191
G01 X1.4836 Y6.4897
G01 X1.4757 Y6.4863
G01 X1.3970 Y6.4490
G01 X1.3894 Y6.4448
G01 X1.3148 Y6.4000
G01 X1.3077 Y6.3952
G01 X1.2378 Y6.3432
G01 X1.2312 Y6.3377
G01 X1.1667 Y6.2791
G01 X1.1607 Y6.2730
G01 X1.1023 Y6.2084
G01 X1.0969 Y6.2017
G01 X1.0451 Y6.1317
G01 X1.0404 Y6.1245
G01 X0.9957 Y6.0497
G01 X0.9918 Y6.0421
G01 X0.9546 Y5.9634
G01 X0.9514 Y5.9554
G01 X0.9222 Y5.8734
G01 X0.9197 Y5.8651
G01 X0.8987 Y5.7806
G01 X0.8971 Y5.7722
G01 X0.8844 Y5.6860
G01 X0.8836 Y5.6774
G01 X0.8795 Y5.5905
G01 X0.8796 Y5.5819
G01 X0.8839 Y5.4949
G01 X0.8848 Y5.4863
G01 X0.8977 Y5.4002
G01 X0.8995 Y5.3918
G01 X0.9207 Y5.3073
G01 X0.9233 Y5.2991
G01 X0.9527 Y5.2172
G01 X0.9561 Y5.2093
G01 X0.9934 Y5.1306
G01 X0.9976 Y5.1230
G01 X1.0424 Y5.0484
G01 X1.0472 Y5.0413
G01 X1.0992 Y4.9714
G01 X1.1047 Y4.9648
G01 X1.1633 Y4.9003
G01 X1.1694 Y4.8943
G01 X1.2340 Y4.8359
G01 X1.2407 Y4.8305
G01 X1.3107 Y4.7787
G01 X1.3179 Y4.7740
G01 X1.3927 Y4.7293
G01 X1.4003 Y4.7254
G01 X1.4790 Y4.6882
G01 X1.4870 Y4.6850
G01 X1.5690 Y4.6558
G01 X1.5773 Y4.6533
G01 X1.6618 Y4.6323
G01 X1.6702 Y4.6307
G01 X1.7564 Y4.6180
G01 X1.7650 Y4.6172
G01 X1.8519 Y4.6131
G01 X1.8605 Y4.6132
G01 X1.9438 Y4.6172
G00 Z1.0000
G00 X1.7946 Y4.4656
G01 F300.00
G01 Z-0.1000
G01 F600.00
G01 X1.8427 Y4.4633
G01 X1.8605 Y4.4631
G01 X1.9618 Y4.4682
G01 X1.9776 Y4.4700
G01 X2.0669 Y4.4833
G01 X2.0835 Y4.4867
G01 X2.1206 Y4.4960
G01 X2.1203 Y4.4736
G01 X2.1218 Y4.4517
G01 X2.1242 Y4.4342
G01 X2.1286 Y4.4137
G01 X2.1351 Y4.3918
G01 X2.1427 Y4.3723
G01 X2.1506 Y4.3554
G01 X2.1611 Y4.3367
G01 X2.1971 Y4.2786
G01 X2.2033 Y4.2692
G01 X2.2163 Y4.2515
G01 X2.2327 Y4.2329
G01 X2.2442 Y4.2217
G01 X2.2523 Y4.2145
G01 X2.2610 Y4.2074
G01 X2.2727 Y4.1987
G01 X2.2825 Y4.1921
G01 X2.2962 Y4.1839
G01 X2.3066 Y4.1784
G01 X2.3179 Y4.1730
G01 X1.3950 Y4.1730
G00 Z1.0000
G00 X1.3950 Y4.1730
G01 F300.00
G01 Z-0.1000
G01 F600.00
G01 X1.5804 Y4.2481
G00 Z1.0000
G00 X1.5804 Y4.2481
G01 F300.00
G01 Z-0.1000
G01 F600.00
G01 X1.7252 Y4.3951
G00 Z1.0000
G00 X1.7252 Y4.3951
G01 F300.00
G01 Z-0.1000
G01 F600.00
G01 X1.6548 Y4.4055
G01 X1.6504 Y4.3862
G01 X1.6440 Y4.3642
G01 X1.6362 Y4.3430
G01 X1.6285 Y4.3252
G01 X1.6188 Y4.3060
G01 X1.6092 Y4.2895
G01 X1.5983 Y4.2728
G01 X1.5804 Y4.2481
G00 Z1.0000
G00 X1.7252 Y4.3951
G01 F300.00
G01 Z-0.1000
G01 F600.00
G01 X1.7514 Y4.3927
G01 X1.8372 Y4.3884
G01 X1.8501 Y4.3881
G01 X1.8665 Y4.3882
G01 X1.9551 Y4.3925
G01 X1.9677 Y4.3934
G01 X1.9870 Y4.3956
G01 X2.0535 Y4.4054
G01 X2.0579 Y4.3878
G01 X2.0642 Y4.3673
G01 X2.0705 Y4.3506
G01 X2.0789 Y4.3311
G01 X2.0858 Y4.3176
G01 X2.0943 Y4.3023
G01 X2.1277 Y4.2483
G01 X1.5804 Y4.2481
G00 Z1.0000
G00 X1.7252 Y4.3951
G01 F300.00
G01 Z-0.1000
G01 F600.00
G01 X1.7946 Y4.4656
G00 Z1.0000
G00 X1.9438 Y7.1572
G01 F300.00
G01 Z-0.1000
G01 F600.00
G01 X1.9561 Y7.1584
G01 X2.0422 Y7.1713
G01 X2.0506 Y7.1731
G01 X2.1351 Y7.1943
G01 X2.1433 Y7.1969
G01 X2.2252 Y7.2263
G01 X2.2331 Y7.2297
G01 X2.3118 Y7.2670
G01 X2.3194 Y7.2712
G01 X2.3940 Y7.3160
G01 X2.4011 Y7.3208
G01 X2.4710 Y7.3728
G01 X2.4776 Y7.3783
G01 X2.5421 Y7.4369
G01 X2.5481 Y7.4430
G01 X2.6065 Y7.5076
G01 X2.6119 Y7.5143
G01 X2.6637 Y7.5843
G01 X2.6684 Y7.5915
G01 X2.7131 Y7.6663
G01 X2.7170 Y7.6739
G01 X2.7542 Y7.7526
G01 X2.7574 Y7.7606
G01 X2.7866 Y7.8426
G01 X2.7891 Y7.8509
G01 X2.8101 Y7.9354
G01 X2.8117 Y7.9438
G01 X2.8244 Y8.0300
G01 X2.8252 Y8.0386
G01 X2.8293 Y8.1255
G01 X2.8292 Y8.1341
G01 X2.8249 Y8.2211
G01 X2.8240 Y8.2297
G01 X2.8111 Y8.3158
G01 X2.8093 Y8.3242
G01 X2.7881 Y8.4087
G01 X2.7855 Y8.4169
G01 X2.7561 Y8.4988
G01 X2.7527 Y8.5067
G01 X2.7154 Y8.5854
G01 X2.7112 Y8.5930
G01 X2.6664 Y8.6676
G01 X2.6616 Y8.6747
G01 X2.6096 Y8.7446
G01 X2.6041 Y8.7512
G01 X2.5455 Y8.8157
G01 X2.5394 Y8.8217
G01 X2.4748 Y8.8801
G01 X2.4681 Y8.8855
G01 X2.3981 Y8.9373
G01 X2.3909 Y8.9420
G01 X2.3161 Y8.9867
G01 X2.3085 Y8.9906
G01 X2.2298 Y9.0278
G01 X2.2218 Y9.0310
G01 X2.1398 Y9.0602
G01 X2.1315 Y9.0627
G01 X2.0470 Y9.0837
G01 X2.0386 Y9.0853
G01 X1.9524 Y9.0980
G01 X1.9438 Y9.0988
G01 X1.8569 Y9.1029
G01 X1.8483 Y9.1028
G01 X1.7613 Y9.0985
G01 X1.7527 Y9.0976
G01 X1.6666 Y9.0847
G01 X1.6582 Y9.0829
G01 X1.5737 Y9.0617
G01 X1.5655 Y9.0591
G01 X1.4836 Y9.0297
G01 X1.4757 Y9.0263
G01 X1.3970 Y8.9890
G01 X1.3894 Y8.9848
G01 X1.3148 Y8.9400
G01 X1.3077 Y8.9352
G01 X1.2378 Y8.8832
G01 X1.2312 Y8.8777
G01 X1.1667 Y8.8191
G01 X1.1607 Y8.8130
G01 X1.1023 Y8.7484
G01 X1.0969 Y8.7417
G01 X1.0451 Y8.6717
G01 X1.0404 Y8.6645
G01 X0.9957 Y8.5897
G01 X0.9918 Y8.5821
G01 X0.9546 Y8.5034
G01 X0.9514 Y8.4954
G01 X0.9222 Y8.4134
G01 X0.9197 Y8.4051
G01 X0.8987 Y8.3206
G01 X0.8971 Y8.3122
G01 X0.8844 Y8.2260
G01 X0.8836 Y8.2174
G01 X0.8795 Y8.1305
G01 X0.8796 Y8.1219
G01 X0.8839 Y8.0349
G01 X0.8848 Y8.0263
G01 X0.8977 Y7.9402
G01 X0.8995 Y7.9318
G01 X0.9207 Y7.8473
G01 X0.9233 Y7.8391
G01 X0.9527 Y7.7572
G01 X0.9561 Y7.7493
G01 X0.9934 Y7.6706
G01 X0.9976 Y7.6630
G01 X1.0424 Y7.5884
G01 X1.0472 Y7.5813
G01 X1.0992 Y7.5114
G01 X1.1047 Y7.5048
G01 X1.1633 Y7.4403
G01 X1.1694 Y7.4343
G01 X1.2340 Y7.3759
G01 X1.2407 Y7.3705
G01 X1.3107 Y7.3187
G01 X1.3179 Y7.3140
G01 X1.3927 Y7.2693
G01 X1.4003 Y7.2654
G01 X1.4790 Y7.2282
G01 X1.4870 Y7.2250
G01 X1.5690 Y7.1958
G01 X1.5773 Y7.1933
G01 X1.6618 Y7.1723
G01 X1.6702 Y7.1707
G01 X1.7564 Y7.1580
G01 X1.7650 Y7.1572
G01 X1.8519 Y7.1531
G01 X1.8605 Y7.1532
G01 X1.9438 Y7.1572
G00 Z1.0000
G00 X2.3135 Y9.0499
G01 F300.00
G01 Z-0.1000
G01 F600.00
G01 X2.4750 Y8.9499
G01 X2.6155 Y8.8218
G01 X2.7300 Y8.6702
G01 X2.8147 Y8.5000
G01 X2.8668 Y8.3172
G01 X2.8843 Y8.1280
G01 X2.8668 Y7.9388
G01 X2.8147 Y7.7560
G01 X2.7300 Y7.5858
G01 X2.6155 Y7.4342
G01 X2.4750 Y7.3061
G01 X2.3135 Y7.2061
G01 X2.1362 Y7.1374
G01 X1.9494 Y7.1025
G01 X1.7594 Y7.1025
G01 X1.5726 Y7.1374
G01 X1.3953 Y7.2061
G01 X1.2338 Y7.3061
G01 X1.0933 Y7.4342
G01 X0.9788 Y7.5858
G01 X0.8941 Y7.7560
G01 X0.8420 Y7.9388
G01 X0.8245 Y8.1280
G01 X0.8420 Y8.3172
G01 X0.8941 Y8.5000
G01 X0.9788 Y8.6702
G01 X1.0933 Y8.8218
G01 X1.2338 Y8.9499
G01 X1.3953 Y9.0499
G01 X1.5726 Y9.1186
G01 X1.7594 Y9.1535
G01 X1.9494 Y9.1535
G01 X2.1362 Y9.1186
G01 X2.3135 Y9.0499
G00 Z1.0000
G00 X1.9438 Y9.6972
G01 F300.00
G01 Z-0.1000
G01 F600.00
G01 X1.9561 Y9.6984
G01 X2.0422 Y9.7113
G01 X2.0506 Y9.7131
G01 X2.1351 Y9.7343
G01 X2.1433 Y9.7369
G01 X2.2252 Y9.7663
G01 X2.2331 Y9.7697
G01 X2.3118 Y9.8070
G01 X2.3194 Y9.8112
G01 X2.3940 Y9.8560
G01 X2.4011 Y9.8608
G01 X2.4710 Y9.9128
G01 X2.4776 Y9.9183
G01 X2.5421 Y9.9769
G01 X2.5481 Y9.9830
G01 X2.6065 Y10.0476
G01 X2.6119 Y10.0543
G01 X2.6637 Y10.1243
G01 X2.6684 Y10.1315
G01 X2.7131 Y10.2063
G01 X2.7170 Y10.2139
G01 X2.7542 Y10.2926
G01 X2.7574 Y10.3006
G01 X2.7866 Y10.3826
G01 X2.7891 Y10.3909
G01 X2.8101 Y10.4754
G01 X2.8117 Y10.4838
G01 X2.8244 Y10.5700
G01 X2.8252 Y10.5786
G01 X2.8293 Y10.6655
G01 X2.8292 Y10.6741
G01 X2.8249 Y10.7611
G01 X2.8240 Y10.7697
G01 X2.8111 Y10.8558
G01 X2.8093 Y10.8642
G01 X2.7881 Y10.9487
G01 X2.7855 Y10.9569
G01 X2.7561 Y11.0388
G01 X2.7527 Y11.0467
G01 X2.7154 Y11.1254
G01 X2.7112 Y11.1330
G01 X2.6664 Y11.2076
G01 X2.6616 Y11.2147
G01 X2.6096 Y11.2846
G01 X2.6041 Y11.2912
G01 X2.5455 Y11.3557
G01 X2.5394 Y11.3617
G01 X2.4748 Y11.4201
G01 X2.4681 Y11.4255
G01 X2.3981 Y11.4773
G01 X2.3909 Y11.4820
G01 X2.3161 Y11.5267
G01 X2.3085 Y11.5306
G01 X2.2298 Y11.5678
G01 X2.2218 Y11.5710
G01 X2.1398 Y11.6002
G01 X2.1315 Y11.6027
G01 X2.0470 Y11.6237
G01 X2.0386 Y11.6253
G01 X1.9524 Y11.6380
G01 X1.9438 Y11.6388
G01 X1.8569 Y11.6429
G01 X1.8483 Y11.6428
G01 X1.7613 Y11.6385
G01 X1.7527 Y11.6376
G01 X1.6666 Y11.6247
G01 X1.6582 Y11.6229
G01 X1.5737 Y11.6017
G01 X1.5655 Y11.5991
G01 X1.4836 Y11.5697
G01 X1.4757 Y11.5663
G01 X1.3970 Y11.5290
G01 X1.3894 Y11.5248
G01 X1.3148 Y11.4800
G01 X1.3077 Y11.4752
G01 X1.2378 Y11.4232
G01 X1.2312 Y11.4177
G01 X1.1667 Y11.3591
G01 X1.1607 Y11.3530
G01 X1.1023 Y11.2884
G01 X1.0969 Y11.2817
G01 X1.0451 Y11.2117
G01 X1.0404 Y11.2045
G01 X0.9957 Y11.1297
G01 X0.9918 Y11.1221
G01 X0.9546 Y11.0434
G01 X0.9514 Y11.0354
G01 X0.9222 Y10.9534
G01 X0.9197 Y10.9451
G01 X0.8987 Y10.8606
G01 X0.8971 Y10.8522
G01 X0.8844 Y10.7660
G01 X0.8836 Y10.7574
G01 X0.8795 Y10.6705
G01 X0.8796 Y10.6619
G01 X0.8839 Y10.5749
G01 X0.8848 Y10.5663
G01 X0.8977 Y10.4802
G01 X0.8995 Y10.4718
G01 X0.9207 Y10.3873
G01 X0.9233 Y10.3791
G01 X0.9527 Y10.2972
G01 X0.9561 Y10.2893
G01 X0.9934 Y10.2106
G01 X0.9976 Y10.2030
G01 X1.0424 Y10.1284
G01 X1.0472 Y10.1213
G01 X1.0992 Y10.0514
G01 X1.1047 Y10.0448
G01 X1.1633 Y9.9803
G01 X1.1694 Y9.9743
G01 X1.2340 Y9.9159
G01 X1.2407 Y9.9105
G01 X1.3107 Y9.8587
G01 X1.3179 Y9.8540
G01 X1.3927 Y9.8093
G01 X1.4003 Y9.8054
G01 X1.4790 Y9.7682
G01 X1.4870 Y9.7650
G01 X1.5690 Y9.7358
G01 X1.5773 Y9.7333
G01 X1.6618 Y9.7123
G01 X1.6702 Y9.7107
G01 X1.7564 Y9.6980
G01 X1.7650 Y9.6972
G01 X1.8519 Y9.6931
G01 X1.8605 Y9.6932
G01 X1.9438 Y9.6972
G00 Z1.0000
G00 X2.3135 Y11.5899
G01 F300.00
G01 Z-0.1000
G01 F600.00
G01 X2.4750 Y11.4899
G01 X2.6155 Y11.3618
G01 X2.7300 Y11.2102
G01 X2.8147 Y11.0400
G01 X2.8668 Y10.8572
G01 X2.8843 Y10.6680
G01 X2.8668 Y10.4788
G01 X2.8147 Y10.2960
G01 X2.7300 Y10.1258
G01 X2.6155 Y9.9742
G01 X2.4750 Y9.8461
G01 X2.3135 Y9.7461
G01 X2.1362 Y9.6774
G01 X1.9494 Y9.6425
G01 X1.7594 Y9.6425
G01 X1.5726 Y9.6774
G01 X1.3953 Y9.7461
G01 X1.2338 Y9.8461
G01 X1.0933 Y9.9742
G01 X0.9788 Y10.1258
G01 X0.8941 Y10.2960
G01 X0.8420 Y10.4788
G01 X0.8245 Y10.6680
G01 X0.8420 Y10.8572
G01 X0.8941 Y11.0400
G01 X0.9788 Y11.2102
G01 X1.0933 Y11.3618
G01 X1.2337 Y11.4899
G01 X1.3953 Y11.5899
G01 X1.5726 Y11.6586
G01 X1.7594 Y11.6935
G01 X1.9494 Y11.6935
G01 X2.1362 Y11.6586
G01 X2.3135 Y11.5899
G00 Z1.0000
G00 X1.9438 Y12.2372
G01 F300.00
G01 Z-0.1000
G01 F600.00
G01 X1.9561 Y12.2384
G01 X2.0422 Y12.2513
G01 X2.0506 Y12.2531
G01 X2.1351 Y12.2743
G01 X2.1433 Y12.2769
G01 X2.2252 Y12.3063
G01 X2.2331 Y12.3097
G01 X2.3118 Y12.3470
G01 X2.3194 Y12.3512
G01 X2.3940 Y12.3960
G01 X2.4011 Y12.4008
G01 X2.4710 Y12.4528
G01 X2.4776 Y12.4583
G01 X2.5421 Y12.5169
G01 X2.5481 Y12.5230
G01 X2.6065 Y12.5876
G01 X2.6119 Y12.5943
G01 X2.6637 Y12.6643
G01 X2.6684 Y12.6715
G01 X2.7131 Y12.7463
G01 X2.7170 Y12.7539
G01 X2.7542 Y12.8326
G01 X2.7574 Y12.8406
G01 X2.7866 Y12.9226
G01 X2.7891 Y12.9309
G01 X2.8101 Y13.0154
G01 X2.8117 Y13.0238
G01 X2.8244 Y13.1100
G01 X2.8252 Y13.1186
G01 X2.8293 Y13.2055
G01 X2.8292 Y13.2141
G01 X2.8249 Y13.3011
G01 X2.8240 Y13.3097
G01 X2.8111 Y13.3958
G01 X2.8093 Y13.4042
G01 X2.7881 Y13.4887
G01 X2.7855 Y13.4969
G01 X2.7561 Y13.5788
G01 X2.7527 Y13.5867
G01 X2.7154 Y13.6654
G01 X2.7112 Y13.6730
G01 X2.6664 Y13.7476
G01 X2.6616 Y13.7547
G01 X2.6096 Y13.8246
G01 X2.6041 Y13.8312
G01 X2.5455 Y13.8957
G01 X2.5394 Y13.9017
G01 X2.4748 Y13.9601
G01 X2.4681 Y13.9655
G01 X2.3981 Y14.0173
G01 X2.3909 Y14.0220
G01 X2.3161 Y14.0667
G01 X2.3085 Y14.0706
G01 X2.2298 Y14.1078
G01 X2.2218 Y14.1110
G01 X2.1398 Y14.1402
G01 X2.1315 Y14.1427
G01 X2.0470 Y14.1637
G01 X2.0386 Y14.1653
G01 X1.9524 Y14.1780
G01 X1.9438 Y14.1788
G01 X1.8569 Y14.1829
G01 X1.8483 Y14.1828
G01 X1.7613 Y14.1785
G01 X1.7527 Y14.1776
G01 X1.6666 Y14.1647
G01 X1.6582 Y14.1629
G01 X1.5737 Y14.1417
G01 X1.5655 Y14.1391
G01 X1.4836 Y14.1097
G01 X1.4757 Y14.1063
G01 X1.3970 Y14.0690
G01 X1.3894 Y14.0648
G01 X1.3148 Y14.0200
G01 X1.3077 Y14.0152
G01 X1.2378 Y13.9632
G01 X1.2312 Y13.9577
G01 X1.1667 Y13.8991
G01 X1.1607 Y13.8930
G01 X1.1023 Y13.8284
G01 X1.0969 Y13.8217
G01 X1.0451 Y13.7517
G01 X1.0404 Y13.7445
G01 X0.9957 Y13.6697
G01 X0.9918 Y13.6621
G01 X0.9546 Y13.5834
G01 X0.9514 Y13.5754
G01 X0.9222 Y13.4934
G01 X0.9197 Y13.4851
G01 X0.8987 Y13.4006
G01 X0.8971 Y13.3922
G01 X0.8844 Y13.3060
G01 X0.8836 Y13.2974
G01 X0.8795 Y13.2105
G01 X0.8796 Y13.2019
G01 X0.8839 Y13.1149
G01 X0.8848 Y13.1063
G01 X0.8977 Y13.0202
G01 X0.8995 Y13.0118
G01 X0.9207 Y12.9273
G01 X0.9233 Y12.9191
G01 X0.9527 Y12.8372
G01 X0.9561 Y12.8293
G01 X0.9934 Y12.7506
G01 X0.9976 Y12.7430
G01 X1.0424 Y12.6684
G01 X1.0472 Y12.6613
G01 X1.0992 Y12.5914
G01 X1.1047 Y12.5848
G01 X1.1633 Y12.5203
G01 X1.1694 Y12.5143
G01 X1.2340 Y12.4559
G01 X1.2407 Y12.4505
G01 X1.3107 Y12.3987
G01 X1.3179 Y12.3940
G01 X1.3927 Y12.3493
G01 X1.4003 Y12.3454
G01 X1.4790 Y12.3082
G01 X1.4870 Y12.3050
G01 X1.5690 Y12.2758
G01 X1.5773 Y12.2733
G01 X1.6618 Y12.2523
G01 X1.6702 Y12.2507
G01 X1.7564 Y12.2380
G01 X1.7650 Y12.2372
G01 X1.8519 Y12.2331
G01 X1.8605 Y12.2332
G01 X1.9438 Y12.2372
G00 Z1.0000
G00 X2.3135 Y14.1299
G01 F300.00
G01 Z-0.1000
G01 F600.00
G01 X2.4750 Y14.0299
G01 X2.6155 Y13.9018
G01 X2.7300 Y13.7502
G01 X2.8147 Y13.5800
G01 X2.8668 Y13.3972
G01 X2.8843 Y13.2080
G01 X2.8668 Y13.0188
G01 X2.8147 Y12.8360
G01 X2.7300 Y12.6658
G01 X2.6155 Y12.5142
G01 X2.4750 Y12.3861
G01 X2.3135 Y12.2861
G01 X2.1362 Y12.2174
G01 X1.9494 Y12.1825
G01 X1.7594 Y12.1825
G01 X1.5726 Y12.2174
G01 X1.3953 Y12.2861
G01 X1.2338 Y12.3861
G01 X1.0933 Y12.5142
G01 X0.9788 Y12.6658
G01 X0.8941 Y12.8360
G01 X0.8420 Y13.0188
G01 X0.8245 Y13.2080
G01 X0.8420 Y13.3972
G01 X0.8941 Y13.5800
G01 X0.9788 Y13.7502
G01 X1.0933 Y13.9018
G01 X1.2337 Y14.0299
G01 X1.3953 Y14.1299
G01 X1.5726 Y14.1986
G01 X1.7594 Y14.2335
G01 X1.9494 Y14.2335
G01 X2.1362 Y14.1986
G01 X2.3135 Y14.1299
G00 Z1.0000
G00 X1.9438 Y14.7772
G01 F300.00
G01 Z-0.1000
G01 F600.00
G01 X1.9561 Y14.7784
G01 X2.0422 Y14.7913
G01 X2.0506 Y14.7931
G01 X2.1351 Y14.8143
G01 X2.1433 Y14.8169
G01 X2.2252 Y14.8463
G01 X2.2331 Y14.8497
G01 X2.3118 Y14.8870
G01 X2.3194 Y14.8912
G01 X2.3940 Y14.9360
G01 X2.4011 Y14.9408
G01 X2.4710 Y14.9928
G01 X2.4776 Y14.9983
G01 X2.5421 Y15.0569
G01 X2.5481 Y15.0630
G01 X2.6065 Y15.1276
G01 X2.6119 Y15.1343
G01 X2.6637 Y15.2043
G01 X2.6684 Y15.2115
G01 X2.7131 Y15.2863
G01 X2.7170 Y15.2939
G01 X2.7542 Y15.3726
G01 X2.7574 Y15.3806
G01 X2.7866 Y15.4626
G01 X2.7891 Y15.4709
G01 X2.8101 Y15.5554
G01 X2.8117 Y15.5638
G01 X2.8244 Y15.6500
G01 X2.8252 Y15.6586
G01 X2.8293 Y15.7455
G01 X2.8292 Y15.7541
G01 X2.8249 Y15.8411
G01 X2.8240 Y15.8497
G01 X2.8111 Y15.9358
G01 X2.8093 Y15.9442
G01 X2.7881 Y16.0287
G01 X2.7855 Y16.0369
G01 X2.7561 Y16.1188
G01 X2.7527 Y16.1267
G01 X2.7154 Y16.2054
G01 X2.7112 Y16.2130
G01 X2.6664 Y16.2876
G01 X2.6616 Y16.2947
G01 X2.6096 Y16.3646
G01 X2.6041 Y16.3712
G01 X2.5455 Y16.4357
G01 X2.5394 Y16.4417
G01 X2.4748 Y16.5001
G01 X2.4681 Y16.5055
G01 X2.3981 Y16.5573
G01 X2.3909 Y16.5620
G01 X2.3161 Y16.6067
G01 X2.3085 Y16.6106
G01 X2.2298 Y16.6478
G01 X2.2218 Y16.6510
G01 X2.1398 Y16.6802
G01 X2.1315 Y16.6827
G01 X2.0470 Y16.7037
G01 X2.0386 Y16.7053
G01 X1.9524 Y16.7180
G01 X1.9438 Y16.7188
G01 X1.8569 Y16.7229
G01 X1.8483 Y16.7228
G01 X1.7613 Y16.7185
G01 X1.7527 Y16.7176
G01 X1.6666 Y16.7047
G01 X1.6582 Y16.7029
G01 X1.5737 Y16.6817
G01 X1.5655 Y16.6791
G01 X1.4836 Y16.6497
G01 X1.4757 Y16.6463
G01 X1.3970 Y16.6090
G01 X1.3894 Y16.6048
G01 X1.3148 Y16.5600
G01 X1.3077 Y16.5552
G01 X1.2378 Y16.5032
G01 X1.2312 Y16.4977
G01 X1.1667 Y16.4391
G01 X1.1607 Y16.4330
G01 X1.1023 Y16.3684
G01 X1.0969 Y16.3617
G01 X1.0451 Y16.2917
G01 X1.0404 Y16.2845
G01 X0.9957 Y16.2097
G01 X0.9918 Y16.2021
G01 X0.9546 Y16.1234
G01 X0.9514 Y16.1154
G01 X0.9222 Y16.0334
G01 X0.9197 Y16.0251
G01 X0.8987 Y15.9406
G01 X0.8971 Y15.9322
G01 X0.8844 Y15.8460
G01 X0.8836 Y15.8374
G01 X0.8795 Y15.7505
G01 X0.8796 Y15.7419
G01 X0.8839 Y15.6549
G01 X0.8848 Y15.6463
G01 X0.8977 Y15.5602
G01 X0.8995 Y15.5518
G01 X0.9207 Y15.4673
G01 X0.9233 Y15.4591
G01 X0.9527 Y15.3772
G01 X0.9561 Y15.3693
G01 X0.9934 Y15.2906
G01 X0.9976 Y15.2830
G01 X1.0424 Y15.2084
G01 X1.0472 Y15.2013
G01 X1.0992 Y15.1314
G01 X1.1047 Y15.1248
G01 X1.1633 Y15.0603
G01 X1.1694 Y15.0543
G01 X1.2340 Y14.9959
G01 X1.2407 Y14.9905
G01 X1.3107 Y14.9387
G01 X1.3179 Y14.9340
G01 X1.3927 Y14.8893
G01 X1.4003 Y14.8854
G01 X1.4790 Y14.8482
G01 X1.4870 Y14.8450
G01 X1.5690 Y14.8158
G01 X1.5773 Y14.8133
G01 X1.6618 Y14.7923
G01 X1.6702 Y14.7907
G01 X1.7564 Y14.7780
G01 X1.7650 Y14.7772
G01 X1.8519 Y14.7731
G01 X1.8605 Y14.7732
G01 X1.9438 Y14.7772
G00 Z1.0000
G00 X2.3135 Y16.6699
G01 F300.00
G01 Z-0.1000
G01 F600.00
G01 X2.4750 Y16.5699
G01 X2.6155 Y16.4418
G01 X2.7300 Y16.2902
G01 X2.8147 Y16.1200
G01 X2.8668 Y15.9372
G01 X2.8843 Y15.7480
G01 X2.8668 Y15.5588
G01 X2.8147 Y15.3760
G01 X2.7300 Y15.2058
G01 X2.6155 Y15.0542
G01 X2.4750 Y14.9261
G01 X2.3135 Y14.8261
G01 X2.1362 Y14.7574
G01 X1.9494 Y14.7225
G01 X1.7594 Y14.7225
G01 X1.5726 Y14.7574
G01 X1.3953 Y14.8261
G01 X1.2338 Y14.9261
G01 X1.0933 Y15.0542
G01 X0.9788 Y15.2058
G01 X0.8941 Y15.3760
G01 X0.8420 Y15.5588
G01 X0.8245 Y15.7480
G01 X0.8420 Y15.9372
G01 X0.8941 Y16.1200
G01 X0.9788 Y16.2902
G01 X1.0933 Y16.4418
G01 X1.2337 Y16.5699
G01 X1.3953 Y16.6699
G01 X1.5726 Y16.7386
G01 X1.7594 Y16.7735
G01 X1.9494 Y16.7735
G01 X2.1362 Y16.7386
G01 X2.3135 Y16.6699
G00 Z1.0000
G00 X1.9438 Y17.3172
G01 F300.00
G01 Z-0.1000
G01 F600.00
G01 X1.9561 Y17.3184
G01 X2.0422 Y17.3313
G01 X2.0506 Y17.3331
G01 X2.1351 Y17.3543
G01 X2.1433 Y17.3569
G01 X2.2252 Y17.3863
G01 X2.2331 Y17.3897
G01 X2.3118 Y17.4270
G01 X2.3194 Y17.4312
G01 X2.3940 Y17.4760
G01 X2.4011 Y17.4808
G01 X2.4710 Y17.5328
G01 X2.4776 Y17.5383
G01 X2.5421 Y17.5969
G01 X2.5481 Y17.6030
G01 X2.6065 Y17.6676
G01 X2.6119 Y17.6743
G01 X2.6637 Y17.7443
G01 X2.6684 Y17.7515
G01 X2.7131 Y17.8263
G01 X2.7170 Y17.8339
G01 X2.7542 Y17.9126
G01 X2.7574 Y17.9206
G01 X2.7866 Y18.0026
G01 X2.7891 Y18.0109
G01 X2.8101 Y18.0954
G01 X2.8117 Y18.1038
G01 X2.8244 Y18.1900
G01 X2.8252 Y18.1986
G01 X2.8293 Y18.2855
G01 X2.8292 Y18.2941
G01 X2.8249 Y18.3811
G01 X2.8240 Y18.3897
G01 X2.8111 Y18.4758
G01 X2.8093 Y18.4842
G01 X2.7881 Y18.5687
G01 X2.7855 Y18.5769
G01 X2.7561 Y18.6588
G01 X2.7527 Y18.6667
G01 X2.7154 Y18.7454
G01 X2.7112 Y18.7530
G01 X2.6664 Y18.8276
G01 X2.6616 Y18.8347
G01 X2.6096 Y18.9046
G01 X2.6041 Y18.9112
G01 X2.5455 Y18.9757
G01 X2.5394 Y18.9817
G01 X2.4748 Y19.0401
G01 X2.4681 Y19.0455
G01 X2.3981 Y19.0973
G01 X2.3909 Y19.1020
G01 X2.3161 Y19.1467
G01 X2.3085 Y19.1506
G01 X2.2298 Y19.1878
G01 X2.2218 Y19.1910
G01 X2.1398 Y19.2202
G01 X2.1315 Y19.2227
G01 X2.0470 Y19.2437
G01 X2.0386 Y19.2453
G01 X1.9524 Y19.2580
G01 X1.9438 Y19.2588
G01 X1.8569 Y19.2629
G01 X1.8483 Y19.2628
G01 X1.7613 Y19.2585
G01 X1.7527 Y19.2576
G01 X1.6666 Y19.2447
G01 X1.6582 Y19.2429
G01 X1.5737 Y19.2217
G01 X1.5655 Y19.2191
G01 X1.4836 Y19.1897
G01 X1.4757 Y19.1863
G01 X1.3970 Y19.1490
G01 X1.3894 Y19.1448
G01 X1.3148 Y19.1000
G01 X1.3077 Y19.0952
G01 X1.2378 Y19.0432
G01 X1.2312 Y19.0377
G01 X1.1667 Y18.9791
G01 X1.1607 Y18.9730
G01 X1.1023 Y18.9084
G01 X1.0969 Y18.9017
G01 X1.0451 Y18.8317
G01 X1.0404 Y18.8245
G01 X0.9957 Y18.7497
G01 X0.9918 Y18.7421
G01 X0.9546 Y18.6634
G01 X0.9514 Y18.6554
G01 X0.9222 Y18.5734
G01 X0.9197 Y18.5651
G01 X0.8987 Y18.4806
G01 X0.8971 Y18.4722
G01 X0.8844 Y18.3860
G01 X0.8836 Y18.3774
G01 X0.8795 Y18.2905
G01 X0.8796 Y18.2819
G01 X0.8839 Y18.1949
G01 X0.8848 Y18.1863
G01 X0.8977 Y18.1002
G01 X0.8995 Y18.0918
G01 X0.9207 Y18.0073
G01 X0.9233 Y17.9991
G01 X0.9527 Y17.9172
G01 X0.9561 Y17.9093
G01 X0.9934 Y17.8306
G01 X0.9976 Y17.8230
G01 X1.0424 Y17.7484
G01 X1.0472 Y17.7413
G01 X1.0992 Y17.6714
G01 X1.1047 Y17.6648
G01 X1.1633 Y17.6003
G01 X1.1694 Y17.5943
G01 X1.2340 Y17.5359
G01 X1.2407 Y17.5305
G01 X1.3107 Y17.4787
G01 X1.3179 Y17.4740
G01 X1.3927 Y17.4293
G01 X1.4003 Y17.4254
G01 X1.4790 Y17.3882
G01 X1.4870 Y17.3850
G01 X1.5690 Y17.3558
G01 X1.5773 Y17.3533
G01 X1.6618 Y17.3323
G01 X1.6702 Y17.3307
G01 X1.7564 Y17.3180
G01 X1.7650 Y17.3172
G01 X1.8519 Y17.3131
G01 X1.8605 Y17.3132
G01 X1.9438 Y17.3172
G00 Z1.0000
G00 X2.3135 Y19.2099
G01 F300.00
G01 Z-0.1000
G01 F600.00
G01 X2.4750 Y19.1099
G01 X2.6155 Y18.9818
G01 X2.7300 Y18.8302
G01 X2.8147 Y18.6600
G01 X2.8668 Y18.4772
G01 X2.8843 Y18.2880
G01 X2.8668 Y18.0988
G01 X2.8147 Y17.9160
G01 X2.7300 Y17.7458
G01 X2.6155 Y17.5942
G01 X2.4750 Y17.4661
G01 X2.3135 Y17.3661
G01 X2.1362 Y17.2974
G01 X1.9494 Y17.2625
G01 X1.7594 Y17.2625
G01 X1.5726 Y17.2974
G01 X1.3953 Y17.3661
G01 X1.2338 Y17.4661
G01 X1.0933 Y17.5942
G01 X0.9788 Y17.7458
G01 X0.8941 Y17.9160
G01 X0.8420 Y18.0988
G01 X0.8245 Y18.2880
G01 X0.8420 Y18.4772
G01 X0.8941 Y18.6600
G01 X0.9788 Y18.8302
G01 X1.0933 Y18.9818
G01 X1.2338 Y19.1099
G01 X1.3953 Y19.2099
G01 X1.5726 Y19.2786
G01 X1.7594 Y19.3135
G01 X1.9494 Y19.3135
G01 X2.1362 Y19.2786
G01 X2.3135 Y19.2099
G00 Z1.0000
G00 X1.9438 Y19.8572
G01 F300.00
G01 Z-0.1000
G01 F600.00
G01 X1.9561 Y19.8584
G01 X2.0422 Y19.8713
G01 X2.0506 Y19.8731
G01 X2.1351 Y19.8943
G01 X2.1433 Y19.8969
G01 X2.2252 Y19.9263
G01 X2.2331 Y19.9297
G01 X2.3118 Y19.9670
G01 X2.3194 Y19.9712
G01 X2.3940 Y20.0160
G01 X2.4011 Y20.0208
G01 X2.4710 Y20.0728
G01 X2.4776 Y20.0783
G01 X2.5421 Y20.1369
G01 X2.5481 Y20.1430
G01 X2.6065 Y20.2076
G01 X2.6119 Y20.2143
G01 X2.6637 Y20.2843
G01 X2.6684 Y20.2915
G01 X2.7131 Y20.3663
G01 X2.7170 Y20.3739
G01 X2.7542 Y20.4526
G01 X2.7574 Y20.4606
G01 X2.7866 Y20.5426
G01 X2.7891 Y20.5509
G01 X2.8101 Y20.6354
G01 X2.8117 Y20.6438
G01 X2.8244 Y20.7300
G01 X2.8252 Y20.7386
G01 X2.8293 Y20.8255
G01 X2.8292 Y20.8341
G01 X2.8249 Y20.9211
G01 X2.8240 Y20.9297
G01 X2.8111 Y21.0158
G01 X2.8093 Y21.0242
G01 X2.7881 Y21.1087
G01 X2.7855 Y21.1169
G01 X2.7561 Y21.1988
G01 X2.7527 Y21.2067
G01 X2.7154 Y21.2854
G01 X2.7112 Y21.2930
G01 X2.6664 Y21.3676
G01 X2.6616 Y21.3747
G01 X2.6096 Y21.4446
G01 X2.6041 Y21.4512
G01 X2.5455 Y21.5157
G01 X2.5394 Y21.5217
G01 X2.4748 Y21.5801
G01 X2.4681 Y21.5855
G01 X2.3981 Y21.6373
G01 X2.3909 Y21.6420
G01 X2.3161 Y21.6867
G01 X2.3085 Y21.6906
G01 X2.2298 Y21.7278
G01 X2.2218 Y21.7310
G01 X2.1398 Y21.7602
G01 X2.1315 Y21.7627
G01 X2.0470 Y21.7837
G01 X2.0386 Y21.7853
G01 X1.9524 Y21.7980
G01 X1.9438 Y21.7988
G01 X1.8569 Y21.8029
G01 X1.8483 Y21.8028
G01 X1.7613 Y21.7985
G01 X1.7527 Y21.7976
G01 X1.6666 Y21.7847
G01 X1.6582 Y21.7829
G01 X1.5737 Y21.7617
G01 X1.5655 Y21.7591
G01 X1.4836 Y21.7297
G01 X1.4757 Y21.7263
G01 X1.3970 Y21.6890
G01 X1.3894 Y21.6848
G01 X1.3148 Y21.6400
G01 X1.3077 Y21.6352
G01 X1.2378 Y21.5832
G01 X1.2312 Y21.5777
G01 X1.1667 Y21.5191
G01 X1.1607 Y21.5130
G01 X1.1023 Y21.4484
G01 X1.0969 Y21.4417
G01 X1.0451 Y21.3717
G01 X1.0404 Y21.3645
G01 X0.9957 Y21.2897
G01 X0.9918 Y21.2821
G01 X0.9546 Y21.2034
G01 X0.9514 Y21.1954
G01 X0.9222 Y21.1134
G01 X0.9197 Y21.1051
G01 X0.8987 Y21.0206
G01 X0.8971 Y21.0122
G01 X0.8844 Y20.9260
G01 X0.8836 Y20.9174
G01 X0.8795 Y20.8305
G01 X0.8796 Y20.8219
G01 X0.8839 Y20.7349
G01 X0.8848 Y20.7263
G01 X0.8977 Y20.6402
G01 X0.8995 Y20.6318
G01 X0.9207 Y20.5473
G01 X0.9233 Y20.5391
G01 X0.9527 Y20.4572
G01 X0.9561 Y20.4493
G01 X0.9934 Y20.3706
G01 X0.9976 Y20.3630
G01 X1.0424 Y20.2884
G01 X1.0472 Y20.2813
G01 X1.0992 Y20.2114
G01 X1.1047 Y20.2048
G01 X1.1633 Y20.1403
G01 X1.1694 Y20.1343
G01 X1.2340 Y20.0759
G01 X1.2407 Y20.0705
G01 X1.3107 Y20.0187
G01 X1.3179 Y20.0140
G01 X1.3927 Y19.9693
G01 X1.4003 Y19.9654
G01 X1.4790 Y19.9282
G01 X1.4870 Y19.9250
G01 X1.5690 Y19.8958
G01 X1.5773 Y19.8933
G01 X1.6618 Y19.8723
G01 X1.6702 Y19.8707
G01 X1.7564 Y19.8580
G01 X1.7650 Y19.8572
G01 X1.8519 Y19.8531
G01 X1.8605 Y19.8532
G01 X1.9438 Y19.8572
G00 Z1.0000
G00 X2.3135 Y21.7499
G01 F300.00
G01 Z-0.1000
G01 F600.00
G01 X2.4750 Y21.6499
G01 X2.6155 Y21.5218
G01 X2.7300 Y21.3702
G01 X2.8147 Y21.2000
G01 X2.8668 Y21.0172
G01 X2.8843 Y20.8280
G01 X2.8668 Y20.6388
G01 X2.8147 Y20.4560
G01 X2.7300 Y20.2858
G01 X2.6155 Y20.1342
G01 X2.4750 Y20.0061
G01 X2.3135 Y19.9061
G01 X2.1362 Y19.8374
G01 X1.9494 Y19.8025
G01 X1.7594 Y19.8025
G01 X1.5726 Y19.8374
G01 X1.3953 Y19.9061
G01 X1.2338 Y20.0061
G01 X1.0933 Y20.1342
G01 X0.9788 Y20.2858
G01 X0.8941 Y20.4560
G01 X0.8420 Y20.6388
G01 X0.8245 Y20.8280
G01 X0.8420 Y21.0172
G01 X0.8941 Y21.2000
G01 X0.9788 Y21.3702
G01 X1.0933 Y21.5218
G01 X1.2337 Y21.6499
G01 X1.3953 Y21.7499
G01 X1.5726 Y21.8186
G01 X1.7594 Y21.8535
G01 X1.9494 Y21.8535
G01 X2.1362 Y21.8186
G01 X2.3135 Y21.7499
G00 Z1.0000
G00 X1.9438 Y22.3972
G01 F300.00
G01 Z-0.1000
G01 F600.00
G01 X1.9561 Y22.3984
G01 X2.0422 Y22.4113
G01 X2.0506 Y22.4131
G01 X2.1351 Y22.4343
G01 X2.1433 Y22.4369
G01 X2.2252 Y22.4663
G01 X2.2331 Y22.4697
G01 X2.3118 Y22.5070
G01 X2.3194 Y22.5112
G01 X2.3940 Y22.5560
G01 X2.4011 Y22.5608
G01 X2.4710 Y22.6128
G01 X2.4776 Y22.6183
G01 X2.5421 Y22.6769
G01 X2.5481 Y22.6830
G01 X2.6065 Y22.7476
G01 X2.6119 Y22.7543
G01 X2.6637 Y22.8243
G01 X2.6684 Y22.8315
G01 X2.7131 Y22.9063
G01 X2.7170 Y22.9139
G01 X2.7542 Y22.9926
G01 X2.7574 Y23.0006
G01 X2.7866 Y23.0826
G01 X2.7891 Y23.0909
G01 X2.8101 Y23.1754
G01 X2.8117 Y23.1838
G01 X2.8244 Y23.2700
G01 X2.8252 Y23.2786
G01 X2.8293 Y23.3655
G01 X2.8292 Y23.3741
G01 X2.8249 Y23.4611
G01 X2.8240 Y23.4697
G01 X2.8111 Y23.5558
G01 X2.8093 Y23.5642
G01 X2.7881 Y23.6487
G01 X2.7855 Y23.6569
G01 X2.7561 Y23.7388
G01 X2.7527 Y23.7467
G01 X2.7154 Y23.8254
G01 X2.7112 Y23.8330
G01 X2.6664 Y23.9076
G01 X2.6616 Y23.9147
G01 X2.6096 Y23.9846
G01 X2.6041 Y23.9912
G01 X2.5455 Y24.0557
G01 X2.5394 Y24.0617
G01 X2.4748 Y24.1201
G01 X2.4681 Y24.1255
G01 X2.3981 Y24.1773
G01 X2.3909 Y24.1820
G01 X2.3161 Y24.2267
G01 X2.3085 Y24.2306
G01 X2.2298 Y24.2678
G01 X2.2218 Y24.2710
G01 X2.1398 Y24.3002
G01 X2.1315 Y24.3027
G01 X2.0470 Y24.3237
G01 X2.0386 Y24.3253
G01 X1.9524 Y24.3380
G01 X1.9438 Y24.3388
G01 X1.8569 Y24.3429
G01 X1.8483 Y24.3428
G01 X1.7613 Y24.3385
G01 X1.7527 Y24.3376
G01 X1.6666 Y24.3247
G01 X1.6582 Y24.3229
G01 X1.5737 Y24.3017
G01 X1.5655 Y24.2991
G01 X1.4836 Y24.2697
G01 X1.4757 Y24.2663
G01 X1.3970 Y24.2290
G01 X1.3894 Y24.2248
G01 X1.3148 Y24.1800
G01 X1.3077 Y24.1752
G01 X1.2378 Y24.1232
G01 X1.2312 Y24.1177
G01 X1.1667 Y24.0591
G01 X1.1607 Y24.0530
G01 X1.1023 Y23.9884
G01 X1.0969 Y23.9817
G01 X1.0451 Y23.9117
G01 X1.0404 Y23.9045
G01 X0.9957 Y23.8297
G01 X0.9918 Y23.8221
G01 X0.9546 Y23.7434
G01 X0.9514 Y23.7354
G01 X0.9222 Y23.6534
G01 X0.9197 Y23.6451
G01 X0.8987 Y23.5606
G01 X0.8971 Y23.5522
G01 X0.8844 Y23.4660
G01 X0.8836 Y23.4574
G01 X0.8795 Y23.3705
G01 X0.8796 Y23.3619
G01 X0.8839 Y23.2749
G01 X0.8848 Y23.2663
G01 X0.8977 Y23.1802
G01 X0.8995 Y23.1718
G01 X0.9207 Y23.0873
G01 X0.9233 Y23.0791
G01 X0.9527 Y22.9972
G01 X0.9561 Y22.9893
G01 X0.9934 Y22.9106
G01 X0.9976 Y22.9030
G01 X1.0424 Y22.8284
G01 X1.0472 Y22.8213
G01 X1.0992 Y22.7514
G01 X1.1047 Y22.7448
G01 X1.1633 Y22.6803
G01 X1.1694 Y22.6743
G01 X1.2340 Y22.6159
G01 X1.2407 Y22.6105
G01 X1.3107 Y22.5587
G01 X1.3179 Y22.5540
G01 X1.3927 Y22.5093
G01 X1.4003 Y22.5054
G01 X1.4790 Y22.4682
G01 X1.4870 Y22.4650
G01 X1.5690 Y22.4358
G01 X1.5773 Y22.4333
G01 X1.6618 Y22.4123
G01 X1.6702 Y22.4107
G01 X1.7564 Y22.3980
G01 X1.7650 Y22.3972
G01 X1.8519 Y22.3931
G01 X1.8605 Y22.3932
G01 X1.9438 Y22.3972
G00 Z1.0000
G00 X2.3135 Y24.2899
G01 F300.00
G01 Z-0.1000
G01 F600.00
G01 X2.4750 Y24.1899
G01 X2.6155 Y24.0618
G01 X2.7300 Y23.9102
G01 X2.8147 Y23.7400
G01 X2.8668 Y23.5572
G01 X2.8843 Y23.3680
G01 X2.8668 Y23.1788
G01 X2.8147 Y22.9960
G01 X2.7300 Y22.8258
G01 X2.6155 Y22.6742
G01 X2.4750 Y22.5461
G01 X2.3135 Y22.4461
G01 X2.1362 Y22.3774
G01 X1.9494 Y22.3425
G01 X1.7594 Y22.3425
G01 X1.5726 Y22.3774
G01 X1.3953 Y22.4461
G01 X1.2338 Y22.5461
G01 X1.0933 Y22.6742
G01 X0.9788 Y22.8258
G01 X0.8941 Y22.9960
G01 X0.8420 Y23.1788
G01 X0.8245 Y23.3680
G01 X0.8420 Y23.5572
G01 X0.8941 Y23.7400
G01 X0.9788 Y23.9102
G01 X1.0933 Y24.0618
G01 X1.2338 Y24.1899
G01 X1.3953 Y24.2899
G01 X1.5726 Y24.3586
G01 X1.7594 Y24.3935
G01 X1.9494 Y24.3935
G01 X2.1362 Y24.3586
G01 X2.3135 Y24.2899
G00 Z1.0000
G00 X1.9438 Y24.9372
G01 F300.00
G01 Z-0.1000
G01 F600.00
G01 X1.9561 Y24.9384
G01 X2.0422 Y24.9513
G01 X2.0506 Y24.9531
G01 X2.1351 Y24.9743
G01 X2.1433 Y24.9769
G01 X2.2252 Y25.0063
G01 X2.2331 Y25.0097
G01 X2.3118 Y25.0470
G01 X2.3194 Y25.0512
G01 X2.3940 Y25.0960
G01 X2.4011 Y25.1008
G01 X2.4710 Y25.1528
G01 X2.4776 Y25.1583
G01 X2.5421 Y25.2169
G01 X2.5481 Y25.2230
G01 X2.6065 Y25.2876
G01 X2.6119 Y25.2943
G01 X2.6637 Y25.3643
G01 X2.6684 Y25.3715
G01 X2.7131 Y25.4463
G01 X2.7170 Y25.4539
G01 X2.7542 Y25.5326
G01 X2.7574 Y25.5406
G01 X2.7866 Y25.6226
G01 X2.7891 Y25.6309
G01 X2.8101 Y25.7154
G01 X2.8117 Y25.7238
G01 X2.8244 Y25.8100
G01 X2.8252 Y25.8186
G01 X2.8293 Y25.9055
G01 X2.8292 Y25.9141
G01 X2.8249 Y26.0011
G01 X2.8240 Y26.0097
G01 X2.8111 Y26.0958
G01 X2.8093 Y26.1042
G01 X2.7881 Y26.1887
G01 X2.7855 Y26.1969
G01 X2.7561 Y26.2788
G01 X2.7527 Y26.2867
G01 X2.7154 Y26.3654
G01 X2.7112 Y26.3730
G01 X2.6664 Y26.4476
G01 X2.6616 Y26.4547
G01 X2.6096 Y26.5246
G01 X2.6041 Y26.5312
G01 X2.5455 Y26.5957
G01 X2.5394 Y26.6017
G01 X2.4748 Y26.6601
G01 X2.4681 Y26.6655
G01 X2.3981 Y26.7173
G01 X2.3909 Y26.7220
G01 X2.3161 Y26.7667
G01 X2.3085 Y26.7706
G01 X2.2298 Y26.8078
G01 X2.2218 Y26.8110
G01 X2.1398 Y26.8402
G01 X2.1315 Y26.8427
G01 X2.0470 Y26.8637
G01 X2.0386 Y26.8653
G01 X1.9524 Y26.8780
G01 X1.9438 Y26.8788
G01 X1.8569 Y26.8829
G01 X1.8483 Y26.8828
G01 X1.7613 Y26.8785
G01 X1.7527 Y26.8776
G01 X1.6666 Y26.8647
G01 X1.6582 Y26.8629
G01 X1.5737 Y26.8417
G01 X1.5655 Y26.8391
G01 X1.4836 Y26.8097
G01 X1.4757 Y26.8063
G01 X1.3970 Y26.7690
G01 X1.3894 Y26.7648
G01 X1.3148 Y26.7200
G01 X1.3077 Y26.7152
G01 X1.2378 Y26.6632
G01 X1.2312 Y26.6577
G01 X1.1667 Y26.5991
G01 X1.1607 Y26.5930
G01 X1.1023 Y26.5284
G01 X1.0969 Y26.5217
G01 X1.0451 Y26.4517
G01 X1.0404 Y26.4445
G01 X0.9957 Y26.3697
G01 X0.9918 Y26.3621
G01 X0.9546 Y26.2834
G01 X0.9514 Y26.2754
G01 X0.9222 Y26.1934
G01 X0.9197 Y26.1851
G01 X0.8987 Y26.1006
G01 X0.8971 Y26.0922
G01 X0.8844 Y26.0060
G01 X0.8836 Y25.9974
G01 X0.8795 Y25.9105
G01 X0.8796 Y25.9019
G01 X0.8839 Y25.8149
G01 X0.8848 Y25.8063
G01 X0.8977 Y25.7202
G01 X0.8995 Y25.7118
G01 X0.9207 Y25.6273
G01 X0.9233 Y25.6191
G01 X0.9527 Y25.5372
G01 X0.9561 Y25.5293
G01 X0.9934 Y25.4506
G01 X0.9976 Y25.4430
G01 X1.0424 Y25.3684
G01 X1.0472 Y25.3613
G01 X1.0992 Y25.2914
G01 X1.1047 Y25.2848
G01 X1.1633 Y25.2203
G01 X1.1694 Y25.2143
G01 X1.2340 Y25.1559
G01 X1.2407 Y25.1505
G01 X1.3107 Y25.0987
G01 X1.3179 Y25.0940
G01 X1.3927 Y25.0493
G01 X1.4003 Y25.0454
G01 X1.4790 Y25.0082
G01 X1.4870 Y25.0050
G01 X1.5690 Y24.9758
G01 X1.5773 Y24.9733
G01 X1.6618 Y24.9523
G01 X1.6702 Y24.9507
G01 X1.7564 Y24.9380
G01 X1.7650 Y24.9372
G01 X1.8519 Y24.9331
G01 X1.8605 Y24.9332
G01 X1.9438 Y24.9372
G00 Z1.0000
G00 X2.3135 Y26.8299
G01 F300.00
G01 Z-0.1000
G01 F600.00
G01 X2.4750 Y26.7299
G01 X2.6155 Y26.6018
G01 X2.7300 Y26.4502
G01 X2.8147 Y26.2800
G01 X2.8668 Y26.0972
G01 X2.8843 Y25.9080
G01 X2.8668 Y25.7188
G01 X2.8147 Y25.5360
G01 X2.7300 Y25.3658
G01 X2.6155 Y25.2142
G01 X2.4750 Y25.0861
G01 X2.3135 Y24.9861
G01 X2.1362 Y24.9174
G01 X1.9494 Y24.8825
G01 X1.7594 Y24.8825
G01 X1.5726 Y24.9174
G01 X1.3953 Y24.9861
G01 X1.2338 Y25.0861
G01 X1.0933 Y25.2142
G01 X0.9788 Y25.3658
G01 X0.8941 Y25.5360
G01 X0.8420 Y25.7188
G01 X0.8245 Y25.9080
G01 X0.8420 Y26.0972
G01 X0.8941 Y26.2800
G01 X0.9788 Y26.4502
G01 X1.0933 Y26.6018
G01 X1.2337 Y26.7299
G01 X1.3953 Y26.8299
G01 X1.5726 Y26.8986
G01 X1.7594 Y26.9335
G01 X1.9494 Y26.9335
G01 X2.1362 Y26.8986
G01 X2.3135 Y26.8299
G00 Z1.0000
G00 X1.9438 Y27.4772
G01 F300.00
G01 Z-0.1000
G01 F600.00
G01 X1.9561 Y27.4784
G01 X2.0422 Y27.4913
G01 X2.0506 Y27.4931
G01 X2.1351 Y27.5143
G01 X2.1433 Y27.5169
G01 X2.2252 Y27.5463
G01 X2.2331 Y27.5497
G01 X2.3118 Y27.5870
G01 X2.3194 Y27.5912
G01 X2.3940 Y27.6360
G01 X2.4011 Y27.6408
G01 X2.4710 Y27.6928
G01 X2.4776 Y27.6983
G01 X2.5421 Y27.7569
G01 X2.5481 Y27.7630
G01 X2.6065 Y27.8276
G01 X2.6119 Y27.8343
G01 X2.6637 Y27.9043
G01 X2.6684 Y27.9115
G01 X2.7131 Y27.9863
G01 X2.7170 Y27.9939
G01 X2.7542 Y28.0726
G01 X2.7574 Y28.0806
G01 X2.7866 Y28.1626
G01 X2.7891 Y28.1709
G01 X2.8101 Y28.2554
G01 X2.8117 Y28.2638
G01 X2.8244 Y28.3500
G01 X2.8252 Y28.3586
G01 X2.8293 Y28.4455
G01 X2.8292 Y28.4541
G01 X2.8249 Y28.5411
G01 X2.8240 Y28.5497
G01 X2.8111 Y28.6358
G01 X2.8093 Y28.6442
G01 X2.7881 Y28.7287
G01 X2.7855 Y28.7369
G01 X2.7561 Y28.8188
G01 X2.7527 Y28.8267
G01 X2.7154 Y28.9054
G01 X2.7112 Y28.9130
G01 X2.6664 Y28.9876
G01 X2.6616 Y28.9947
G01 X2.6096 Y29.0646
G01 X2.6041 Y29.0712
G01 X2.5455 Y29.1357
G01 X2.5394 Y29.1417
G01 X2.4748 Y29.2001
G01 X2.4681 Y29.2055
G01 X2.3981 Y29.2573
G01 X2.3909 Y29.2620
G01 X2.3161 Y29.3067
G01 X2.3085 Y29.3106
G01 X2.2298 Y29.3478
G01 X2.2218 Y29.3510
G01 X2.1398 Y29.3802
G01 X2.1315 Y29.3827
G01 X2.0470 Y29.4037
G01 X2.0386 Y29.4053
G01 X1.9524 Y29.4180
G01 X1.9438 Y29.4188
G01 X1.8569 Y29.4229
G01 X1.8483 Y29.4228
G01 X1.7613 Y29.4185
G01 X1.7527 Y29.4176
G01 X1.6666 Y29.4047
G01 X1.6582 Y29.4029
G01 X1.5737 Y29.3817
G01 X1.5655 Y29.3791
G01 X1.4836 Y29.3497
G01 X1.4757 Y29.3463
G01 X1.3970 Y29.3090
G01 X1.3894 Y29.3048
G01 X1.3148 Y29.2600
G01 X1.3077 Y29.2552
G01 X1.2378 Y29.2032
G01 X1.2312 Y29.1977
G01 X1.1667 Y29.1391
G01 X1.1607 Y29.1330
G01 X1.1023 Y29.0684
G01 X1.0969 Y29.0617
G01 X1.0451 Y28.9917
G01 X1.0404 Y28.9845
G01 X0.9957 Y28.9097
G01 X0.9918 Y28.9021
G01 X0.9546 Y28.8234
G01 X0.9514 Y28.8154
G01 X0.9222 Y28.7334
G01 X0.9197 Y28.7251
G01 X0.8987 Y28.6406
G01 X0.8971 Y28.6322
G01 X0.8844 Y28.5460
G01 X0.8836 Y28.5374
G01 X0.8795 Y28.4505
G01 X0.8796 Y28.4419
G01 X0.8839 Y28.3549
G01 X0.8848 Y28.3463
G01 X0.8977 Y28.2602
G01 X0.8995 Y28.2518
G01 X0.9207 Y28.1673
G01 X0.9233 Y28.1591
G01 X0.9527 Y28.0772
G01 X0.9561 Y28.0693
G01 X0.9934 Y27.9906
G01 X0.9976 Y27.9830
G01 X1.0424 Y27.9084
G01 X1.0472 Y27.9013
G01 X1.0992 Y27.8314
G01 X1.1047 Y27.8248
G01 X1.1633 Y27.7603
G01 X1.1694 Y27.7543
G01 X1.2340 Y27.6959
G01 X1.2407 Y27.6905
G01 X1.3107 Y27.6387
G01 X1.3179 Y27.6340
G01 X1.3927 Y27.5893
G01 X1.4003 Y27.5854
G01 X1.4790 Y27.5482
G01 X1.4870 Y27.5450
G01 X1.5690 Y27.5158
G01 X1.5773 Y27.5133
G01 X1.6618 Y27.4923
G01 X1.6702 Y27.4907
G01 X1.7564 Y27.4780
G01 X1.7650 Y27.4772
G01 X1.8519 Y27.4731
G01 X1.8605 Y27.4732
G01 X1.9438 Y27.4772
G00 Z1.0000
G00 X0.9788 Y28.9902
G01 F300.00
G01 Z-0.1000
G01 F600.00
G01 X1.0933 Y29.1418
G01 X1.2337 Y29.2699
G01 X1.3953 Y29.3699
G01 X1.5726 Y29.4386
G01 X1.7594 Y29.4735
G01 X1.9494 Y29.4735
G01 X2.1362 Y29.4386
G01 X2.3135 Y29.3699
G01 X2.4750 Y29.2699
G01 X2.6155 Y29.1418
G01 X2.7300 Y28.9902
G01 X2.8147 Y28.8200
G01 X2.8668 Y28.6372
G01 X2.8843 Y28.4480
G01 X2.8668 Y28.2588
G01 X2.8147 Y28.0760
G01 X2.7300 Y27.9058
G01 X2.6155 Y27.7542
G01 X2.4750 Y27.6261
G01 X2.3135 Y27.5261
G01 X2.1362 Y27.4574
G01 X1.9494 Y27.4225
G01 X1.7594 Y27.4225
G01 X1.5726 Y27.4574
G01 X1.3953 Y27.5261
G01 X1.2338 Y27.6261
G01 X1.0933 Y27.7542
G01 X0.9788 Y27.9058
G01 X0.8941 Y28.0760
G01 X0.8420 Y28.2588
G01 X0.8245 Y28.4480
G01 X0.8420 Y28.6372
G01 X0.8941 Y28.8200
G01 X0.9788 Y28.9902
G00 Z1.0000
G00 X1.9438 Y30.0172
G01 F300.00
G01 Z-0.1000
G01 F600.00
G01 X1.9561 Y30.0184
G01 X2.0422 Y30.0313
G01 X2.0506 Y30.0331
G01 X2.1351 Y30.0543
G01 X2.1433 Y30.0569
G01 X2.2252 Y30.0863
G01 X2.2331 Y30.0897
G01 X2.3118 Y30.1270
G01 X2.3194 Y30.1312
G01 X2.3940 Y30.1760
G01 X2.4011 Y30.1808
G01 X2.4710 Y30.2328
G01 X2.4776 Y30.2383
G01 X2.5421 Y30.2969
G01 X2.5481 Y30.3030
G01 X2.6065 Y30.3676
G01 X2.6119 Y30.3743
G01 X2.6637 Y30.4443
G01 X2.6684 Y30.4515
G01 X2.7131 Y30.5263
G01 X2.7170 Y30.5339
G01 X2.7542 Y30.6126
G01 X2.7574 Y30.6206
G01 X2.7866 Y30.7026
G01 X2.7891 Y30.7109
G01 X2.8101 Y30.7954
G01 X2.8117 Y30.8038
G01 X2.8244 Y30.8900
G01 X2.8252 Y30.8986
G01 X2.8293 Y30.9855
G01 X2.8292 Y30.9941
G01 X2.8249 Y31.0811
G01 X2.8240 Y31.0897
G01 X2.8111 Y31.1758
G01 X2.8093 Y31.1842
G01 X2.7881 Y31.2687
G01 X2.7855 Y31.2769
G01 X2.7561 Y31.3588
G01 X2.7527 Y31.3667
G01 X2.7154 Y31.4454
G01 X2.7112 Y31.4530
G01 X2.6664 Y31.5276
G01 X2.6616 Y31.5347
G01 X2.6096 Y31.6046
G01 X2.6041 Y31.6112
G01 X2.5455 Y31.6757
G01 X2.5394 Y31.6817
G01 X2.4748 Y31.7401
G01 X2.4681 Y31.7455
G01 X2.3981 Y31.7973
G01 X2.3909 Y31.8020
G01 X2.3161 Y31.8467
G01 X2.3085 Y31.8506
G01 X2.2298 Y31.8878
G01 X2.2218 Y31.8910
G01 X2.1398 Y31.9202
G01 X2.1315 Y31.9227
G01 X2.0470 Y31.9437
G01 X2.0386 Y31.9453
G01 X1.9524 Y31.9580
G01 X1.9438 Y31.9588
G01 X1.8569 Y31.9629
G01 X1.8483 Y31.9628
G01 X1.7613 Y31.9585
G01 X1.7527 Y31.9576
G01 X1.6666 Y31.9447
G01 X1.6582 Y31.9429
G01 X1.5737 Y31.9217
G01 X1.5655 Y31.9191
G01 X1.4836 Y31.8897
G01 X1.4757 Y31.8863
G01 X1.3970 Y31.8490
G01 X1.3894 Y31.8448
G01 X1.3148 Y31.8000
G01 X1.3077 Y31.7952
G01 X1.2378 Y31.7432
G01 X1.2312 Y31.7377
G01 X1.1667 Y31.6791
G01 X1.1607 Y31.6730
G01 X1.1023 Y31.6084
G01 X1.0969 Y31.6017
G01 X1.0451 Y31.5317
G01 X1.0404 Y31.5245
G01 X0.9957 Y31.4497
G01 X0.9918 Y31.4421
G01 X0.9546 Y31.3634
G01 X0.9514 Y31.3554
G01 X0.9222 Y31.2734
G01 X0.9197 Y31.2651
G01 X0.8987 Y31.1806
G01 X0.8971 Y31.1722
G01 X0.8844 Y31.0860
G01 X0.8836 Y31.0774
G01 X0.8795 Y30.9905
G01 X0.8796 Y30.9819
G01 X0.8839 Y30.8949
G01 X0.8848 Y30.8863
G01 X0.8977 Y30.8002
G01 X0.8995 Y30.7918
G01 X0.9207 Y30.7073
G01 X0.9233 Y30.6991
G01 X0.9527 Y30.6172
G01 X0.9561 Y30.6093
G01 X0.9934 Y30.5306
G01 X0.9976 Y30.5230
G01 X1.0424 Y30.4484
G01 X1.0472 Y30.4413
G01 X1.0992 Y30.3714
G01 X1.1047 Y30.3648
G01 X1.1633 Y30.3003
G01 X1.1694 Y30.2943
G01 X1.2340 Y30.2359
G01 X1.2407 Y30.2305
G01 X1.3107 Y30.1787
G01 X1.3179 Y30.1740
G01 X1.3927 Y30.1293
G01 X1.4003 Y30.1254
G01 X1.4790 Y30.0882
G01 X1.4870 Y30.0850
G01 X1.5690 Y30.0558
G01 X1.5773 Y30.0533
G01 X1.6618 Y30.0323
G01 X1.6702 Y30.0307
G01 X1.7564 Y30.0180
G01 X1.7650 Y30.0172
G01 X1.8519 Y30.0131
G01 X1.8605 Y30.0132
G01 X1.9438 Y30.0172
G00 Z1.0000
G00 X2.3135 Y31.9099
G01 F300.00
G01 Z-0.1000
G01 F600.00
G01 X2.4750 Y31.8099
G01 X2.6155 Y31.6818
G01 X2.7300 Y31.5302
G01 X2.8147 Y31.3600
G01 X2.8668 Y31.1772
G01 X2.8843 Y30.9880
G01 X2.8668 Y30.7988
G01 X2.8147 Y30.6160
G01 X2.7300 Y30.4458
G01 X2.6155 Y30.2942
G01 X2.4750 Y30.1661
G01 X2.3135 Y30.0661
G01 X2.1362 Y29.9974
G01 X1.9494 Y29.9625
G01 X1.7594 Y29.9625
G01 X1.5726 Y29.9974
G01 X1.3953 Y30.0661
G01 X1.2338 Y30.1661
G01 X1.0933 Y30.2942
G01 X0.9788 Y30.4458
G01 X0.8941 Y30.6160
G01 X0.8420 Y30.7988
G01 X0.8245 Y30.9880
G01 X0.8420 Y31.1772
G01 X0.8941 Y31.3600
G01 X0.9788 Y31.5302
G01 X1.0933 Y31.6818
G01 X1.2337 Y31.8099
G01 X1.3953 Y31.9099
G01 X1.5726 Y31.9786
G01 X1.7594 Y32.0135
G01 X1.9494 Y32.0135
G01 X2.1362 Y31.9786
G01 X2.3135 Y31.9099
G00 Z1.0000
G00 X1.9438 Y32.5572
G01 F300.00
G01 Z-0.1000
G01 F600.00
G01 X1.9561 Y32.5584
G01 X2.0422 Y32.5713
G01 X2.0506 Y32.5731
G01 X2.1351 Y32.5943
G01 X2.1433 Y32.5969
G01 X2.2252 Y32.6263
G01 X2.2331 Y32.6297
G01 X2.3118 Y32.6670
G01 X2.3194 Y32.6712
G01 X2.3940 Y32.7160
G01 X2.4011 Y32.7208
G01 X2.4710 Y32.7728
G01 X2.4776 Y32.7783
G01 X2.5421 Y32.8369
G01 X2.5481 Y32.8430
G01 X2.6065 Y32.9076
G01 X2.6119 Y32.9143
G01 X2.6637 Y32.9843
G01 X2.6684 Y32.9915
G01 X2.7131 Y33.0663
G01 X2.7170 Y33.0739
G01 X2.7542 Y33.1526
G01 X2.7574 Y33.1606
G01 X2.7866 Y33.2426
G01 X2.7891 Y33.2509
G01 X2.8101 Y33.3354
G01 X2.8117 Y33.3438
G01 X2.8244 Y33.4300
G01 X2.8252 Y33.4386
G01 X2.8293 Y33.5255
G01 X2.8292 Y33.5341
G01 X2.8249 Y33.6211
G01 X2.8240 Y33.6297
G01 X2.8111 Y33.7158
G01 X2.8093 Y33.7242
G01 X2.7881 Y33.8087
G01 X2.7855 Y33.8169
G01 X2.7561 Y33.8988
G01 X2.7527 Y33.9067
G01 X2.7154 Y33.9854
G01 X2.7112 Y33.9930
G01 X2.6664 Y34.0676
G01 X2.6616 Y34.0747
G01 X2.6096 Y34.1446
G01 X2.6041 Y34.1512
G01 X2.5455 Y34.2157
G01 X2.5394 Y34.2217
G01 X2.4748 Y34.2801
G01 X2.4681 Y34.2855
G01 X2.3981 Y34.3373
G01 X2.3909 Y34.3420
G01 X2.3161 Y34.3867
G01 X2.3085 Y34.3906
G01 X2.2298 Y34.4278
G01 X2.2218 Y34.4310
G01 X2.1398 Y34.4602
G01 X2.1315 Y34.4627
G01 X2.0470 Y34.4837
G01 X2.0386 Y34.4853
G01 X1.9524 Y34.4980
G01 X1.9438 Y34.4988
G01 X1.8569 Y34.5029
G01 X1.8483 Y34.5028
G01 X1.7613 Y34.4985
G01 X1.7527 Y34.4976
G01 X1.6666 Y34.4847
G01 X1.6582 Y34.4829
G01 X1.5737 Y34.4617
G01 X1.5655 Y34.4591
G01 X1.4836 Y34.4297
G01 X1.4757 Y34.4263
G01 X1.3970 Y34.3890
G01 X1.3894 Y34.3848
G01 X1.3148 Y34.3400
G01 X1.3077 Y34.3352
G01 X1.2378 Y34.2832
G01 X1.2312 Y34.2777
G01 X1.1667 Y34.2191
G01 X1.1607 Y34.2130
G01 X1.1023 Y34.1484
G01 X1.0969 Y34.1417
G01 X1.0451 Y34.0717
G01 X1.0404 Y34.0645
G01 X0.9957 Y33.9897
G01 X0.9918 Y33.9821
G01 X0.9546 Y33.9034
G01 X0.9514 Y33.8954
G01 X0.9222 Y33.8134
G01 X0.9197 Y33.8051
G01 X0.8987 Y33.7206
G01 X0.8971 Y33.7122
G01 X0.8844 Y33.6260
G01 X0.8836 Y33.6174
G01 X0.8795 Y33.5305
G01 X0.8796 Y33.5219
G01 X0.8839 Y33.4349
G01 X0.8848 Y33.4263
G01 X0.8977 Y33.3402
G01 X0.8995 Y33.3318
G01 X0.9207 Y33.2473
G01 X0.9233 Y33.2391
G01 X0.9527 Y33.1572
G01 X0.9561 Y33.1493
G01 X0.9934 Y33.0706
G01 X0.9976 Y33.0630
G01 X1.0424 Y32.9884
G01 X1.0472 Y32.9813
G01 X1.0992 Y32.9114
G01 X1.1047 Y32.9048
G01 X1.1633 Y32.8403
G01 X1.1694 Y32.8343
G01 X1.2340 Y32.7759
G01 X1.2407 Y32.7705
G01 X1.3107 Y32.7187
G01 X1.3179 Y32.7140
G01 X1.3927 Y32.6693
G01 X1.4003 Y32.6654
G01 X1.4790 Y32.6282
G01 X1.4870 Y32.6250
G01 X1.5690 Y32.5958
G01 X1.5773 Y32.5933
G01 X1.6618 Y32.5723
G01 X1.6702 Y32.5707
G01 X1.7564 Y32.5580
G01 X1.7650 Y32.5572
G01 X1.8519 Y32.5531
G01 X1.8605 Y32.5532
G01 X1.9438 Y32.5572
G00 Z1.0000
G00 X2.3135 Y34.4499
G01 F300.00
G01 Z-0.1000
G01 F600.00
G01 X2.4750 Y34.3499
G01 X2.6155 Y34.2218
G01 X2.7300 Y34.0702
G01 X2.8147 Y33.9000
G01 X2.8668 Y33.7172
G01 X2.8843 Y33.5280
G01 X2.8668 Y33.3388
G01 X2.8147 Y33.1560
G01 X2.7300 Y32.9858
G01 X2.6155 Y32.8342
G01 X2.4750 Y32.7061
G01 X2.3135 Y32.6061
G01 X2.1362 Y32.5374
G01 X1.9494 Y32.5025
G01 X1.7594 Y32.5025
G01 X1.5726 Y32.5374
G01 X1.3953 Y32.6061
G01 X1.2338 Y32.7061
G01 X1.0933 Y32.8342
G01 X0.9788 Y32.9858
G01 X0.8941 Y33.1560
G01 X0.8420 Y33.3388
G01 X0.8245 Y33.5280
G01 X0.8420 Y33.7172
G01 X0.8941 Y33.9000
G01 X0.9788 Y34.0702
G01 X1.0933 Y34.2218
G01 X1.2337 Y34.3499
G01 X1.3953 Y34.4499
G01 X1.5726 Y34.5186
G01 X1.7594 Y34.5535
G01 X1.9494 Y34.5535
G01 X2.1362 Y34.5186
G01 X2.3135 Y34.4499
G00 Z1.0000
G00 X1.9438 Y35.0972
G01 F300.00
G01 Z-0.1000
G01 F600.00
G01 X1.9561 Y35.0984
G01 X2.0422 Y35.1113
G01 X2.0506 Y35.1131
G01 X2.1351 Y35.1343
G01 X2.1433 Y35.1369
G01 X2.2252 Y35.1663
G01 X2.2331 Y35.1697
G01 X2.3118 Y35.2070
G01 X2.3194 Y35.2112
G01 X2.3940 Y35.2560
G01 X2.4011 Y35.2608
G01 X2.4710 Y35.3128
G01 X2.4776 Y35.3183
G01 X2.5421 Y35.3769
G01 X2.5481 Y35.3830
G01 X2.6065 Y35.4476
G01 X2.6119 Y35.4543
G01 X2.6637 Y35.5243
G01 X2.6684 Y35.5315
G01 X2.7131 Y35.6063
G01 X2.7170 Y35.6139
G01 X2.7542 Y35.6926
G01 X2.7574 Y35.7006
G01 X2.7866 Y35.7826
G01 X2.7891 Y35.7909
G01 X2.8101 Y35.8754
G01 X2.8117 Y35.8838
G01 X2.8244 Y35.9700
G01 X2.8252 Y35.9786
G01 X2.8293 Y36.0655
G01 X2.8292 Y36.0741
G01 X2.8249 Y36.1611
G01 X2.8240 Y36.1697
G01 X2.8111 Y36.2558
G01 X2.8093 Y36.2642
G01 X2.7881 Y36.3487
G01 X2.7855 Y36.3569
G01 X2.7561 Y36.4388
G01 X2.7527 Y36.4467
G01 X2.7154 Y36.5254
G01 X2.7112 Y36.5330
G01 X2.6664 Y36.6076
G01 X2.6616 Y36.6147
G01 X2.6096 Y36.6846
G01 X2.6041 Y36.6912
G01 X2.5455 Y36.7557
G01 X2.5394 Y36.7617
G01 X2.4748 Y36.8201
G01 X2.4681 Y36.8255
G01 X2.3981 Y36.8773
G01 X2.3909 Y36.8820
G01 X2.3161 Y36.9267
G01 X2.3085 Y36.9306
G01 X2.2298 Y36.9678
G01 X2.2218 Y36.9710
G01 X2.1398 Y37.0002
G01 X2.1315 Y37.0027
G01 X2.0470 Y37.0237
G01 X2.0386 Y37.0253
G01 X1.9524 Y37.0380
G01 X1.9438 Y37.0388
G01 X1.8569 Y37.0429
G01 X1.8483 Y37.0428
G01 X1.7613 Y37.0385
G01 X1.7527 Y37.0376
G01 X1.6666 Y37.0247
G01 X1.6582 Y37.0229
G01 X1.5737 Y37.0017
G01 X1.5655 Y36.9991
G01 X1.4836 Y36.9697
G01 X1.4757 Y36.9663
G01 X1.3970 Y36.9290
G01 X1.3894 Y36.9248
G01 X1.3148 Y36.8800
G01 X1.3077 Y36.8752
G01 X1.2378 Y36.8232
G01 X1.2312 Y36.8177
G01 X1.1667 Y36.7591
G01 X1.1607 Y36.7530
G01 X1.1023 Y36.6884
G01 X1.0969 Y36.6817
G01 X1.0451 Y36.6117
G01 X1.0404 Y36.6045
G01 X0.9957 Y36.5297
G01 X0.9918 Y36.5221
G01 X0.9546 Y36.4434
G01 X0.9514 Y36.4354
G01 X0.9222 Y36.3534
G01 X0.9197 Y36.3451
G01 X0.8987 Y36.2606
G01 X0.8971 Y36.2522
G01 X0.8844 Y36.1660
G01 X0.8836 Y36.1574
G01 X0.8795 Y36.0705
G01 X0.8796 Y36.0619
G01 X0.8839 Y35.9749
G01 X0.8848 Y35.9663
G01 X0.8977 Y35.8802
G01 X0.8995 Y35.8718
G01 X0.9207 Y35.7873
G01 X0.9233 Y35.7791
G01 X0.9527 Y35.6972
G01 X0.9561 Y35.6893
G01 X0.9934 Y35.6106
G01 X0.9976 Y35.6030
G01 X1.0424 Y35.5284
G01 X1.0472 Y35.5213
G01 X1.0992 Y35.4514
G01 X1.1047 Y35.4448
G01 X1.1633 Y35.3803
G01 X1.1694 Y35.3743
G01 X1.2340 Y35.3159
G01 X1.2407 Y35.3105
G01 X1.3107 Y35.2587
G01 X1.3179 Y35.2540
G01 X1.3927 Y35.2093
G01 X1.4003 Y35.2054
G01 X1.4790 Y35.1682
G01 X1.4870 Y35.1650
G01 X1.5690 Y35.1358
G01 X1.5773 Y35.1333
G01 X1.6618 Y35.1123
G01 X1.6702 Y35.1107
G01 X1.7564 Y35.0980
G01 X1.7650 Y35.0972
G01 X1.8519 Y35.0931
G01 X1.8605 Y35.0932
G01 X1.9438 Y35.0972
G00 Z1.0000
G00 X2.3135 Y36.9899
G01 F300.00
G01 Z-0.1000
G01 F600.00
G01 X2.4750 Y36.8899
G01 X2.6155 Y36.7618
G01 X2.7300 Y36.6102
G01 X2.8147 Y36.4400
G01 X2.8668 Y36.2572
G01 X2.8843 Y36.0680
G01 X2.8668 Y35.8788
G01 X2.8147 Y35.6960
G01 X2.7300 Y35.5258
G01 X2.6155 Y35.3742
G01 X2.4750 Y35.2461
G01 X2.3135 Y35.1461
G01 X2.1362 Y35.0774
G01 X1.9494 Y35.0425
G01 X1.7594 Y35.0425
G01 X1.5726 Y35.0774
G01 X1.3953 Y35.1461
G01 X1.2338 Y35.2461
G01 X1.0933 Y35.3742
G01 X0.9788 Y35.5258
G01 X0.8941 Y35.6960
G01 X0.8420 Y35.8788
G01 X0.8245 Y36.0680
G01 X0.8420 Y36.2572
G01 X0.8941 Y36.4400
G01 X0.9788 Y36.6102
G01 X1.0933 Y36.7618
G01 X1.2337 Y36.8899
G01 X1.3953 Y36.9899
G01 X1.5726 Y37.0586
G01 X1.7594 Y37.0935
G01 X1.9494 Y37.0935
G01 X2.1362 Y37.0586
G01 X2.3135 Y36.9899
G00 Z1.0000
G00 X1.9438 Y37.6372
G01 F300.00
G01 Z-0.1000
G01 F600.00
G01 X1.9561 Y37.6384
G01 X2.0422 Y37.6513
G01 X2.0506 Y37.6531
G01 X2.1351 Y37.6743
G01 X2.1433 Y37.6769
G01 X2.2252 Y37.7063
G01 X2.2331 Y37.7097
G01 X2.3118 Y37.7470
G01 X2.3194 Y37.7512
G01 X2.3940 Y37.7960
G01 X2.4011 Y37.8008
G01 X2.4710 Y37.8528
G01 X2.4776 Y37.8583
G01 X2.5421 Y37.9169
G01 X2.5481 Y37.9230
G01 X2.6065 Y37.9876
G01 X2.6119 Y37.9943
G01 X2.6637 Y38.0643
G01 X2.6684 Y38.0715
G01 X2.7131 Y38.1463
G01 X2.7170 Y38.1539
G01 X2.7542 Y38.2326
G01 X2.7574 Y38.2406
G01 X2.7866 Y38.3226
G01 X2.7891 Y38.3309
G01 X2.8101 Y38.4154
G01 X2.8117 Y38.4238
G01 X2.8244 Y38.5100
G01 X2.8252 Y38.5186
G01 X2.8293 Y38.6055
G01 X2.8292 Y38.6141
G01 X2.8249 Y38.7011
G01 X2.8240 Y38.7097
G01 X2.8111 Y38.7958
G01 X2.8093 Y38.8042
G01 X2.7881 Y38.8887
G01 X2.7855 Y38.8969
G01 X2.7561 Y38.9788
G01 X2.7527 Y38.9867
G01 X2.7154 Y39.0654
G01 X2.7112 Y39.0730
G01 X2.6664 Y39.1476
G01 X2.6616 Y39.1547
G01 X2.6096 Y39.2246
G01 X2.6041 Y39.2312
G01 X2.5455 Y39.2957
G01 X2.5394 Y39.3017
G01 X2.4748 Y39.3601
G01 X2.4681 Y39.3655
G01 X2.3981 Y39.4173
G01 X2.3909 Y39.4220
G01 X2.3161 Y39.4667
G01 X2.3085 Y39.4706
G01 X2.2298 Y39.5078
G01 X2.2218 Y39.5110
G01 X2.1398 Y39.5402
G01 X2.1315 Y39.5427
G01 X2.0470 Y39.5637
G01 X2.0386 Y39.5653
G01 X1.9524 Y39.5780
G01 X1.9438 Y39.5788
G01 X1.8569 Y39.5829
G01 X1.8483 Y39.5828
G01 X1.7613 Y39.5785
G01 X1.7527 Y39.5776
G01 X1.6666 Y39.5647
G01 X1.6582 Y39.5629
G01 X1.5737 Y39.5417
G01 X1.5655 Y39.5391
G01 X1.4836 Y39.5097
G01 X1.4757 Y39.5063
G01 X1.3970 Y39.4690
G01 X1.3894 Y39.4648
G01 X1.3148 Y39.4200
G01 X1.3077 Y39.4152
G01 X1.2378 Y39.3632
G01 X1.2312 Y39.3577
G01 X1.1667 Y39.2991
G01 X1.1607 Y39.2930
G01 X1.1023 Y39.2284
G01 X1.0969 Y39.2217
G01 X1.0451 Y39.1517
G01 X1.0404 Y39.1445
G01 X0.9957 Y39.0697
G01 X0.9918 Y39.0621
G01 X0.9546 Y38.9834
G01 X0.9514 Y38.9754
G01 X0.9222 Y38.8934
G01 X0.9197 Y38.8851
G01 X0.8987 Y38.8006
G01 X0.8971 Y38.7922
G01 X0.8844 Y38.7060
G01 X0.8836 Y38.6974
G01 X0.8795 Y38.6105
G01 X0.8796 Y38.6019
G01 X0.8839 Y38.5149
G01 X0.8848 Y38.5063
G01 X0.8977 Y38.4202
G01 X0.8995 Y38.4118
G01 X0.9207 Y38.3273
G01 X0.9233 Y38.3191
G01 X0.9527 Y38.2372
G01 X0.9561 Y38.2293
G01 X0.9934 Y38.1506
G01 X0.9976 Y38.1430
G01 X1.0424 Y38.0684
G01 X1.0472 Y38.0613
G01 X1.0992 Y37.9914
G01 X1.1047 Y37.9848
G01 X1.1633 Y37.9203
G01 X1.1694 Y37.9143
G01 X1.2340 Y37.8559
G01 X1.2407 Y37.8505
G01 X1.3107 Y37.7987
G01 X1.3179 Y37.7940
G01 X1.3927 Y37.7493
G01 X1.4003 Y37.7454
G01 X1.4790 Y37.7082
G01 X1.4870 Y37.7050
G01 X1.5690 Y37.6758
G01 X1.5773 Y37.6733
G01 X1.6618 Y37.6523
G01 X1.6702 Y37.6507
G01 X1.7564 Y37.6380
G01 X1.7650 Y37.6372
G01 X1.8519 Y37.6331
G01 X1.8605 Y37.6332
G01 X1.9438 Y37.6372
G00 Z1.0000
G00 X2.3135 Y39.5299
G01 F300.00
G01 Z-0.1000
G01 F600.00
G01 X2.4750 Y39.4299
G01 X2.6155 Y39.3018
G01 X2.7300 Y39.1502
G01 X2.8147 Y38.9800
G01 X2.8668 Y38.7972
G01 X2.8843 Y38.6080
G01 X2.8668 Y38.4188
G01 X2.8147 Y38.2360
G01 X2.7300 Y38.0658
G01 X2.6155 Y37.9142
G01 X2.4750 Y37.7861
G01 X2.3135 Y37.6861
G01 X2.1362 Y37.6174
G01 X1.9494 Y37.5825
G01 X1.7594 Y37.5825
G01 X1.5726 Y37.6174
G01 X1.3953 Y37.6861
G01 X1.2338 Y37.7861
G01 X1.0933 Y37.9142
G01 X0.9788 Y38.0658
G01 X0.8941 Y38.2360
G01 X0.8420 Y38.4188
G01 X0.8245 Y38.6080
G01 X0.8420 Y38.7972
G01 X0.8941 Y38.9800
G01 X0.9788 Y39.1502
G01 X1.0933 Y39.3018
G01 X1.2337 Y39.4299
G01 X1.3953 Y39.5299
G01 X1.5726 Y39.5986
G01 X1.7594 Y39.6335
G01 X1.9494 Y39.6335
G01 X2.1362 Y39.5986
G01 X2.3135 Y39.5299
G00 Z1.0000
G00 X1.9438 Y40.1772
G01 F300.00
G01 Z-0.1000
G01 F600.00
G01 X1.9561 Y40.1784
G01 X2.0422 Y40.1913
G01 X2.0506 Y40.1931
G01 X2.1351 Y40.2143
G01 X2.1433 Y40.2169
G01 X2.2252 Y40.2463
G01 X2.2331 Y40.2497
G01 X2.3118 Y40.2870
G01 X2.3194 Y40.2912
G01 X2.3940 Y40.3360
G01 X2.4011 Y40.3408
G01 X2.4710 Y40.3928
G01 X2.4776 Y40.3983
G01 X2.5421 Y40.4569
G01 X2.5481 Y40.4630
G01 X2.6065 Y40.5276
G01 X2.6119 Y40.5343
G01 X2.6637 Y40.6043
G01 X2.6684 Y40.6115
G01 X2.7131 Y40.6863
G01 X2.7170 Y40.6939
G01 X2.7542 Y40.7726
G01 X2.7574 Y40.7806
G01 X2.7866 Y40.8626
G01 X2.7891 Y40.8709
G01 X2.8101 Y40.9554
G01 X2.8117 Y40.9638
G01 X2.8244 Y41.0500
G01 X2.8252 Y41.0586
G01 X2.8293 Y41.1455
G01 X2.8292 Y41.1541
G01 X2.8249 Y41.2411
G01 X2.8240 Y41.2497
G01 X2.8111 Y41.3358
G01 X2.8093 Y41.3442
G01 X2.7881 Y41.4287
G01 X2.7855 Y41.4369
G01 X2.7561 Y41.5188
G01 X2.7527 Y41.5267
G01 X2.7154 Y41.6054
G01 X2.7112 Y41.6130
G01 X2.6664 Y41.6876
G01 X2.6616 Y41.6947
G01 X2.6096 Y41.7646
G01 X2.6041 Y41.7712
G01 X2.5455 Y41.8357
G01 X2.5394 Y41.8417
G01 X2.4748 Y41.9001
G01 X2.4681 Y41.9055
G01 X2.3981 Y41.9573
G01 X2.3909 Y41.9620
G01 X2.3161 Y42.0067
G01 X2.3085 Y42.0106
G01 X2.2298 Y42.0478
G01 X2.2218 Y42.0510
G01 X2.1398 Y42.0802
G01 X2.1315 Y42.0827
G01 X2.0470 Y42.1037
G01 X2.0386 Y42.1053
G01 X1.9524 Y42.1180
G01 X1.9438 Y42.1188
G01 X1.8569 Y42.1229
G01 X1.8483 Y42.1228
G01 X1.7613 Y42.1185
G01 X1.7527 Y42.1176
G01 X1.6666 Y42.1047
G01 X1.6582 Y42.1029
G01 X1.5737 Y42.0817
G01 X1.5655 Y42.0791
G01 X1.4836 Y42.0497
G01 X1.4757 Y42.0463
G01 X1.3970 Y42.0090
G01 X1.3894 Y42.0048
G01 X1.3148 Y41.9600
G01 X1.3077 Y41.9552
G01 X1.2378 Y41.9032
G01 X1.2312 Y41.8977
G01 X1.1667 Y41.8391
G01 X1.1607 Y41.8330
G01 X1.1023 Y41.7684
G01 X1.0969 Y41.7617
G01 X1.0451 Y41.6917
G01 X1.0404 Y41.6845
G01 X0.9957 Y41.6097
G01 X0.9918 Y41.6021
G01 X0.9546 Y41.5234
G01 X0.9514 Y41.5154
G01 X0.9222 Y41.4334
G01 X0.9197 Y41.4251
G01 X0.8987 Y41.3406
G01 X0.8971 Y41.3322
G01 X0.8844 Y41.2460
G01 X0.8836 Y41.2374
G01 X0.8795 Y41.1505
G01 X0.8796 Y41.1419
G01 X0.8839 Y41.0549
G01 X0.8848 Y41.0463
G01 X0.8977 Y40.9602
G01 X0.8995 Y40.9518
G01 X0.9207 Y40.8673
G01 X0.9233 Y40.8591
G01 X0.9527 Y40.7772
G01 X0.9561 Y40.7693
G01 X0.9934 Y40.6906
G01 X0.9976 Y40.6830
G01 X1.0424 Y40.6084
G01 X1.0472 Y40.6013
G01 X1.0992 Y40.5314
G01 X1.1047 Y40.5248
G01 X1.1633 Y40.4603
G01 X1.1694 Y40.4543
G01 X1.2340 Y40.3959
G01 X1.2407 Y40.3905
G01 X1.3107 Y40.3387
G01 X1.3179 Y40.3340
G01 X1.3927 Y40.2893
G01 X1.4003 Y40.2854
G01 X1.4790 Y40.2482
G01 X1.4870 Y40.2450
G01 X1.5690 Y40.2158
G01 X1.5773 Y40.2133
G01 X1.6618 Y40.1923
G01 X1.6702 Y40.1907
G01 X1.7564 Y40.1780
G01 X1.7650 Y40.1772
G01 X1.8519 Y40.1731
G01 X1.8605 Y40.1732
G01 X1.9438 Y40.1772
G00 Z1.0000
G00 X1.7802 Y42.4912
G01 F300.00
G01 Z-0.1000
G01 F600.00
G01 X1.8381 Y42.4884
G01 X1.8519 Y42.4881
G01 X1.8695 Y42.4883
G01 X1.9286 Y42.4912
G01 X1.9072 Y42.4354
G01 X1.8990 Y42.4104
G01 X1.8953 Y42.3961
G01 X1.8915 Y42.3780
G01 X1.8890 Y42.3630
G01 X1.8872 Y42.3468
G01 X1.8569 Y42.3479
G01 X1.8423 Y42.3478
G01 X1.8216 Y42.3468
G01 X1.8197 Y42.3639
G01 X1.8175 Y42.3775
G01 X1.8135 Y42.3965
G01 X1.8096 Y42.4112
G01 X1.8014 Y42.4363
G01 X1.7802 Y42.4912
G00 Z1.0000
G00 X1.7802 Y42.4912
G01 F300.00
G01 Z-0.1000
G01 F600.00
G01 X1.6282 Y42.5861
G00 Z1.0000
G00 X1.6282 Y42.5861
G01 F300.00
G01 Z-0.1000
G01 F600.00
G01 X1.6478 Y42.5824
G01 X1.7417 Y42.5687
G01 X1.7571 Y42.5674
G01 X1.8409 Y42.5633
G01 X1.8569 Y42.5631
G01 X1.9512 Y42.5674
G01 X1.9676 Y42.5688
G01 X2.0610 Y42.5824
G01 X2.0807 Y42.5861
G01 X2.0640 Y42.5705
G01 X2.0486 Y42.5536
G01 X2.0418 Y42.5451
G01 X2.0336 Y42.5338
G01 X2.0233 Y42.5176
G01 X2.0143 Y42.5014
G01 X2.0060 Y42.4833
G01 X1.9775 Y42.4095
G01 X1.9713 Y42.3905
G01 X1.9676 Y42.3757
G01 X1.9639 Y42.3566
G01 X1.9616 Y42.3368
G01 X1.9607 Y42.3211
G01 X1.9609 Y42.3022
G01 X1.9625 Y42.2828
G01 X1.9647 Y42.2675
G01 X1.9517 Y42.2686
G01 X1.8679 Y42.2727
G01 X1.8519 Y42.2729
G01 X1.7576 Y42.2686
G01 X1.7440 Y42.2675
G01 X1.7462 Y42.2829
G01 X1.7479 Y42.3023
G01 X1.7480 Y42.3223
G01 X1.7471 Y42.3380
G01 X1.7448 Y42.3578
G01 X1.7412 Y42.3759
G01 X1.7372 Y42.3916
G01 X1.7313 Y42.4096
G01 X1.7027 Y42.4834
G01 X1.6944 Y42.5015
G01 X1.6852 Y42.5181
G01 X1.6747 Y42.5346
G01 X1.6664 Y42.5459
G01 X1.6596 Y42.5543
G01 X1.6442 Y42.5712
G01 X1.6282 Y42.5861
G00 Z1.0000
G00 X0.9545 Y43.3130
G01 F300.00
G01 Z-0.1000
G01 F600.00
G01 X0.9934 Y43.2306
G01 X0.9976 Y43.2230
G01 X1.0404 Y43.1515
G01 X1.0472 Y43.1413
G01 X1.0969 Y43.0743
G01 X1.1023 Y43.0676
G01 X1.1633 Y43.0003
G01 X1.1694 Y42.9943
G01 X1.2312 Y42.9383
G01 X1.2407 Y42.9305
G01 X1.3077 Y42.8808
G01 X1.3148 Y42.8760
G01 X1.3927 Y42.8293
G01 X1.4003 Y42.8254
G01 X1.4757 Y42.7897
G01 X1.4870 Y42.7850
G01 X1.5655 Y42.7569
G01 X1.5737 Y42.7543
G01 X1.6618 Y42.7323
G01 X1.6702 Y42.7307
G01 X1.7527 Y42.7184
G01 X1.7650 Y42.7172
G01 X1.8483 Y42.7132
G01 X1.8569 Y42.7131
G01 X1.9475 Y42.7175
G01 X1.9561 Y42.7184
G01 X2.0386 Y42.7307
G01 X2.0506 Y42.7331
G01 X2.1315 Y42.7533
G01 X2.1398 Y42.7558
G01 X2.2252 Y42.7863
G01 X2.2331 Y42.7897
G01 X2.3085 Y42.8254
G01 X2.3194 Y42.8312
G01 X2.3909 Y42.8740
G01 X2.3981 Y42.8787
G01 X2.4710 Y42.9328
G01 X2.4776 Y42.9383
G01 X2.5394 Y42.9943
G01 X2.5481 Y43.0030
G01 X2.6041 Y43.0648
G01 X2.6096 Y43.0714
G01 X2.6637 Y43.1443
G01 X2.6684 Y43.1515
G01 X2.7112 Y43.2230
G01 X2.7170 Y43.2339
G01 X2.7543 Y43.3130
G01 X3.0221 Y43.3130
G01 X3.0099 Y43.2674
G01 X2.9193 Y43.0732
G01 X2.7964 Y42.8976
G01 X2.6448 Y42.7460
G01 X2.4692 Y42.6231
G01 X2.2713 Y42.5307
G01 X2.2577 Y42.5248
G01 X2.2470 Y42.5188
G01 X2.2360 Y42.5111
G01 X2.1901 Y42.4812
G01 X2.1811 Y42.4746
G01 X2.1714 Y42.4658
G01 X2.1626 Y42.4561
G01 X2.1550 Y42.4455
G01 X2.1484 Y42.4342
G01 X2.1431 Y42.4223
G01 X2.1189 Y42.3594
G01 X2.1144 Y42.3450
G01 X2.1117 Y42.3302
G01 X2.1108 Y42.3211
G01 X2.1107 Y42.3120
G01 X2.1119 Y42.2970
G01 X2.1149 Y42.2822
G01 X2.1323 Y42.2172
G01 X2.1371 Y42.2029
G01 X2.1417 Y42.1928
G01 X2.1482 Y42.1815
G01 X2.1558 Y42.1709
G01 X2.1632 Y42.1626
G01 X2.1742 Y42.1525
G01 X2.2263 Y42.1102
G01 X2.2385 Y42.1015
G01 X2.2481 Y42.0960
G01 X2.2581 Y42.0914
G01 X2.3135 Y42.0699
G01 X2.4750 Y41.9699
G01 X2.6155 Y41.8418
G01 X2.7300 Y41.6902
G01 X2.8147 Y41.5200
G01 X2.8668 Y41.3372
G01 X2.8843 Y41.1480
G01 X2.8668 Y40.9588
G01 X2.8147 Y40.7760
G01 X2.7300 Y40.6058
G01 X2.6155 Y40.4542
G01 X2.4750 Y40.3261
G01 X2.3135 Y40.2261
G01 X2.1362 Y40.1574
G01 X1.9494 Y40.1225
G01 X1.7594 Y40.1225
G01 X1.5726 Y40.1574
G01 X1.3953 Y40.2261
G01 X1.2338 Y40.3261
G01 X1.0933 Y40.4542
G01 X0.9788 Y40.6058
G01 X0.8941 Y40.7760
G01 X0.8420 Y40.9588
G01 X0.8245 Y41.1480
G01 X0.8420 Y41.3372
G01 X0.8941 Y41.5200
G01 X0.9788 Y41.6902
G01 X1.0933 Y41.8418
G01 X1.2338 Y41.9699
G01 X1.3953 Y42.0699
G01 X1.4507 Y42.0914
G01 X1.4608 Y42.0960
G01 X1.4704 Y42.1015
G01 X1.4827 Y42.1103
G01 X1.5349 Y42.1529
G01 X1.5417 Y42.1589
G01 X1.5520 Y42.1699
G01 X1.5599 Y42.1804
G01 X1.5675 Y42.1934
G01 X1.5727 Y42.2053
G01 X1.5768 Y42.2178
G01 X1.5945 Y42.2848
G01 X1.5969 Y42.2977
G01 X1.5981 Y42.3107
G01 X1.5980 Y42.3218
G01 X1.5968 Y42.3329
G01 X1.5932 Y42.3495
G01 X1.5897 Y42.3600
G01 X1.5654 Y42.4229
G01 X1.5600 Y42.4348
G01 X1.5535 Y42.4461
G01 X1.5458 Y42.4566
G01 X1.5356 Y42.4676
G01 X1.5273 Y42.4750
G01 X1.5184 Y42.4816
G01 X1.4726 Y42.5112
G01 X1.4618 Y42.5188
G01 X1.4511 Y42.5248
G01 X1.4376 Y42.5307
G01 X1.2396 Y42.6231
G01 X1.0640 Y42.7460
G01 X0.9124 Y42.8976
G01 X0.7895 Y43.0732
G01 X0.6989 Y43.2674
G01 X0.6867 Y43.3130
G01 X0.9545 Y43.3130
G00 Z1.0000
G00 X0.9545 Y43.3130
G01 F300.00
G01 Z-0.1000
G01 F600.00
G01 X0.7954 Y43.2380
G00 Z1.0000
G00 X0.7954 Y43.2380
G01 F300.00
G01 Z-0.1000
G01 F600.00
G01 X0.9068 Y43.2380
G01 X0.9244 Y43.2010
G01 X0.9309 Y43.1885
G01 X0.9761 Y43.1129
G01 X0.9843 Y43.1004
G01 X1.0412 Y43.0238
G01 X1.0492 Y43.0145
G01 X1.1070 Y42.9506
G01 X1.1184 Y42.9394
G01 X1.1809 Y42.8828
G01 X1.1953 Y42.8709
G01 X1.2630 Y42.8206
G01 X1.2731 Y42.8136
G01 X1.3533 Y42.7654
G01 X1.3682 Y42.7576
G01 X1.4436 Y42.7219
G01 X1.4549 Y42.7170
G01 X1.5411 Y42.6860
G01 X1.5591 Y42.6806
G01 X1.6400 Y42.6603
G01 X1.6520 Y42.6578
G01 X1.7417 Y42.6443
G01 X1.7604 Y42.6424
G01 X1.8519 Y42.6381
G01 X1.8642 Y42.6382
G01 X1.9475 Y42.6423
G01 X1.9671 Y42.6443
G01 X2.0496 Y42.6565
G01 X2.0616 Y42.6587
G01 X2.1497 Y42.6806
G01 X2.1677 Y42.6860
G01 X2.2539 Y42.7170
G01 X2.2652 Y42.7219
G01 X2.3406 Y42.7576
G01 X2.3539 Y42.7645
G01 X2.4357 Y42.8136
G01 X2.4458 Y42.8206
G01 X2.5128 Y42.8703
G01 X2.5279 Y42.8828
G01 X2.5904 Y42.9394
G01 X2.6018 Y42.9506
G01 X2.6596 Y43.0145
G01 X2.6676 Y43.0238
G01 X2.7245 Y43.1004
G01 X2.7327 Y43.1129
G01 X2.7779 Y43.1885
G01 X2.7844 Y43.2010
G01 X2.8018 Y43.2377
G01 X2.9134 Y43.2379
G01 X2.8541 Y43.1108
G01 X2.7387 Y42.9460
G01 X2.5964 Y42.8037
G01 X2.4316 Y42.6883
G01 X2.2414 Y42.5996
G01 X2.2277 Y42.5937
G01 X2.2089 Y42.5834
G01 X2.1924 Y42.5722
G01 X2.1484 Y42.5436
G01 X2.1362 Y42.5347
G01 X2.1287 Y42.5284
G01 X2.1191 Y42.5196
G01 X2.1130 Y42.5132
G01 X2.1037 Y42.5026
G01 X2.0948 Y42.4905
G01 X2.0880 Y42.4797
G01 X2.0811 Y42.4674
G01 X2.0742 Y42.4519
G01 X2.0463 Y42.3788
G01 X2.0413 Y42.3616
G01 X2.0386 Y42.3488
G01 X2.0372 Y42.3391
G01 X2.0359 Y42.3241
G01 X2.0357 Y42.3090
G01 X2.0365 Y42.2963
G01 X2.0386 Y42.2804
G01 X2.0422 Y42.2638
G01 X2.0599 Y42.1977
G01 X2.0637 Y42.1853
G01 X2.0670 Y42.1761
G01 X2.0496 Y42.1795
G01 X1.9598 Y42.1926
G01 X1.9475 Y42.1937
G01 X1.8569 Y42.1979
G01 X1.8446 Y42.1978
G01 X1.7613 Y42.1937
G01 X1.7490 Y42.1926
G01 X1.6592 Y42.1795
G01 X1.6418 Y42.1761
G01 X1.6451 Y42.1852
G01 X1.6490 Y42.1977
G01 X1.6667 Y42.2647
G01 X1.6699 Y42.2794
G01 X1.6718 Y42.2920
G01 X1.6730 Y42.3080
G01 X1.6729 Y42.3250
G01 X1.6716 Y42.3390
G01 X1.6701 Y42.3497
G01 X1.6678 Y42.3606
G01 X1.6654 Y42.3701
G01 X1.6623 Y42.3797
G01 X1.6342 Y42.4527
G01 X1.6272 Y42.4681
G01 X1.6204 Y42.4804
G01 X1.6135 Y42.4911
G01 X1.6046 Y42.5032
G01 X1.5988 Y42.5099
G01 X1.5892 Y42.5201
G01 X1.5796 Y42.5289
G01 X1.5721 Y42.5352
G01 X1.5599 Y42.5440
G01 X1.5161 Y42.5724
G01 X1.4999 Y42.5834
G01 X1.4811 Y42.5936
G01 X1.4675 Y42.5996
G01 X1.2772 Y42.6883
G01 X1.1124 Y42.8037
G01 X0.9701 Y42.9460
G01 X0.8547 Y43.1108
G01 X0.7954 Y43.2380
G00 Z1.0000
G00 X1.4043 Y44.8244
G01 F300.00
G01 Z-0.1000
G01 F600.00
G01 X1.4044 Y44.6355
G01 X1.3674 Y44.6180
G01 X1.3549 Y44.6115
G01 X1.2793 Y44.5663
G01 X1.2668 Y44.5581
G01 X1.1960 Y44.5057
G01 X1.1864 Y44.4981
G01 X1.1137 Y44.4322
G01 X1.1052 Y44.4234
G01 X1.0443 Y44.3560
G01 X1.0367 Y44.3464
G01 X0.9843 Y44.2756
G01 X0.9761 Y44.2631
G01 X0.9309 Y44.1875
G01 X0.9244 Y44.1750
G01 X0.9070 Y44.1383
G01 X0.7954 Y44.1381
G01 X0.8547 Y44.2652
G01 X0.9701 Y44.4300
G01 X1.1124 Y44.5723
G01 X1.2857 Y44.6937
G01 X1.2970 Y44.7012
G01 X1.3041 Y44.7066
G01 X1.3148 Y44.7156
G01 X1.3283 Y44.7291
G01 X1.3785 Y44.7851
G01 X1.3854 Y44.7938
G01 X1.3916 Y44.8026
G01 X1.3981 Y44.8128
G01 X1.4043 Y44.8244
G00 Z1.0000
G00 X2.2294 Y44.5879
G01 F300.00
G01 Z-0.1000
G01 F600.00
G01 X2.2294 Y45.3281
G01 X2.3085 Y45.3654
G01 X2.3161 Y45.3693
G01 X2.3909 Y45.4140
G01 X2.3981 Y45.4187
G01 X2.4681 Y45.4705
G01 X2.4748 Y45.4759
G01 X2.5394 Y45.5343
G01 X2.5455 Y45.5403
G01 X2.6041 Y45.6048
G01 X2.6096 Y45.6114
G01 X2.6616 Y45.6813
G01 X2.6664 Y45.6884
G01 X2.7112 Y45.7630
G01 X2.7154 Y45.7706
G01 X2.7543 Y45.8530
G01 X3.0221 Y45.8530
G01 X3.0099 Y45.8074
G01 X2.9193 Y45.6132
G01 X2.7964 Y45.4376
G01 X2.6448 Y45.2860
G01 X2.4645 Y45.1598
G01 X2.4535 Y45.1523
G01 X2.4449 Y45.1453
G01 X2.4370 Y45.1375
G01 X2.3905 Y45.0860
G01 X2.3823 Y45.0758
G01 X2.3742 Y45.0631
G01 X2.3677 Y45.0496
G01 X2.3646 Y45.0410
G01 X2.3621 Y45.0321
G01 X2.3608 Y45.0264
G01 X2.3591 Y45.0154
G01 X2.3521 Y44.9484
G01 X2.3514 Y44.9353
G01 X2.3521 Y44.9223
G01 X2.3541 Y44.9094
G01 X2.3575 Y44.8967
G01 X2.3630 Y44.8827
G01 X2.3681 Y44.8728
G01 X2.4028 Y44.8128
G01 X2.4101 Y44.8020
G01 X2.4185 Y44.7919
G01 X2.4264 Y44.7841
G01 X2.4335 Y44.7783
G01 X2.4550 Y44.7625
G01 X2.4645 Y44.7562
G01 X2.6448 Y44.6300
G01 X2.7964 Y44.4784
G01 X2.9193 Y44.3028
G01 X3.0099 Y44.1086
G01 X3.0221 Y44.0630
G01 X2.7543 Y44.0630
G01 X2.7154 Y44.1454
G01 X2.7112 Y44.1530
G01 X2.6664 Y44.2276
G01 X2.6616 Y44.2347
G01 X2.6096 Y44.3046
G01 X2.6041 Y44.3112
G01 X2.5455 Y44.3757
G01 X2.5394 Y44.3817
G01 X2.4748 Y44.4401
G01 X2.4681 Y44.4455
G01 X2.3981 Y44.4973
G01 X2.3909 Y44.5020
G01 X2.3161 Y44.5467
G01 X2.3085 Y44.5506
G01 X2.2294 Y44.5879
G00 Z1.0000
G00 X2.2294 Y44.5879
G01 F300.00
G01 Z-0.1000
G01 F600.00
G01 X2.3044 Y44.6356
G00 Z1.0000
G00 X2.3044 Y44.6356
G01 F300.00
G01 Z-0.1000
G01 F600.00
G01 X2.3044 Y44.8332
G00 Z1.0000
G00 X2.3044 Y44.8332
G01 F300.00
G01 Z-0.1000
G01 F600.00
G01 X2.3044 Y44.6356
G00 Z1.0000
G00 X2.3044 Y44.8332
G01 F300.00
G01 Z-0.1000
G01 F600.00
G01 X2.3374 Y44.7762
G01 X2.3454 Y44.7635
G01 X2.3512 Y44.7555
G01 X2.3595 Y44.7454
G01 X2.3741 Y44.7304
G01 X2.3886 Y44.7182
G01 X2.4117 Y44.7012
G01 X2.4228 Y44.6939
G01 X2.5964 Y44.5723
G01 X2.7387 Y44.4300
G01 X2.8541 Y44.2652
G01 X2.9134 Y44.1380
G01 X2.8020 Y44.1380
G01 X2.7844 Y44.1750
G01 X2.7779 Y44.1875
G01 X2.7327 Y44.2631
G01 X2.7245 Y44.2756
G01 X2.6721 Y44.3464
G01 X2.6645 Y44.3560
G01 X2.5986 Y44.4287
G01 X2.5898 Y44.4372
G01 X2.5224 Y44.4981
G01 X2.5128 Y44.5057
G01 X2.4420 Y44.5581
G01 X2.4295 Y44.5663
G01 X2.3539 Y44.6115
G01 X2.3414 Y44.6180
G01 X2.3044 Y44.6356
G00 Z1.0000
G00 X2.3044 Y44.8332
G01 F300.00
G01 Z-0.1000
G01 F600.00
G01 X2.3044 Y45.0914
G00 Z1.0000
G00 X2.3044 Y45.0914
G01 F300.00
G01 Z-0.1000
G01 F600.00
G01 X2.3044 Y45.2804
G01 X2.3414 Y45.2980
G01 X2.3539 Y45.3045
G01 X2.4295 Y45.3497
G01 X2.4420 Y45.3579
G01 X2.5128 Y45.4103
G01 X2.5224 Y45.4179
G01 X2.5951 Y45.4838
G01 X2.6036 Y45.4926
G01 X2.6645 Y45.5600
G01 X2.6721 Y45.5696
G01 X2.7245 Y45.6404
G01 X2.7327 Y45.6529
G01 X2.7779 Y45.7285
G01 X2.7844 Y45.7410
G01 X2.8018 Y45.7777
G01 X2.9134 Y45.7779
G01 X2.8541 Y45.6508
G01 X2.7387 Y45.4860
G01 X2.5964 Y45.3437
G01 X2.4231 Y45.2223
G01 X2.4117 Y45.2148
G01 X2.4007 Y45.2061
G01 X2.3940 Y45.2004
G01 X2.3805 Y45.1870
G01 X2.3303 Y45.1310
G01 X2.3234 Y45.1223
G01 X2.3172 Y45.1134
G01 X2.3107 Y45.1032
G01 X2.3044 Y45.0914
G00 Z1.0000
G00 X0.9545 Y45.8530
G01 F300.00
G01 Z-0.1000
G01 F600.00
G01 X0.7954 Y45.7780
G00 Z1.0000
G00 X0.7954 Y45.7780
G01 F300.00
G01 Z-0.1000
G01 F600.00
G01 X0.9068 Y45.7780
G01 X0.9244 Y45.7410
G01 X0.9309 Y45.7285
G01 X0.9761 Y45.6529
G01 X0.9843 Y45.6404
G01 X1.0367 Y45.5696
G01 X1.0443 Y45.5600
G01 X1.1102 Y45.4873
G01 X1.1190 Y45.4788
G01 X1.1864 Y45.4179
G01 X1.1960 Y45.4103
G01 X1.2668 Y45.3579
G01 X1.2793 Y45.3497
G01 X1.3549 Y45.3045
G01 X1.3674 Y45.2980
G01 X1.4041 Y45.2806
G01 X1.4042 Y45.0832
G01 X1.3714 Y45.1399
G01 X1.3633 Y45.1525
G01 X1.3576 Y45.1605
G01 X1.3493 Y45.1706
G01 X1.3347 Y45.1856
G01 X1.3202 Y45.1979
G01 X1.2970 Y45.2148
G01 X1.2860 Y45.2221
G01 X1.1124 Y45.3437
G01 X0.9701 Y45.4860
G01 X0.8547 Y45.6508
G01 X0.7954 Y45.7780
G00 Z1.0000
G00 X0.9545 Y45.8530
G01 F300.00
G01 Z-0.1000
G01 F600.00
G01 X0.9934 Y45.7706
G01 X0.9976 Y45.7630
G01 X1.0424 Y45.6884
G01 X1.0472 Y45.6813
G01 X1.0992 Y45.6114
G01 X1.1047 Y45.6048
G01 X1.1633 Y45.5403
G01 X1.1694 Y45.5343
G01 X1.2340 Y45.4759
G01 X1.2407 Y45.4705
G01 X1.3107 Y45.4187
G01 X1.3179 Y45.4140
G01 X1.3927 Y45.3693
G01 X1.4003 Y45.3654
G01 X1.4794 Y45.3281
G01 X1.4794 Y44.5879
G01 X1.3970 Y44.5490
G01 X1.3894 Y44.5448
G01 X1.3148 Y44.5000
G01 X1.3077 Y44.4952
G01 X1.2378 Y44.4432
G01 X1.2312 Y44.4377
G01 X1.1667 Y44.3791
G01 X1.1607 Y44.3730
G01 X1.1023 Y44.3084
G01 X1.0969 Y44.3017
G01 X1.0451 Y44.2317
G01 X1.0404 Y44.2245
G01 X0.9957 Y44.1497
G01 X0.9918 Y44.1421
G01 X0.9545 Y44.0630
G01 X0.6867 Y44.0630
G01 X0.6989 Y44.1086
G01 X0.7895 Y44.3028
G01 X0.9124 Y44.4784
G01 X1.0640 Y44.6300
G01 X1.2442 Y44.7562
G01 X1.2522 Y44.7613
G01 X1.2654 Y44.7720
G01 X1.2732 Y44.7800
G01 X1.3183 Y44.8300
G01 X1.3276 Y44.8418
G01 X1.3346 Y44.8529
G01 X1.3411 Y44.8665
G01 X1.3454 Y44.8788
G01 X1.3476 Y44.8877
G01 X1.3492 Y44.8967
G01 X1.3567 Y44.9676
G01 X1.3573 Y44.9767
G01 X1.3569 Y44.9918
G01 X1.3547 Y45.0067
G01 X1.3507 Y45.0212
G01 X1.3466 Y45.0315
G01 X1.3425 Y45.0397
G01 X1.3070 Y45.1015
G01 X1.3010 Y45.1109
G01 X1.2942 Y45.1197
G01 X1.2889 Y45.1255
G01 X1.2809 Y45.1332
G01 X1.2722 Y45.1401
G01 X1.2521 Y45.1547
G01 X1.2443 Y45.1598
G01 X1.0640 Y45.2860
G01 X0.9124 Y45.4376
G01 X0.7895 Y45.6132
G01 X0.6989 Y45.8074
G01 X0.6867 Y45.8530
G01 X0.9545 Y45.8530
G00 Z1.0000
G00 X0.9545 Y46.6030
G01 F300.00
G01 Z-0.1000
G01 F600.00
G01 X0.7954 Y46.6780
G00 Z1.0000
G00 X0.7954 Y46.6780
G01 F300.00
G01 Z-0.1000
G01 F600.00
G01 X1.0023 Y46.8400
G00 Z1.0000
G00 X1.0023 Y46.8400
G01 F300.00
G01 Z-0.1000
G01 F600.00
G01 X1.4663 Y47.2032
G00 Z1.0000
G00 X1.4663 Y47.2032
G01 F300.00
G01 Z-0.1000
G01 F600.00
G01 X1.5403 Y47.2297
G01 X1.5528 Y47.2337
G01 X1.6400 Y47.2557
G01 X1.6529 Y47.2584
G01 X1.7417 Y47.2717
G01 X1.7539 Y47.2731
G01 X1.8446 Y47.2778
G01 X1.8569 Y47.2779
G01 X1.9475 Y47.2737
G01 X1.9598 Y47.2726
G01 X2.0568 Y47.2582
G01 X2.0688 Y47.2557
G01 X2.1568 Y47.2334
G01 X2.1685 Y47.2297
G01 X2.2471 Y47.2016
G01 X2.2644 Y47.1945
G01 X2.3464 Y47.1555
G01 X2.3579 Y47.1492
G01 X2.4349 Y47.1029
G01 X2.4458 Y47.0954
G01 X2.5186 Y47.0412
G01 X2.5279 Y47.0332
G01 X2.5918 Y46.9754
G01 X2.6036 Y46.9634
G01 X2.6639 Y46.8967
G01 X2.6721 Y46.8864
G01 X2.7234 Y46.8171
G01 X2.7322 Y46.8038
G01 X2.7779 Y46.7275
G01 X2.7844 Y46.7150
G01 X2.8020 Y46.6780
G01 X2.9134 Y46.6780
G01 X2.8541 Y46.8052
G01 X2.7387 Y46.9700
G01 X2.5964 Y47.1123
G01 X2.4316 Y47.2277
G01 X2.2414 Y47.3164
G01 X2.2278 Y47.3223
G01 X2.2089 Y47.3325
G01 X2.1927 Y47.3436
G01 X2.1489 Y47.3720
G01 X2.1367 Y47.3808
G01 X2.1292 Y47.3871
G01 X2.1196 Y47.3959
G01 X2.1100 Y47.4061
G01 X2.1042 Y47.4128
G01 X2.0953 Y47.4249
G01 X2.0884 Y47.4356
G01 X2.0816 Y47.4479
G01 X2.0746 Y47.4633
G01 X2.0465 Y47.5363
G01 X2.0434 Y47.5459
G01 X2.0410 Y47.5554
G01 X2.0387 Y47.5663
G01 X2.0372 Y47.5770
G01 X2.0359 Y47.5910
G01 X2.0358 Y47.6080
G01 X2.0370 Y47.6240
G01 X2.0389 Y47.6366
G01 X2.0421 Y47.6513
G01 X2.0598 Y47.7184
G01 X2.0637 Y47.7309
G01 X2.0670 Y47.7399
G01 X2.0505 Y47.7366
G01 X1.9643 Y47.7239
G01 X1.9503 Y47.7225
G01 X1.9101 Y47.7205
G00 Z1.0000
G00 X1.4663 Y47.2032
G01 F300.00
G01 Z-0.1000
G01 F600.00
G01 X1.4557 Y47.1993
G01 X1.4436 Y47.1941
G01 X1.3674 Y47.1580
G01 X1.3517 Y47.1496
G01 X1.2793 Y47.1063
G01 X1.2690 Y47.0996
G01 X1.1924 Y47.0429
G01 X1.1809 Y47.0332
G01 X1.1190 Y46.9772
G01 X1.1070 Y46.9654
G01 X1.0449 Y46.8967
G01 X1.0373 Y46.8871
G01 X1.0023 Y46.8400
G00 Z1.0000
G00 X1.0023 Y46.8400
G01 F300.00
G01 Z-0.1000
G01 F600.00
G01 X0.9854 Y46.8171
G01 X0.9785 Y46.8070
G01 X0.9328 Y46.7307
G01 X0.9252 Y46.7167
G01 X0.9068 Y46.6780
G01 X0.7954 Y46.6780
G00 Z1.0000
G00 X0.7954 Y46.6780
G01 F300.00
G01 Z-0.1000
G01 F600.00
G01 X0.8547 Y46.8052
G01 X0.9701 Y46.9700
G01 X1.1124 Y47.1123
G01 X1.2772 Y47.2277
G01 X1.4674 Y47.3164
G01 X1.4810 Y47.3223
G01 X1.4999 Y47.3325
G01 X1.5164 Y47.3438
G01 X1.5604 Y47.3725
G01 X1.5726 Y47.3813
G01 X1.5801 Y47.3876
G01 X1.5898 Y47.3965
G01 X1.5959 Y47.4028
G01 X1.6051 Y47.4135
G01 X1.6140 Y47.4256
G01 X1.6209 Y47.4363
G01 X1.6277 Y47.4486
G01 X1.6347 Y47.4642
G01 X1.6625 Y47.5372
G01 X1.6675 Y47.5545
G01 X1.6702 Y47.5673
G01 X1.6716 Y47.5770
G01 X1.6729 Y47.5920
G01 X1.6731 Y47.6070
G01 X1.6723 Y47.6198
G01 X1.6702 Y47.6356
G01 X1.6666 Y47.6523
G01 X1.6489 Y47.7183
G01 X1.6451 Y47.7308
G01 X1.6418 Y47.7399
G01 X1.6592 Y47.7365
G01 X1.7427 Y47.7241
G01 X1.7585 Y47.7225
G01 X1.8492 Y47.7181
G01 X1.8633 Y47.7182
G01 X1.9101 Y47.7205
G00 Z1.0000
G00 X1.9101 Y47.7205
G01 F300.00
G01 Z-0.1000
G01 F600.00
G01 X1.8764 Y47.6438
G00 Z1.0000
G00 X1.9101 Y47.7205
G01 F300.00
G01 Z-0.1000
G01 F600.00
G01 X1.9438 Y47.7972
G00 Z1.0000
G00 X1.9438 Y47.7972
G01 F300.00
G01 Z-0.1000
G01 F600.00
G01 X1.9561 Y47.7984
G01 X2.0422 Y47.8113
G01 X2.0506 Y47.8131
G01 X2.1351 Y47.8343
G01 X2.1433 Y47.8369
G01 X2.2252 Y47.8663
G01 X2.2331 Y47.8697
G01 X2.3118 Y47.9070
G01 X2.3194 Y47.9112
G01 X2.3940 Y47.9560
G01 X2.4011 Y47.9608
G01 X2.4710 Y48.0128
G01 X2.4776 Y48.0183
G01 X2.5421 Y48.0769
G01 X2.5481 Y48.0830
G01 X2.6065 Y48.1476
G01 X2.6119 Y48.1543
G01 X2.6637 Y48.2243
G01 X2.6684 Y48.2315
G01 X2.7131 Y48.3063
G01 X2.7170 Y48.3139
G01 X2.7542 Y48.3926
G01 X2.7574 Y48.4006
G01 X2.7866 Y48.4826
G01 X2.7891 Y48.4909
G01 X2.8101 Y48.5754
G01 X2.8117 Y48.5838
G01 X2.8244 Y48.6700
G01 X2.8252 Y48.6786
G01 X2.8293 Y48.7655
G01 X2.8292 Y48.7741
G01 X2.8249 Y48.8611
G01 X2.8240 Y48.8697
G01 X2.8111 Y48.9558
G01 X2.8093 Y48.9642
G01 X2.7881 Y49.0487
G01 X2.7855 Y49.0569
G01 X2.7561 Y49.1388
G01 X2.7527 Y49.1467
G01 X2.7154 Y49.2254
G01 X2.7112 Y49.2330
G01 X2.6664 Y49.3076
G01 X2.6616 Y49.3147
G01 X2.6096 Y49.3846
G01 X2.6041 Y49.3912
G01 X2.5455 Y49.4557
G01 X2.5394 Y49.4617
G01 X2.4748 Y49.5201
G01 X2.4681 Y49.5255
G01 X2.3981 Y49.5773
G01 X2.3909 Y49.5820
G01 X2.3161 Y49.6267
G01 X2.3085 Y49.6306
G01 X2.2298 Y49.6678
G01 X2.2218 Y49.6710
G01 X2.1398 Y49.7002
G01 X2.1315 Y49.7027
G01 X2.0470 Y49.7237
G01 X2.0386 Y49.7253
G01 X1.9524 Y49.7380
G01 X1.9438 Y49.7388
G01 X1.8569 Y49.7429
G01 X1.8483 Y49.7428
G01 X1.7613 Y49.7385
G01 X1.7527 Y49.7376
G01 X1.6666 Y49.7247
G01 X1.6582 Y49.7229
G01 X1.5737 Y49.7017
G01 X1.5655 Y49.6991
G01 X1.4836 Y49.6697
G01 X1.4757 Y49.6663
G01 X1.3970 Y49.6290
G01 X1.3894 Y49.6248
G01 X1.3148 Y49.5800
G01 X1.3077 Y49.5752
G01 X1.2378 Y49.5232
G01 X1.2312 Y49.5177
G01 X1.1667 Y49.4591
G01 X1.1607 Y49.4530
G01 X1.1023 Y49.3884
G01 X1.0969 Y49.3817
G01 X1.0451 Y49.3117
G01 X1.0404 Y49.3045
G01 X0.9957 Y49.2297
G01 X0.9918 Y49.2221
G01 X0.9546 Y49.1434
G01 X0.9514 Y49.1354
G01 X0.9222 Y49.0534
G01 X0.9197 Y49.0451
G01 X0.8987 Y48.9606
G01 X0.8971 Y48.9522
G01 X0.8844 Y48.8660
G01 X0.8836 Y48.8574
G01 X0.8795 Y48.7705
G01 X0.8796 Y48.7619
G01 X0.8839 Y48.6749
G01 X0.8848 Y48.6663
G01 X0.8977 Y48.5802
G01 X0.8995 Y48.5718
G01 X0.9207 Y48.4873
G01 X0.9233 Y48.4791
G01 X0.9527 Y48.3972
G01 X0.9561 Y48.3893
G01 X0.9934 Y48.3106
G01 X0.9976 Y48.3030
G01 X1.0424 Y48.2284
G01 X1.0472 Y48.2213
G01 X1.0992 Y48.1514
G01 X1.1047 Y48.1448
G01 X1.1633 Y48.0803
G01 X1.1694 Y48.0743
G01 X1.2340 Y48.0159
G01 X1.2407 Y48.0105
G01 X1.3107 Y47.9587
G01 X1.3179 Y47.9540
G01 X1.3927 Y47.9093
G01 X1.4003 Y47.9054
G01 X1.4790 Y47.8682
G01 X1.4870 Y47.8650
G01 X1.5690 Y47.8358
G01 X1.5773 Y47.8333
G01 X1.6618 Y47.8123
G01 X1.6702 Y47.8107
G01 X1.7564 Y47.7980
G01 X1.7650 Y47.7972
G01 X1.8519 Y47.7931
G01 X1.8605 Y47.7932
G01 X1.9438 Y47.7972
G00 Z1.0000
G00 X1.8764 Y47.6438
G01 F300.00
G01 Z-0.1000
G01 F600.00
G01 X1.8605 Y47.6431
G01 X1.8446 Y47.6432
G01 X1.7571 Y47.6474
G01 X1.7441 Y47.6485
G01 X1.7463 Y47.6333
G01 X1.7479 Y47.6139
G01 X1.7481 Y47.5949
G01 X1.7472 Y47.5792
G01 X1.7449 Y47.5594
G01 X1.7412 Y47.5403
G01 X1.7375 Y47.5256
G01 X1.7313 Y47.5066
G01 X1.7028 Y47.4327
G01 X1.6945 Y47.4146
G01 X1.6856 Y47.3984
G01 X1.6753 Y47.3823
G01 X1.6670 Y47.3709
G01 X1.6602 Y47.3625
G01 X1.6449 Y47.3455
G01 X1.6281 Y47.3299
G00 Z1.0000
G00 X1.8764 Y47.6438
G01 F300.00
G01 Z-0.1000
G01 F600.00
G01 X1.9517 Y47.6474
G01 X1.9648 Y47.6485
G01 X1.9626 Y47.6331
G01 X1.9609 Y47.6137
G01 X1.9608 Y47.5937
G01 X1.9617 Y47.5780
G01 X1.9640 Y47.5582
G01 X1.9676 Y47.5401
G01 X1.9716 Y47.5244
G01 X1.9775 Y47.5064
G01 X2.0061 Y47.4326
G01 X2.0144 Y47.4145
G01 X2.0236 Y47.3979
G01 X2.0341 Y47.3814
G01 X2.0424 Y47.3701
G01 X2.0492 Y47.3617
G01 X2.0646 Y47.3448
G01 X2.0806 Y47.3299
G01 X2.0610 Y47.3336
G01 X1.9671 Y47.3473
G01 X1.9517 Y47.3486
G01 X1.8679 Y47.3527
G01 X1.8519 Y47.3529
G01 X1.7576 Y47.3486
G01 X1.7412 Y47.3472
G01 X1.6478 Y47.3336
G01 X1.6281 Y47.3299
G00 Z1.0000
G00 X1.6281 Y47.3299
G01 F300.00
G01 Z-0.1000
G01 F600.00
G01 X1.4663 Y47.2032
G00 Z1.0000
G00 X1.6281 Y47.3299
G01 F300.00
G01 Z-0.1000
G01 F600.00
G01 X1.7803 Y47.4248
G00 Z1.0000
G00 X1.7803 Y47.4248
G01 F300.00
G01 Z-0.1000
G01 F600.00
G01 X1.8016 Y47.4806
G01 X1.8098 Y47.5057
G01 X1.8135 Y47.5199
G01 X1.8173 Y47.5380
G01 X1.8198 Y47.5530
G01 X1.8216 Y47.5692
G01 X1.8432 Y47.5682
G00 Z1.0000
G00 X1.8432 Y47.5682
G01 F300.00
G01 Z-0.1000
G01 F600.00
G01 X1.8633 Y47.5681
G01 X1.8872 Y47.5692
G01 X1.8891 Y47.5521
G01 X1.8913 Y47.5385
G01 X1.8953 Y47.5195
G01 X1.8992 Y47.5048
G01 X1.9074 Y47.4797
G01 X1.9286 Y47.4248
G01 X1.8707 Y47.4276
G01 X1.8569 Y47.4279
G01 X1.8393 Y47.4277
G01 X1.7803 Y47.4248
G00 Z1.0000
G00 X1.7803 Y47.4248
G01 F300.00
G01 Z-0.1000
G01 F600.00
G01 X1.8432 Y47.5682
G00 Z1.0000
G00 X1.8432 Y47.5682
G01 F300.00
G01 Z-0.1000
G01 F600.00
G01 X1.8764 Y47.6438
G00 Z1.0000
G00 X0.9545 Y46.6030
G01 F300.00
G01 Z-0.1000
G01 F600.00
G01 X0.6867 Y46.6030
G01 X0.6989 Y46.6486
G01 X0.7895 Y46.8428
G01 X0.9124 Y47.0184
G01 X1.0640 Y47.1700
G01 X1.2396 Y47.2929
G01 X1.4375 Y47.3852
G01 X1.4527 Y47.3920
G01 X1.4618 Y47.3972
G01 X1.4727 Y47.4049
G01 X1.5187 Y47.4348
G01 X1.5277 Y47.4414
G01 X1.5360 Y47.4488
G01 X1.5462 Y47.4599
G01 X1.5539 Y47.4705
G01 X1.5604 Y47.4818
G01 X1.5657 Y47.4938
G01 X1.5899 Y47.5567
G01 X1.5934 Y47.5672
G01 X1.5969 Y47.5838
G01 X1.5980 Y47.5949
G01 X1.5981 Y47.6060
G01 X1.5969 Y47.6191
G01 X1.5944 Y47.6319
G01 X1.5765 Y47.6989
G01 X1.5731 Y47.7095
G01 X1.5671 Y47.7232
G01 X1.5606 Y47.7345
G01 X1.5529 Y47.7451
G01 X1.5428 Y47.7562
G01 X1.5345 Y47.7635
G01 X1.4825 Y47.8058
G01 X1.4703 Y47.8145
G01 X1.4607 Y47.8200
G01 X1.4507 Y47.8246
G01 X1.3953 Y47.8461
G01 X1.2338 Y47.9461
G01 X1.0933 Y48.0742
G01 X0.9788 Y48.2258
G01 X0.8941 Y48.3960
G01 X0.8420 Y48.5788
G01 X0.8245 Y48.7680
G01 X0.8420 Y48.9572
G01 X0.8941 Y49.1400
G01 X0.9788 Y49.3102
G01 X1.0933 Y49.4618
G01 X1.2337 Y49.5899
G01 X1.3953 Y49.6899
G01 X1.5726 Y49.7586
G01 X1.7594 Y49.7935
G01 X1.9494 Y49.7935
G01 X2.1362 Y49.7586
G01 X2.3135 Y49.6899
G01 X2.4750 Y49.5899
G01 X2.6155 Y49.4618
G01 X2.7300 Y49.3102
G01 X2.8147 Y49.1400
G01 X2.8668 Y48.9572
G01 X2.8843 Y48.7680
G01 X2.8668 Y48.5788
G01 X2.8147 Y48.3960
G01 X2.7300 Y48.2258
G01 X2.6155 Y48.0742
G01 X2.4750 Y47.9461
G01 X2.3135 Y47.8461
G01 X2.2581 Y47.8246
G01 X2.2480 Y47.8200
G01 X2.2384 Y47.8145
G01 X2.2261 Y47.8057
G01 X2.1739 Y47.7631
G01 X2.1629 Y47.7529
G01 X2.1555 Y47.7446
G01 X2.1478 Y47.7340
G01 X2.1413 Y47.7226
G01 X2.1368 Y47.7125
G01 X2.1321 Y47.6982
G01 X2.1148 Y47.6331
G01 X2.1119 Y47.6183
G01 X2.1107 Y47.6033
G01 X2.1108 Y47.5942
G01 X2.1117 Y47.5851
G01 X2.1145 Y47.5703
G01 X2.1191 Y47.5560
G01 X2.1434 Y47.4931
G01 X2.1488 Y47.4812
G01 X2.1553 Y47.4699
G01 X2.1630 Y47.4594
G01 X2.1718 Y47.4497
G01 X2.1815 Y47.4410
G01 X2.1904 Y47.4344
G01 X2.2362 Y47.4048
G01 X2.2470 Y47.3971
G01 X2.2577 Y47.3912
G01 X2.2712 Y47.3853
G01 X2.4692 Y47.2929
G01 X2.6448 Y47.1700
G01 X2.7964 Y47.0184
G01 X2.9193 Y46.8428
G01 X3.0099 Y46.6486
G01 X3.0221 Y46.6030
G01 X2.7543 Y46.6030
G01 X2.7154 Y46.6854
G01 X2.7112 Y46.6930
G01 X2.6684 Y46.7645
G01 X2.6616 Y46.7747
G01 X2.6119 Y46.8417
G01 X2.6065 Y46.8484
G01 X2.5455 Y46.9157
G01 X2.5394 Y46.9217
G01 X2.4776 Y46.9777
G01 X2.4681 Y46.9855
G01 X2.4011 Y47.0352
G01 X2.3940 Y47.0400
G01 X2.3161 Y47.0867
G01 X2.3085 Y47.0906
G01 X2.2331 Y47.1263
G01 X2.2218 Y47.1310
G01 X2.1433 Y47.1591
G01 X2.1351 Y47.1617
G01 X2.0470 Y47.1837
G01 X2.0386 Y47.1853
G01 X1.9561 Y47.1976
G01 X1.9438 Y47.1988
G01 X1.8605 Y47.2028
G01 X1.8519 Y47.2029
G01 X1.7613 Y47.1985
G01 X1.7527 Y47.1976
G01 X1.6702 Y47.1853
G01 X1.6582 Y47.1829
G01 X1.5773 Y47.1627
G01 X1.5690 Y47.1602
G01 X1.4836 Y47.1297
G01 X1.4757 Y47.1263
G01 X1.4003 Y47.0906
G01 X1.3894 Y47.0848
G01 X1.3179 Y47.0420
G01 X1.3107 Y47.0373
G01 X1.2378 Y46.9832
G01 X1.2312 Y46.9777
G01 X1.1694 Y46.9217
G01 X1.1607 Y46.9130
G01 X1.1047 Y46.8512
G01 X1.0992 Y46.8446
G01 X1.0451 Y46.7717
G01 X1.0404 Y46.7645
G01 X0.9976 Y46.6930
G01 X0.9918 Y46.6821
G01 X0.9545 Y46.6030
G00 Z1.0000
G00 X1.9438 Y50.3372
G01 F300.00
G01 Z-0.1000
G01 F600.00
G01 X1.9561 Y50.3384
G01 X2.0422 Y50.3513
G01 X2.0506 Y50.3531
G01 X2.1351 Y50.3743
G01 X2.1433 Y50.3769
G01 X2.2252 Y50.4063
G01 X2.2331 Y50.4097
G01 X2.3118 Y50.4470
G01 X2.3194 Y50.4512
G01 X2.3940 Y50.4960
G01 X2.4011 Y50.5008
G01 X2.4710 Y50.5528
G01 X2.4776 Y50.5583
G01 X2.5421 Y50.6169
G01 X2.5481 Y50.6230
G01 X2.6065 Y50.6876
G01 X2.6119 Y50.6943
G01 X2.6637 Y50.7643
G01 X2.6684 Y50.7715
G01 X2.7131 Y50.8463
G01 X2.7170 Y50.8539
G01 X2.7542 Y50.9326
G01 X2.7574 Y50.9406
G01 X2.7866 Y51.0226
G01 X2.7891 Y51.0309
G01 X2.8101 Y51.1154
G01 X2.8117 Y51.1238
G01 X2.8244 Y51.2100
G01 X2.8252 Y51.2186
G01 X2.8293 Y51.3055
G01 X2.8292 Y51.3141
G01 X2.8249 Y51.4011
G01 X2.8240 Y51.4097
G01 X2.8111 Y51.4958
G01 X2.8093 Y51.5042
G01 X2.7881 Y51.5887
G01 X2.7855 Y51.5969
G01 X2.7561 Y51.6788
G01 X2.7527 Y51.6867
G01 X2.7154 Y51.7654
G01 X2.7112 Y51.7730
G01 X2.6664 Y51.8476
G01 X2.6616 Y51.8547
G01 X2.6096 Y51.9246
G01 X2.6041 Y51.9312
G01 X2.5455 Y51.9957
G01 X2.5394 Y52.0017
G01 X2.4748 Y52.0601
G01 X2.4681 Y52.0655
G01 X2.3981 Y52.1173
G01 X2.3909 Y52.1220
G01 X2.3161 Y52.1667
G01 X2.3085 Y52.1706
G01 X2.2298 Y52.2078
G01 X2.2218 Y52.2110
G01 X2.1398 Y52.2402
G01 X2.1315 Y52.2427
G01 X2.0470 Y52.2637
G01 X2.0386 Y52.2653
G01 X1.9524 Y52.2780
G01 X1.9438 Y52.2788
G01 X1.8569 Y52.2829
G01 X1.8483 Y52.2828
G01 X1.7613 Y52.2785
G01 X1.7527 Y52.2776
G01 X1.6666 Y52.2647
G01 X1.6582 Y52.2629
G01 X1.5737 Y52.2417
G01 X1.5655 Y52.2391
G01 X1.4836 Y52.2097
G01 X1.4757 Y52.2063
G01 X1.3970 Y52.1690
G01 X1.3894 Y52.1648
G01 X1.3148 Y52.1200
G01 X1.3077 Y52.1152
G01 X1.2378 Y52.0632
G01 X1.2312 Y52.0577
G01 X1.1667 Y51.9991
G01 X1.1607 Y51.9930
G01 X1.1023 Y51.9284
G01 X1.0969 Y51.9217
G01 X1.0451 Y51.8517
G01 X1.0404 Y51.8445
G01 X0.9957 Y51.7697
G01 X0.9918 Y51.7621
G01 X0.9546 Y51.6834
G01 X0.9514 Y51.6754
G01 X0.9222 Y51.5934
G01 X0.9197 Y51.5851
G01 X0.8987 Y51.5006
G01 X0.8971 Y51.4922
G01 X0.8844 Y51.4060
G01 X0.8836 Y51.3974
G01 X0.8795 Y51.3105
G01 X0.8796 Y51.3019
G01 X0.8839 Y51.2149
G01 X0.8848 Y51.2063
G01 X0.8977 Y51.1202
G01 X0.8995 Y51.1118
G01 X0.9207 Y51.0273
G01 X0.9233 Y51.0191
G01 X0.9527 Y50.9372
G01 X0.9561 Y50.9293
G01 X0.9934 Y50.8506
G01 X0.9976 Y50.8430
G01 X1.0424 Y50.7684
G01 X1.0472 Y50.7613
G01 X1.0992 Y50.6914
G01 X1.1047 Y50.6848
G01 X1.1633 Y50.6203
G01 X1.1694 Y50.6143
G01 X1.2340 Y50.5559
G01 X1.2407 Y50.5505
G01 X1.3107 Y50.4987
G01 X1.3179 Y50.4940
G01 X1.3927 Y50.4493
G01 X1.4003 Y50.4454
G01 X1.4790 Y50.4082
G01 X1.4870 Y50.4050
G01 X1.5690 Y50.3758
G01 X1.5773 Y50.3733
G01 X1.6618 Y50.3523
G01 X1.6702 Y50.3507
G01 X1.7564 Y50.3380
G01 X1.7650 Y50.3372
G01 X1.8519 Y50.3331
G01 X1.8605 Y50.3332
G01 X1.9438 Y50.3372
G00 Z1.0000
G00 X1.0933 Y52.0018
G01 F300.00
G01 Z-0.1000
G01 F600.00
G01 X1.2337 Y52.1299
G01 X1.3953 Y52.2299
G01 X1.5726 Y52.2986
G01 X1.7594 Y52.3335
G01 X1.9494 Y52.3335
G01 X2.1362 Y52.2986
G01 X2.3135 Y52.2299
G01 X2.4750 Y52.1299
G01 X2.6155 Y52.0018
G01 X2.7300 Y51.8502
G01 X2.8147 Y51.6800
G01 X2.8668 Y51.4972
G01 X2.8843 Y51.3080
G01 X2.8668 Y51.1188
G01 X2.8147 Y50.9360
G01 X2.7300 Y50.7658
G01 X2.6155 Y50.6142
G01 X2.4750 Y50.4861
G01 X2.3135 Y50.3861
G01 X2.1362 Y50.3174
G01 X1.9494 Y50.2825
G01 X1.7594 Y50.2825
G01 X1.5726 Y50.3174
G01 X1.3953 Y50.3861
G01 X1.2338 Y50.4861
G01 X1.0933 Y50.6142
G01 X0.9788 Y50.7658
G01 X0.8941 Y50.9360
G01 X0.8420 Y51.1188
G01 X0.8245 Y51.3080
G01 X0.8420 Y51.4972
G01 X0.8941 Y51.6800
G01 X0.9788 Y51.8502
G01 X1.0933 Y52.0018
G00 Z1.0000
G00 X1.9438 Y52.8772
G01 F300.00
G01 Z-0.1000
G01 F600.00
G01 X1.9561 Y52.8784
G01 X2.0422 Y52.8913
G01 X2.0506 Y52.8931
G01 X2.1351 Y52.9143
G01 X2.1433 Y52.9169
G01 X2.2252 Y52.9463
G01 X2.2331 Y52.9497
G01 X2.3118 Y52.9870
G01 X2.3194 Y52.9912
G01 X2.3940 Y53.0360
G01 X2.4011 Y53.0408
G01 X2.4710 Y53.0928
G01 X2.4776 Y53.0983
G01 X2.5421 Y53.1569
G01 X2.5481 Y53.1630
G01 X2.6065 Y53.2276
G01 X2.6119 Y53.2343
G01 X2.6637 Y53.3043
G01 X2.6684 Y53.3115
G01 X2.7131 Y53.3863
G01 X2.7170 Y53.3939
G01 X2.7542 Y53.4726
G01 X2.7574 Y53.4806
G01 X2.7866 Y53.5626
G01 X2.7891 Y53.5709
G01 X2.8101 Y53.6554
G01 X2.8117 Y53.6638
G01 X2.8244 Y53.7500
G01 X2.8252 Y53.7586
G01 X2.8293 Y53.8455
G01 X2.8292 Y53.8541
G01 X2.8249 Y53.9411
G01 X2.8240 Y53.9497
G01 X2.8111 Y54.0358
G01 X2.8093 Y54.0442
G01 X2.7881 Y54.1287
G01 X2.7855 Y54.1369
G01 X2.7561 Y54.2188
G01 X2.7527 Y54.2267
G01 X2.7154 Y54.3054
G01 X2.7112 Y54.3130
G01 X2.6664 Y54.3876
G01 X2.6616 Y54.3947
G01 X2.6096 Y54.4646
G01 X2.6041 Y54.4712
G01 X2.5455 Y54.5357
G01 X2.5394 Y54.5417
G01 X2.4748 Y54.6001
G01 X2.4681 Y54.6055
G01 X2.3981 Y54.6573
G01 X2.3909 Y54.6620
G01 X2.3161 Y54.7067
G01 X2.3085 Y54.7106
G01 X2.2298 Y54.7478
G01 X2.2218 Y54.7510
G01 X2.1398 Y54.7802
G01 X2.1315 Y54.7827
G01 X2.0470 Y54.8037
G01 X2.0386 Y54.8053
G01 X1.9524 Y54.8180
G01 X1.9438 Y54.8188
G01 X1.8569 Y54.8229
G01 X1.8483 Y54.8228
G01 X1.7613 Y54.8185
G01 X1.7527 Y54.8176
G01 X1.6666 Y54.8047
G01 X1.6582 Y54.8029
G01 X1.5737 Y54.7817
G01 X1.5655 Y54.7791
G01 X1.4836 Y54.7497
G01 X1.4757 Y54.7463
G01 X1.3970 Y54.7090
G01 X1.3894 Y54.7048
G01 X1.3148 Y54.6600
G01 X1.3077 Y54.6552
G01 X1.2378 Y54.6032
G01 X1.2312 Y54.5977
G01 X1.1667 Y54.5391
G01 X1.1607 Y54.5330
G01 X1.1023 Y54.4684
G01 X1.0969 Y54.4617
G01 X1.0451 Y54.3917
G01 X1.0404 Y54.3845
G01 X0.9957 Y54.3097
G01 X0.9918 Y54.3021
G01 X0.9546 Y54.2234
G01 X0.9514 Y54.2154
G01 X0.9222 Y54.1334
G01 X0.9197 Y54.1251
G01 X0.8987 Y54.0406
G01 X0.8971 Y54.0322
G01 X0.8844 Y53.9460
G01 X0.8836 Y53.9374
G01 X0.8795 Y53.8505
G01 X0.8796 Y53.8419
G01 X0.8839 Y53.7549
G01 X0.8848 Y53.7463
G01 X0.8977 Y53.6602
G01 X0.8995 Y53.6518
G01 X0.9207 Y53.5673
G01 X0.9233 Y53.5591
G01 X0.9527 Y53.4772
G01 X0.9561 Y53.4693
G01 X0.9934 Y53.3906
G01 X0.9976 Y53.3830
G01 X1.0424 Y53.3084
G01 X1.0472 Y53.3013
G01 X1.0992 Y53.2314
G01 X1.1047 Y53.2248
G01 X1.1633 Y53.1603
G01 X1.1694 Y53.1543
G01 X1.2340 Y53.0959
G01 X1.2407 Y53.0905
G01 X1.3107 Y53.0387
G01 X1.3179 Y53.0340
G01 X1.3927 Y52.9893
G01 X1.4003 Y52.9854
G01 X1.4790 Y52.9482
G01 X1.4870 Y52.9450
G01 X1.5690 Y52.9158
G01 X1.5773 Y52.9133
G01 X1.6618 Y52.8923
G01 X1.6702 Y52.8907
G01 X1.7564 Y52.8780
G01 X1.7650 Y52.8772
G01 X1.8519 Y52.8731
G01 X1.8605 Y52.8732
G01 X1.9438 Y52.8772
G00 Z1.0000
G00 X1.0933 Y54.5418
G01 F300.00
G01 Z-0.1000
G01 F600.00
G01 X1.2337 Y54.6699
G01 X1.3953 Y54.7699
G01 X1.5726 Y54.8386
G01 X1.7594 Y54.8735
G01 X1.9494 Y54.8735
G01 X2.1362 Y54.8386
G01 X2.3135 Y54.7699
G01 X2.4750 Y54.6699
G01 X2.6155 Y54.5418
G01 X2.7300 Y54.3902
G01 X2.8147 Y54.2200
G01 X2.8668 Y54.0372
G01 X2.8843 Y53.8480
G01 X2.8668 Y53.6588
G01 X2.8147 Y53.4760
G01 X2.7300 Y53.3058
G01 X2.6155 Y53.1542
G01 X2.4750 Y53.0261
G01 X2.3135 Y52.9261
G01 X2.1362 Y52.8574
G01 X1.9494 Y52.8225
G01 X1.7594 Y52.8225
G01 X1.5726 Y52.8574
G01 X1.3953 Y52.9261
G01 X1.2338 Y53.0261
G01 X1.0933 Y53.1542
G01 X0.9788 Y53.3058
G01 X0.8941 Y53.4760
G01 X0.8420 Y53.6588
G01 X0.8245 Y53.8480
G01 X0.8420 Y54.0372
G01 X0.8941 Y54.2200
G01 X0.9788 Y54.3902
G01 X1.0933 Y54.5418
G00 Z1.0000
G00 X1.9438 Y55.4172
G01 F300.00
G01 Z-0.1000
G01 F600.00
G01 X1.9561 Y55.4184
G01 X2.0422 Y55.4313
G01 X2.0506 Y55.4331
G01 X2.1351 Y55.4543
G01 X2.1433 Y55.4569
G01 X2.2252 Y55.4863
G01 X2.2331 Y55.4897
G01 X2.3118 Y55.5270
G01 X2.3194 Y55.5312
G01 X2.3940 Y55.5760
G01 X2.4011 Y55.5808
G01 X2.4710 Y55.6328
G01 X2.4776 Y55.6383
G01 X2.5421 Y55.6969
G01 X2.5481 Y55.7030
G01 X2.6065 Y55.7676
G01 X2.6119 Y55.7743
G01 X2.6637 Y55.8443
G01 X2.6684 Y55.8515
G01 X2.7131 Y55.9263
G01 X2.7170 Y55.9339
G01 X2.7542 Y56.0126
G01 X2.7574 Y56.0206
G01 X2.7866 Y56.1026
G01 X2.7891 Y56.1109
G01 X2.8101 Y56.1954
G01 X2.8117 Y56.2038
G01 X2.8244 Y56.2900
G01 X2.8252 Y56.2986
G01 X2.8293 Y56.3855
G01 X2.8292 Y56.3941
G01 X2.8249 Y56.4811
G01 X2.8240 Y56.4897
G01 X2.8111 Y56.5758
G01 X2.8093 Y56.5842
G01 X2.7881 Y56.6687
G01 X2.7855 Y56.6769
G01 X2.7561 Y56.7588
G01 X2.7527 Y56.7667
G01 X2.7154 Y56.8454
G01 X2.7112 Y56.8530
G01 X2.6664 Y56.9276
G01 X2.6616 Y56.9347
G01 X2.6096 Y57.0046
G01 X2.6041 Y57.0112
G01 X2.5455 Y57.0757
G01 X2.5394 Y57.0817
G01 X2.4748 Y57.1401
G01 X2.4681 Y57.1455
G01 X2.3981 Y57.1973
G01 X2.3909 Y57.2020
G01 X2.3161 Y57.2467
G01 X2.3085 Y57.2506
G01 X2.2298 Y57.2878
G01 X2.2218 Y57.2910
G01 X2.1398 Y57.3202
G01 X2.1315 Y57.3227
G01 X2.0470 Y57.3437
G01 X2.0386 Y57.3453
G01 X1.9524 Y57.3580
G01 X1.9438 Y57.3588
G01 X1.8569 Y57.3629
G01 X1.8483 Y57.3628
G01 X1.7613 Y57.3585
G01 X1.7527 Y57.3576
G01 X1.6666 Y57.3447
G01 X1.6582 Y57.3429
G01 X1.5737 Y57.3217
G01 X1.5655 Y57.3191
G01 X1.4836 Y57.2897
G01 X1.4757 Y57.2863
G01 X1.3970 Y57.2490
G01 X1.3894 Y57.2448
G01 X1.3148 Y57.2000
G01 X1.3077 Y57.1952
G01 X1.2378 Y57.1432
G01 X1.2312 Y57.1377
G01 X1.1667 Y57.0791
G01 X1.1607 Y57.0730
G01 X1.1023 Y57.0084
G01 X1.0969 Y57.0017
G01 X1.0451 Y56.9317
G01 X1.0404 Y56.9245
G01 X0.9957 Y56.8497
G01 X0.9918 Y56.8421
G01 X0.9546 Y56.7634
G01 X0.9514 Y56.7554
G01 X0.9222 Y56.6734
G01 X0.9197 Y56.6651
G01 X0.8987 Y56.5806
G01 X0.8971 Y56.5722
G01 X0.8844 Y56.4860
G01 X0.8836 Y56.4774
G01 X0.8795 Y56.3905
G01 X0.8796 Y56.3819
G01 X0.8839 Y56.2949
G01 X0.8848 Y56.2863
G01 X0.8977 Y56.2002
G01 X0.8995 Y56.1918
G01 X0.9207 Y56.1073
G01 X0.9233 Y56.0991
G01 X0.9527 Y56.0172
G01 X0.9561 Y56.0093
G01 X0.9934 Y55.9306
G01 X0.9976 Y55.9230
G01 X1.0424 Y55.8484
G01 X1.0472 Y55.8413
G01 X1.0992 Y55.7714
G01 X1.1047 Y55.7648
G01 X1.1633 Y55.7003
G01 X1.1694 Y55.6943
G01 X1.2340 Y55.6359
G01 X1.2407 Y55.6305
G01 X1.3107 Y55.5787
G01 X1.3179 Y55.5740
G01 X1.3927 Y55.5293
G01 X1.4003 Y55.5254
G01 X1.4790 Y55.4882
G01 X1.4870 Y55.4850
G01 X1.5690 Y55.4558
G01 X1.5773 Y55.4533
G01 X1.6618 Y55.4323
G01 X1.6702 Y55.4307
G01 X1.7564 Y55.4180
G01 X1.7650 Y55.4172
G01 X1.8519 Y55.4131
G01 X1.8605 Y55.4132
G01 X1.9438 Y55.4172
G00 Z1.0000
G00 X1.0933 Y57.0818
G01 F300.00
G01 Z-0.1000
G01 F600.00
G01 X1.2337 Y57.2099
G01 X1.3953 Y57.3099
G01 X1.5726 Y57.3786
G01 X1.7594 Y57.4135
G01 X1.9494 Y57.4135
G01 X2.1362 Y57.3786
G01 X2.3135 Y57.3099
G01 X2.4750 Y57.2099
G01 X2.6155 Y57.0818
G01 X2.7300 Y56.9302
G01 X2.8147 Y56.7600
G01 X2.8668 Y56.5772
G01 X2.8843 Y56.3880
G01 X2.8668 Y56.1988
G01 X2.8147 Y56.0160
G01 X2.7300 Y55.8458
G01 X2.6155 Y55.6942
G01 X2.4750 Y55.5661
G01 X2.3135 Y55.4661
G01 X2.1362 Y55.3974
G01 X1.9494 Y55.3625
G01 X1.7594 Y55.3625
G01 X1.5726 Y55.3974
G01 X1.3953 Y55.4661
G01 X1.2338 Y55.5661
G01 X1.0933 Y55.6942
G01 X0.9788 Y55.8458
G01 X0.8941 Y56.0160
G01 X0.8420 Y56.1988
G01 X0.8245 Y56.3880
G01 X0.8420 Y56.5772
G01 X0.8941 Y56.7600
G01 X0.9788 Y56.9302
G01 X1.0933 Y57.0818
G00 Z1.0000
G00 X1.9438 Y57.9572
G01 F300.00
G01 Z-0.1000
G01 F600.00
G01 X1.9561 Y57.9584
G01 X2.0422 Y57.9713
G01 X2.0506 Y57.9731
G01 X2.1351 Y57.9943
G01 X2.1433 Y57.9969
G01 X2.2252 Y58.0263
G01 X2.2331 Y58.0297
G01 X2.3118 Y58.0670
G01 X2.3194 Y58.0712
G01 X2.3940 Y58.1160
G01 X2.4011 Y58.1208
G01 X2.4710 Y58.1728
G01 X2.4776 Y58.1783
G01 X2.5421 Y58.2369
G01 X2.5481 Y58.2430
G01 X2.6065 Y58.3076
G01 X2.6119 Y58.3143
G01 X2.6637 Y58.3843
G01 X2.6684 Y58.3915
G01 X2.7131 Y58.4663
G01 X2.7170 Y58.4739
G01 X2.7542 Y58.5526
G01 X2.7574 Y58.5606
G01 X2.7866 Y58.6426
G01 X2.7891 Y58.6509
G01 X2.8101 Y58.7354
G01 X2.8117 Y58.7438
G01 X2.8244 Y58.8300
G01 X2.8252 Y58.8386
G01 X2.8293 Y58.9255
G01 X2.8292 Y58.9341
G01 X2.8249 Y59.0211
G01 X2.8240 Y59.0297
G01 X2.8111 Y59.1158
G01 X2.8093 Y59.1242
G01 X2.7881 Y59.2087
G01 X2.7855 Y59.2169
G01 X2.7561 Y59.2988
G01 X2.7527 Y59.3067
G01 X2.7154 Y59.3854
G01 X2.7112 Y59.3930
G01 X2.6664 Y59.4676
G01 X2.6616 Y59.4747
G01 X2.6096 Y59.5446
G01 X2.6041 Y59.5512
G01 X2.5455 Y59.6157
G01 X2.5394 Y59.6217
G01 X2.4748 Y59.6801
G01 X2.4681 Y59.6855
G01 X2.3981 Y59.7373
G01 X2.3909 Y59.7420
G01 X2.3161 Y59.7867
G01 X2.3085 Y59.7906
G01 X2.2298 Y59.8278
G01 X2.2218 Y59.8310
G01 X2.1398 Y59.8602
G01 X2.1315 Y59.8627
G01 X2.0470 Y59.8837
G01 X2.0386 Y59.8853
G01 X1.9524 Y59.8980
G01 X1.9438 Y59.8988
G01 X1.8569 Y59.9029
G01 X1.8483 Y59.9028
G01 X1.7613 Y59.8985
G01 X1.7527 Y59.8976
G01 X1.6666 Y59.8847
G01 X1.6582 Y59.8829
G01 X1.5737 Y59.8617
G01 X1.5655 Y59.8591
G01 X1.4836 Y59.8297
G01 X1.4757 Y59.8263
G01 X1.3970 Y59.7890
G01 X1.3894 Y59.7848
G01 X1.3148 Y59.7400
G01 X1.3077 Y59.7352
G01 X1.2378 Y59.6832
G01 X1.2312 Y59.6777
G01 X1.1667 Y59.6191
G01 X1.1607 Y59.6130
G01 X1.1023 Y59.5484
G01 X1.0969 Y59.5417
G01 X1.0451 Y59.4717
G01 X1.0404 Y59.4645
G01 X0.9957 Y59.3897
G01 X0.9918 Y59.3821
G01 X0.9546 Y59.3034
G01 X0.9514 Y59.2954
G01 X0.9222 Y59.2134
G01 X0.9197 Y59.2051
G01 X0.8987 Y59.1206
G01 X0.8971 Y59.1122
G01 X0.8844 Y59.0260
G01 X0.8836 Y59.0174
G01 X0.8795 Y58.9305
G01 X0.8796 Y58.9219
G01 X0.8839 Y58.8349
G01 X0.8848 Y58.8263
G01 X0.8977 Y58.7402
G01 X0.8995 Y58.7318
G01 X0.9207 Y58.6473
G01 X0.9233 Y58.6391
G01 X0.9527 Y58.5572
G01 X0.9561 Y58.5493
G01 X0.9934 Y58.4706
G01 X0.9976 Y58.4630
G01 X1.0424 Y58.3884
G01 X1.0472 Y58.3813
G01 X1.0992 Y58.3114
G01 X1.1047 Y58.3048
G01 X1.1633 Y58.2403
G01 X1.1694 Y58.2343
G01 X1.2340 Y58.1759
G01 X1.2407 Y58.1705
G01 X1.3107 Y58.1187
G01 X1.3179 Y58.1140
G01 X1.3927 Y58.0693
G01 X1.4003 Y58.0654
G01 X1.4790 Y58.0282
