(G-CODE GENERATED BY FLATCAM v8.994 - www.flatcam.org - Version Date: 2020/11/7)

(Name: hack_soc_shield-F_Mask.gbr_iso_combined_mt_paint_cnc)
(Type: G-code from Geometry)
(Units: MM)

(Created on Saturday, 27 January 2024 at 10:31)

(This preprocessor is the default preprocessor used by FlatCAM.)
(It is made to work with MACH3 compatible motion controllers.)

(TOOL DIAMETER: 0.7 mm)
(Feedrate_XY: 1000.0 mm/min)
(Feedrate_Z: 400.0 mm/min)
(Feedrate rapids 3000.0 mm/min)

(Z_Cut: 0.0 mm)
(Z_Move: 1.0 mm)
(Z Start: None mm)
(Z End: 15.0 mm)
(X,Y End: None mm)
(Steps per circle: 64)
(Preprocessor Geometry: default)

(X range:    1.2040 ...   74.9956  mm)
(Y range:    2.2966 ...   72.4304  mm)

(Spindle Speed: 0.0 RPM)
G21
G90
G94

G01 F1000.00

M5
G00 Z15.0000
G00 X0.0000 Y0.0000
T3
M6    
(MSG, Change to Tool Dia = 0.7000)
M0
G00 Z15.0000

M03
G01 F1000.00
G00 X1.2042 Y2.9464
G01 F400.00
G01 Z0.0000
G01 F1000.00
G01 X1.2074 Y3.0101
G01 X1.2167 Y3.0732
G01 X1.2322 Y3.1350
G01 X1.2537 Y3.1951
G01 X1.2810 Y3.2527
G01 X1.3137 Y3.3074
G01 X1.3517 Y3.3586
G01 X1.3946 Y3.4058
G01 X1.4418 Y3.4487
G01 X1.4930 Y3.4867
G01 X1.5477 Y3.5194
G01 X1.6053 Y3.5467
G01 X1.6654 Y3.5682
G01 X1.7272 Y3.5837
G01 X1.7903 Y3.5930
G01 X1.8540 Y3.5962
G01 X1.9177 Y3.5930
G01 X1.9808 Y3.5837
G01 X2.0426 Y3.5682
G01 X2.1027 Y3.5467
G01 X2.1603 Y3.5194
G01 X2.2150 Y3.4867
G01 X2.2662 Y3.4487
G01 X2.3134 Y3.4058
G01 X2.3563 Y3.3586
G01 X2.3943 Y3.3074
G01 X2.4270 Y3.2527
G01 X2.4543 Y3.1951
G01 X2.4758 Y3.1350
G01 X2.4913 Y3.0732
G01 X2.5006 Y3.0101
G01 X2.5038 Y2.9464
G01 X2.5006 Y2.8827
G01 X2.4913 Y2.8196
G01 X2.4758 Y2.7578
G01 X2.4543 Y2.6977
G01 X2.4270 Y2.6401
G01 X2.3943 Y2.5854
G01 X2.3563 Y2.5342
G01 X2.3134 Y2.4870
G01 X2.2662 Y2.4441
G01 X2.2150 Y2.4061
G01 X2.1603 Y2.3734
G01 X2.1027 Y2.3461
G01 X2.0426 Y2.3246
G01 X1.9808 Y2.3091
G01 X1.9177 Y2.2998
G01 X1.8540 Y2.2966
G01 X1.7904 Y2.2998
G01 X1.7272 Y2.3091
G01 X1.6654 Y2.3246
G01 X1.6053 Y2.3461
G01 X1.5477 Y2.3734
G01 X1.4930 Y2.4061
G01 X1.4418 Y2.4441
G01 X1.3946 Y2.4870
G01 X1.3517 Y2.5342
G01 X1.3137 Y2.5854
G01 X1.2810 Y2.6401
G01 X1.2537 Y2.6977
G01 X1.2322 Y2.7578
G01 X1.2167 Y2.8196
G01 X1.2074 Y2.8827
G01 X1.2042 Y2.9464
G00 Z1.0000
G00 X1.2042 Y2.9464
G01 F400.00
G01 Z0.0000
G01 F1000.00
G01 X1.6047 Y2.9464
G00 Z1.0000
G00 X1.6047 Y2.9464
G01 F400.00
G01 Z0.0000
G01 F1000.00
G01 X1.6059 Y2.9708
G01 X1.6095 Y2.9950
G01 X1.6155 Y3.0188
G01 X1.6237 Y3.0418
G01 X1.6342 Y3.0639
G01 X1.6467 Y3.0849
G01 X1.6613 Y3.1045
G01 X1.6777 Y3.1227
G01 X1.6959 Y3.1391
G01 X1.7155 Y3.1537
G01 X1.7365 Y3.1662
G01 X1.7586 Y3.1767
G01 X1.7816 Y3.1849
G01 X1.8054 Y3.1909
G01 X1.8296 Y3.1945
G01 X1.8540 Y3.1957
G01 X1.8784 Y3.1945
G01 X1.9026 Y3.1909
G01 X1.9264 Y3.1849
G01 X1.9494 Y3.1767
G01 X1.9715 Y3.1662
G01 X1.9925 Y3.1537
G01 X2.0121 Y3.1391
G01 X2.0303 Y3.1227
G01 X2.0467 Y3.1045
G01 X2.0613 Y3.0849
G01 X2.0738 Y3.0639
G01 X2.0843 Y3.0418
G01 X2.0925 Y3.0188
G01 X2.0985 Y2.9950
G01 X2.1021 Y2.9708
G01 X2.1033 Y2.9464
G01 X2.1021 Y2.9220
G01 X2.0985 Y2.8978
G01 X2.0925 Y2.8740
G01 X2.0843 Y2.8510
G01 X2.0738 Y2.8289
G01 X2.0613 Y2.8079
G01 X2.0467 Y2.7883
G01 X2.0303 Y2.7701
G01 X2.0121 Y2.7537
G01 X1.9925 Y2.7391
G01 X1.9715 Y2.7266
G01 X1.9494 Y2.7161
G01 X1.9264 Y2.7079
G01 X1.9026 Y2.7019
G01 X1.8784 Y2.6983
G01 X1.8540 Y2.6971
G01 X1.8297 Y2.6983
G01 X1.8053 Y2.7019
G01 X1.7816 Y2.7079
G01 X1.7586 Y2.7161
G01 X1.7365 Y2.7266
G01 X1.7155 Y2.7391
G01 X1.6959 Y2.7537
G01 X1.6777 Y2.7701
G01 X1.6613 Y2.7883
G01 X1.6467 Y2.8079
G01 X1.6342 Y2.8289
G01 X1.6237 Y2.8510
G01 X1.6155 Y2.8740
G01 X1.6095 Y2.8978
G01 X1.6059 Y2.9220
G01 X1.6047 Y2.9464
G00 Z1.0000
G00 X1.6047 Y5.4864
G01 F400.00
G01 Z0.0000
G01 F1000.00
G01 X1.2042 Y5.4864
G00 Z1.0000
G00 X1.6047 Y5.4864
G01 F400.00
G01 Z0.0000
G01 F1000.00
G01 X1.6059 Y5.5108
G01 X1.6095 Y5.5350
G01 X1.6155 Y5.5588
G01 X1.6237 Y5.5818
G01 X1.6342 Y5.6039
G01 X1.6467 Y5.6249
G01 X1.6613 Y5.6445
G01 X1.6777 Y5.6627
G01 X1.6959 Y5.6791
G01 X1.7155 Y5.6937
G01 X1.7365 Y5.7062
G01 X1.7586 Y5.7167
G01 X1.7816 Y5.7249
G01 X1.8054 Y5.7309
G01 X1.8296 Y5.7345
G01 X1.8540 Y5.7357
G01 X1.8784 Y5.7345
G01 X1.9026 Y5.7309
G01 X1.9264 Y5.7249
G01 X1.9494 Y5.7167
G01 X1.9715 Y5.7062
G01 X1.9925 Y5.6937
G01 X2.0121 Y5.6791
G01 X2.0303 Y5.6627
G01 X2.0467 Y5.6445
G01 X2.0613 Y5.6249
G01 X2.0738 Y5.6039
G01 X2.0843 Y5.5818
G01 X2.0925 Y5.5588
G01 X2.0985 Y5.5350
G01 X2.1021 Y5.5108
G01 X2.1033 Y5.4864
G01 X2.1021 Y5.4620
G01 X2.0985 Y5.4378
G01 X2.0925 Y5.4140
G01 X2.0843 Y5.3910
G01 X2.0738 Y5.3689
G01 X2.0613 Y5.3479
G01 X2.0467 Y5.3283
G01 X2.0303 Y5.3101
G01 X2.0121 Y5.2937
G01 X1.9925 Y5.2791
G01 X1.9715 Y5.2666
G01 X1.9494 Y5.2561
G01 X1.9264 Y5.2479
G01 X1.9026 Y5.2419
G01 X1.8784 Y5.2383
G01 X1.8540 Y5.2371
G01 X1.8297 Y5.2383
G01 X1.8053 Y5.2419
G01 X1.7816 Y5.2479
G01 X1.7586 Y5.2561
G01 X1.7365 Y5.2666
G01 X1.7155 Y5.2791
G01 X1.6959 Y5.2937
G01 X1.6777 Y5.3101
G01 X1.6613 Y5.3283
G01 X1.6467 Y5.3479
G01 X1.6342 Y5.3689
G01 X1.6237 Y5.3910
G01 X1.6155 Y5.4140
G01 X1.6095 Y5.4378
G01 X1.6059 Y5.4620
G01 X1.6047 Y5.4864
G00 Z1.0000
G00 X1.2042 Y5.4864
G01 F400.00
G01 Z0.0000
G01 F1000.00
G01 X1.2074 Y5.5501
G01 X1.2167 Y5.6132
G01 X1.2322 Y5.6750
G01 X1.2537 Y5.7351
G01 X1.2810 Y5.7927
G01 X1.3137 Y5.8474
G01 X1.3517 Y5.8986
G01 X1.3946 Y5.9458
G01 X1.4418 Y5.9887
G01 X1.4930 Y6.0267
G01 X1.5477 Y6.0594
G01 X1.6053 Y6.0867
G01 X1.6654 Y6.1082
G01 X1.7272 Y6.1237
G01 X1.7903 Y6.1330
G01 X1.8540 Y6.1362
G01 X1.9177 Y6.1330
G01 X1.9808 Y6.1237
G01 X2.0426 Y6.1082
G01 X2.1027 Y6.0867
G01 X2.1603 Y6.0594
G01 X2.2150 Y6.0267
G01 X2.2662 Y5.9887
G01 X2.3134 Y5.9458
G01 X2.3563 Y5.8986
G01 X2.3943 Y5.8474
G01 X2.4270 Y5.7927
G01 X2.4543 Y5.7351
G01 X2.4758 Y5.6750
G01 X2.4913 Y5.6132
G01 X2.5006 Y5.5501
G01 X2.5038 Y5.4864
G01 X2.5006 Y5.4227
G01 X2.4913 Y5.3596
G01 X2.4758 Y5.2978
G01 X2.4543 Y5.2377
G01 X2.4270 Y5.1801
G01 X2.3943 Y5.1254
G01 X2.3563 Y5.0742
G01 X2.3134 Y5.0270
G01 X2.2662 Y4.9841
G01 X2.2150 Y4.9461
G01 X2.1603 Y4.9134
G01 X2.1027 Y4.8861
G01 X2.0426 Y4.8646
G01 X1.9808 Y4.8491
G01 X1.9177 Y4.8398
G01 X1.8540 Y4.8366
G01 X1.7904 Y4.8398
G01 X1.7272 Y4.8491
G01 X1.6654 Y4.8646
G01 X1.6053 Y4.8861
G01 X1.5477 Y4.9134
G01 X1.4930 Y4.9461
G01 X1.4418 Y4.9841
G01 X1.3946 Y5.0270
G01 X1.3517 Y5.0742
G01 X1.3137 Y5.1254
G01 X1.2810 Y5.1801
G01 X1.2537 Y5.2377
G01 X1.2322 Y5.2978
G01 X1.2167 Y5.3596
G01 X1.2074 Y5.4227
G01 X1.2042 Y5.4864
G00 Z1.0000
G00 X1.2042 Y8.0264
G01 F400.00
G01 Z0.0000
G01 F1000.00
G01 X1.2074 Y8.0901
G01 X1.2167 Y8.1532
G01 X1.2322 Y8.2150
G01 X1.2537 Y8.2751
G01 X1.2810 Y8.3327
G01 X1.3137 Y8.3874
G01 X1.3517 Y8.4386
G01 X1.3946 Y8.4858
G01 X1.4418 Y8.5287
G01 X1.4930 Y8.5667
G01 X1.5477 Y8.5994
G01 X1.6053 Y8.6267
G01 X1.6654 Y8.6482
G01 X1.7272 Y8.6637
G01 X1.7903 Y8.6730
G01 X1.8540 Y8.6762
G01 X1.9177 Y8.6730
G01 X1.9808 Y8.6637
G01 X2.0426 Y8.6482
G01 X2.1027 Y8.6267
G01 X2.1603 Y8.5994
G01 X2.2150 Y8.5667
G01 X2.2662 Y8.5287
G01 X2.3134 Y8.4858
G01 X2.3563 Y8.4386
G01 X2.3943 Y8.3874
G01 X2.4270 Y8.3327
G01 X2.4543 Y8.2751
G01 X2.4758 Y8.2150
G01 X2.4913 Y8.1532
G01 X2.5006 Y8.0901
G01 X2.5038 Y8.0264
G01 X2.5006 Y7.9627
G01 X2.4913 Y7.8996
G01 X2.4758 Y7.8378
G01 X2.4543 Y7.7777
G01 X2.4270 Y7.7201
G01 X2.3943 Y7.6654
G01 X2.3563 Y7.6142
G01 X2.3134 Y7.5670
G01 X2.2662 Y7.5241
G01 X2.2150 Y7.4861
G01 X2.1603 Y7.4534
G01 X2.1027 Y7.4261
G01 X2.0426 Y7.4046
G01 X1.9808 Y7.3891
G01 X1.9177 Y7.3798
G01 X1.8540 Y7.3766
G01 X1.7904 Y7.3798
G01 X1.7272 Y7.3891
G01 X1.6654 Y7.4046
G01 X1.6053 Y7.4261
G01 X1.5477 Y7.4534
G01 X1.4930 Y7.4861
G01 X1.4418 Y7.5241
G01 X1.3946 Y7.5670
G01 X1.3517 Y7.6142
G01 X1.3137 Y7.6654
G01 X1.2810 Y7.7201
G01 X1.2537 Y7.7777
G01 X1.2322 Y7.8378
G01 X1.2167 Y7.8996
G01 X1.2074 Y7.9627
G01 X1.2042 Y8.0264
G00 Z1.0000
G00 X1.2042 Y8.0264
G01 F400.00
G01 Z0.0000
G01 F1000.00
G01 X1.6047 Y8.0264
G00 Z1.0000
G00 X1.6047 Y8.0264
G01 F400.00
G01 Z0.0000
G01 F1000.00
G01 X1.6059 Y8.0508
G01 X1.6095 Y8.0750
G01 X1.6155 Y8.0988
G01 X1.6237 Y8.1218
G01 X1.6342 Y8.1439
G01 X1.6467 Y8.1649
G01 X1.6613 Y8.1845
G01 X1.6777 Y8.2027
G01 X1.6959 Y8.2191
G01 X1.7155 Y8.2337
G01 X1.7365 Y8.2462
G01 X1.7586 Y8.2567
G01 X1.7816 Y8.2649
G01 X1.8054 Y8.2709
G01 X1.8296 Y8.2745
G01 X1.8540 Y8.2757
G01 X1.8784 Y8.2745
G01 X1.9026 Y8.2709
G01 X1.9264 Y8.2649
G01 X1.9494 Y8.2567
G01 X1.9715 Y8.2462
G01 X1.9925 Y8.2337
G01 X2.0121 Y8.2191
G01 X2.0303 Y8.2027
G01 X2.0467 Y8.1845
G01 X2.0613 Y8.1649
G01 X2.0738 Y8.1439
G01 X2.0843 Y8.1218
G01 X2.0925 Y8.0988
G01 X2.0985 Y8.0750
G01 X2.1021 Y8.0508
G01 X2.1033 Y8.0264
G01 X2.1021 Y8.0020
G01 X2.0985 Y7.9778
G01 X2.0925 Y7.9540
G01 X2.0843 Y7.9310
G01 X2.0738 Y7.9089
G01 X2.0613 Y7.8879
G01 X2.0467 Y7.8683
G01 X2.0303 Y7.8501
G01 X2.0121 Y7.8337
G01 X1.9925 Y7.8191
G01 X1.9715 Y7.8066
G01 X1.9494 Y7.7961
G01 X1.9264 Y7.7879
G01 X1.9026 Y7.7819
G01 X1.8784 Y7.7783
G01 X1.8540 Y7.7771
G01 X1.8297 Y7.7783
G01 X1.8053 Y7.7819
G01 X1.7816 Y7.7879
G01 X1.7586 Y7.7961
G01 X1.7365 Y7.8066
G01 X1.7155 Y7.8191
G01 X1.6959 Y7.8337
G01 X1.6777 Y7.8501
G01 X1.6613 Y7.8683
G01 X1.6467 Y7.8879
G01 X1.6342 Y7.9089
G01 X1.6237 Y7.9310
G01 X1.6155 Y7.9540
G01 X1.6095 Y7.9778
G01 X1.6059 Y8.0020
G01 X1.6047 Y8.0264
G00 Z1.0000
G00 X1.6047 Y10.5664
G01 F400.00
G01 Z0.0000
G01 F1000.00
G01 X1.6059 Y10.5908
G01 X1.6095 Y10.6150
G01 X1.6155 Y10.6388
G01 X1.6237 Y10.6618
G01 X1.6342 Y10.6839
G01 X1.6467 Y10.7049
G01 X1.6613 Y10.7245
G01 X1.6777 Y10.7427
G01 X1.6959 Y10.7591
G01 X1.7155 Y10.7737
G01 X1.7365 Y10.7862
G01 X1.7586 Y10.7967
G01 X1.7816 Y10.8049
G01 X1.8054 Y10.8109
G01 X1.8296 Y10.8145
G01 X1.8540 Y10.8157
G01 X1.8784 Y10.8145
G01 X1.9026 Y10.8109
G01 X1.9264 Y10.8049
G01 X1.9494 Y10.7967
G01 X1.9715 Y10.7862
G01 X1.9925 Y10.7737
G01 X2.0121 Y10.7591
G01 X2.0303 Y10.7427
G01 X2.0467 Y10.7245
G01 X2.0613 Y10.7049
G01 X2.0738 Y10.6839
G01 X2.0843 Y10.6618
G01 X2.0925 Y10.6388
G01 X2.0985 Y10.6150
G01 X2.1021 Y10.5908
G01 X2.1033 Y10.5664
G01 X2.1021 Y10.5420
G01 X2.0985 Y10.5178
G01 X2.0925 Y10.4940
G01 X2.0843 Y10.4710
G01 X2.0738 Y10.4489
G01 X2.0613 Y10.4279
G01 X2.0467 Y10.4083
G01 X2.0303 Y10.3901
G01 X2.0121 Y10.3737
G01 X1.9925 Y10.3591
G01 X1.9715 Y10.3466
G01 X1.9494 Y10.3361
G01 X1.9264 Y10.3279
G01 X1.9026 Y10.3219
G01 X1.8784 Y10.3183
G01 X1.8540 Y10.3171
G01 X1.8297 Y10.3183
G01 X1.8053 Y10.3219
G01 X1.7816 Y10.3279
G01 X1.7586 Y10.3361
G01 X1.7365 Y10.3466
G01 X1.7155 Y10.3591
G01 X1.6959 Y10.3737
G01 X1.6777 Y10.3901
G01 X1.6613 Y10.4083
G01 X1.6467 Y10.4279
G01 X1.6342 Y10.4489
G01 X1.6237 Y10.4710
G01 X1.6155 Y10.4940
G01 X1.6095 Y10.5178
G01 X1.6059 Y10.5420
G01 X1.6047 Y10.5664
G00 Z1.0000
G00 X1.6047 Y10.5664
G01 F400.00
G01 Z0.0000
G01 F1000.00
G01 X1.2042 Y10.5664
G00 Z1.0000
G00 X1.2042 Y10.5664
G01 F400.00
G01 Z0.0000
G01 F1000.00
G01 X1.2074 Y10.6301
G01 X1.2167 Y10.6932
G01 X1.2322 Y10.7550
G01 X1.2537 Y10.8151
G01 X1.2810 Y10.8727
G01 X1.3137 Y10.9274
G01 X1.3517 Y10.9786
G01 X1.3946 Y11.0258
G01 X1.4418 Y11.0687
G01 X1.4930 Y11.1067
G01 X1.5477 Y11.1394
G01 X1.6053 Y11.1667
G01 X1.6654 Y11.1882
G01 X1.7272 Y11.2037
G01 X1.7903 Y11.2130
G01 X1.8540 Y11.2162
G01 X1.9177 Y11.2130
G01 X1.9808 Y11.2037
G01 X2.0426 Y11.1882
G01 X2.1027 Y11.1667
G01 X2.1603 Y11.1394
G01 X2.2150 Y11.1067
G01 X2.2662 Y11.0687
G01 X2.3134 Y11.0258
G01 X2.3563 Y10.9786
G01 X2.3943 Y10.9274
G01 X2.4270 Y10.8727
G01 X2.4543 Y10.8151
G01 X2.4758 Y10.7550
G01 X2.4913 Y10.6932
G01 X2.5006 Y10.6301
G01 X2.5038 Y10.5664
G01 X2.5006 Y10.5027
G01 X2.4913 Y10.4396
G01 X2.4758 Y10.3778
G01 X2.4543 Y10.3177
G01 X2.4270 Y10.2601
G01 X2.3943 Y10.2054
G01 X2.3563 Y10.1542
G01 X2.3134 Y10.1070
G01 X2.2662 Y10.0641
G01 X2.2150 Y10.0261
G01 X2.1603 Y9.9934
G01 X2.1027 Y9.9661
G01 X2.0426 Y9.9446
G01 X1.9808 Y9.9291
G01 X1.9177 Y9.9198
G01 X1.8540 Y9.9166
G01 X1.7904 Y9.9198
G01 X1.7272 Y9.9291
G01 X1.6654 Y9.9446
G01 X1.6053 Y9.9661
G01 X1.5477 Y9.9934
G01 X1.4930 Y10.0261
G01 X1.4418 Y10.0641
G01 X1.3946 Y10.1070
G01 X1.3517 Y10.1542
G01 X1.3137 Y10.2054
G01 X1.2810 Y10.2601
G01 X1.2537 Y10.3177
G01 X1.2322 Y10.3778
G01 X1.2167 Y10.4396
G01 X1.2074 Y10.5027
G01 X1.2042 Y10.5664
G00 Z1.0000
G00 X1.2042 Y13.1064
G01 F400.00
G01 Z0.0000
G01 F1000.00
G01 X1.2074 Y13.1701
G01 X1.2167 Y13.2332
G01 X1.2322 Y13.2950
G01 X1.2537 Y13.3551
G01 X1.2810 Y13.4127
G01 X1.3137 Y13.4674
G01 X1.3517 Y13.5186
G01 X1.3946 Y13.5658
G01 X1.4418 Y13.6087
G01 X1.4930 Y13.6467
G01 X1.5477 Y13.6794
G01 X1.6053 Y13.7067
G01 X1.6654 Y13.7282
G01 X1.7272 Y13.7437
G01 X1.7903 Y13.7530
G01 X1.8540 Y13.7562
G01 X1.9177 Y13.7530
G01 X1.9808 Y13.7437
G01 X2.0426 Y13.7282
G01 X2.1027 Y13.7067
G01 X2.1603 Y13.6794
G01 X2.2150 Y13.6467
G01 X2.2662 Y13.6087
G01 X2.3134 Y13.5658
G01 X2.3563 Y13.5186
G01 X2.3943 Y13.4674
G01 X2.4270 Y13.4127
G01 X2.4543 Y13.3551
G01 X2.4758 Y13.2950
G01 X2.4913 Y13.2332
G01 X2.5006 Y13.1701
G01 X2.5038 Y13.1064
G01 X2.5006 Y13.0427
G01 X2.4913 Y12.9796
G01 X2.4758 Y12.9178
G01 X2.4543 Y12.8577
G01 X2.4270 Y12.8001
G01 X2.3943 Y12.7454
G01 X2.3563 Y12.6942
G01 X2.3134 Y12.6470
G01 X2.2662 Y12.6041
G01 X2.2150 Y12.5661
G01 X2.1603 Y12.5334
G01 X2.1027 Y12.5061
G01 X2.0426 Y12.4846
G01 X1.9808 Y12.4691
G01 X1.9177 Y12.4598
G01 X1.8540 Y12.4566
G01 X1.7904 Y12.4598
G01 X1.7272 Y12.4691
G01 X1.6654 Y12.4846
G01 X1.6053 Y12.5061
G01 X1.5477 Y12.5334
G01 X1.4930 Y12.5661
G01 X1.4418 Y12.6041
G01 X1.3946 Y12.6470
G01 X1.3517 Y12.6942
G01 X1.3137 Y12.7454
G01 X1.2810 Y12.8001
G01 X1.2537 Y12.8577
G01 X1.2322 Y12.9178
G01 X1.2167 Y12.9796
G01 X1.2074 Y13.0427
G01 X1.2042 Y13.1064
G00 Z1.0000
G00 X1.2042 Y13.1064
G01 F400.00
G01 Z0.0000
G01 F1000.00
G01 X1.6047 Y13.1064
G00 Z1.0000
G00 X1.6047 Y13.1064
G01 F400.00
G01 Z0.0000
G01 F1000.00
G01 X1.6059 Y13.1308
G01 X1.6095 Y13.1550
G01 X1.6155 Y13.1788
G01 X1.6237 Y13.2018
G01 X1.6342 Y13.2239
G01 X1.6467 Y13.2449
G01 X1.6613 Y13.2645
G01 X1.6777 Y13.2827
G01 X1.6959 Y13.2991
G01 X1.7155 Y13.3137
G01 X1.7365 Y13.3262
G01 X1.7586 Y13.3367
G01 X1.7816 Y13.3449
G01 X1.8054 Y13.3509
G01 X1.8296 Y13.3545
G01 X1.8540 Y13.3557
G01 X1.8784 Y13.3545
G01 X1.9026 Y13.3509
G01 X1.9264 Y13.3449
G01 X1.9494 Y13.3367
G01 X1.9715 Y13.3262
G01 X1.9925 Y13.3137
G01 X2.0121 Y13.2991
G01 X2.0303 Y13.2827
G01 X2.0467 Y13.2645
G01 X2.0613 Y13.2449
G01 X2.0738 Y13.2239
G01 X2.0843 Y13.2018
G01 X2.0925 Y13.1788
G01 X2.0985 Y13.1550
G01 X2.1021 Y13.1308
G01 X2.1033 Y13.1064
G01 X2.1021 Y13.0820
G01 X2.0985 Y13.0578
G01 X2.0925 Y13.0340
G01 X2.0843 Y13.0110
G01 X2.0738 Y12.9889
G01 X2.0613 Y12.9679
G01 X2.0467 Y12.9483
G01 X2.0303 Y12.9301
G01 X2.0121 Y12.9137
G01 X1.9925 Y12.8991
G01 X1.9715 Y12.8866
G01 X1.9494 Y12.8761
G01 X1.9264 Y12.8679
G01 X1.9026 Y12.8619
G01 X1.8784 Y12.8583
G01 X1.8540 Y12.8571
G01 X1.8297 Y12.8583
G01 X1.8053 Y12.8619
G01 X1.7816 Y12.8679
G01 X1.7586 Y12.8761
G01 X1.7365 Y12.8866
G01 X1.7155 Y12.8991
G01 X1.6959 Y12.9137
G01 X1.6777 Y12.9301
G01 X1.6613 Y12.9483
G01 X1.6467 Y12.9679
G01 X1.6342 Y12.9889
G01 X1.6237 Y13.0110
G01 X1.6155 Y13.0340
G01 X1.6095 Y13.0578
G01 X1.6059 Y13.0820
G01 X1.6047 Y13.1064
G00 Z1.0000
G00 X1.6047 Y15.6464
G01 F400.00
G01 Z0.0000
G01 F1000.00
G01 X1.2042 Y15.6464
G00 Z1.0000
G00 X1.6047 Y15.6464
G01 F400.00
G01 Z0.0000
G01 F1000.00
G01 X1.6059 Y15.6708
G01 X1.6095 Y15.6950
G01 X1.6155 Y15.7188
G01 X1.6237 Y15.7418
G01 X1.6342 Y15.7639
G01 X1.6467 Y15.7849
G01 X1.6613 Y15.8045
G01 X1.6777 Y15.8227
G01 X1.6959 Y15.8391
G01 X1.7155 Y15.8537
G01 X1.7365 Y15.8662
G01 X1.7586 Y15.8767
G01 X1.7816 Y15.8849
G01 X1.8054 Y15.8909
G01 X1.8296 Y15.8945
G01 X1.8540 Y15.8957
G01 X1.8784 Y15.8945
G01 X1.9026 Y15.8909
G01 X1.9264 Y15.8849
G01 X1.9494 Y15.8767
G01 X1.9715 Y15.8662
G01 X1.9925 Y15.8537
G01 X2.0121 Y15.8391
G01 X2.0303 Y15.8227
G01 X2.0467 Y15.8045
G01 X2.0613 Y15.7849
G01 X2.0738 Y15.7639
G01 X2.0843 Y15.7418
G01 X2.0925 Y15.7188
G01 X2.0985 Y15.6950
G01 X2.1021 Y15.6708
G01 X2.1033 Y15.6464
G01 X2.1021 Y15.6220
G01 X2.0985 Y15.5978
G01 X2.0925 Y15.5740
G01 X2.0843 Y15.5510
G01 X2.0738 Y15.5289
G01 X2.0613 Y15.5079
G01 X2.0467 Y15.4883
G01 X2.0303 Y15.4701
G01 X2.0121 Y15.4537
G01 X1.9925 Y15.4391
G01 X1.9715 Y15.4266
G01 X1.9494 Y15.4161
G01 X1.9264 Y15.4079
G01 X1.9026 Y15.4019
G01 X1.8784 Y15.3983
G01 X1.8540 Y15.3971
G01 X1.8297 Y15.3983
G01 X1.8053 Y15.4019
G01 X1.7816 Y15.4079
G01 X1.7586 Y15.4161
G01 X1.7365 Y15.4266
G01 X1.7155 Y15.4391
G01 X1.6959 Y15.4537
G01 X1.6777 Y15.4701
G01 X1.6613 Y15.4883
G01 X1.6467 Y15.5079
G01 X1.6342 Y15.5289
G01 X1.6237 Y15.5510
G01 X1.6155 Y15.5740
G01 X1.6095 Y15.5978
G01 X1.6059 Y15.6220
G01 X1.6047 Y15.6464
G00 Z1.0000
G00 X1.2042 Y15.6464
G01 F400.00
G01 Z0.0000
G01 F1000.00
G01 X1.2074 Y15.7101
G01 X1.2167 Y15.7732
G01 X1.2322 Y15.8350
G01 X1.2537 Y15.8951
G01 X1.2810 Y15.9527
G01 X1.3137 Y16.0074
G01 X1.3517 Y16.0586
G01 X1.3946 Y16.1058
G01 X1.4418 Y16.1487
G01 X1.4930 Y16.1867
G01 X1.5477 Y16.2194
G01 X1.6053 Y16.2467
G01 X1.6654 Y16.2682
G01 X1.7272 Y16.2837
G01 X1.7903 Y16.2930
G01 X1.8540 Y16.2962
G01 X1.9177 Y16.2930
G01 X1.9808 Y16.2837
G01 X2.0426 Y16.2682
G01 X2.1027 Y16.2467
G01 X2.1603 Y16.2194
G01 X2.2150 Y16.1867
G01 X2.2662 Y16.1487
G01 X2.3134 Y16.1058
G01 X2.3563 Y16.0586
G01 X2.3943 Y16.0074
G01 X2.4270 Y15.9527
G01 X2.4543 Y15.8951
G01 X2.4758 Y15.8350
G01 X2.4913 Y15.7732
G01 X2.5006 Y15.7101
G01 X2.5038 Y15.6464
G01 X2.5006 Y15.5827
G01 X2.4913 Y15.5196
G01 X2.4758 Y15.4578
G01 X2.4543 Y15.3977
G01 X2.4270 Y15.3401
G01 X2.3943 Y15.2854
G01 X2.3563 Y15.2342
G01 X2.3134 Y15.1870
G01 X2.2662 Y15.1441
G01 X2.2150 Y15.1061
G01 X2.1603 Y15.0734
G01 X2.1027 Y15.0461
G01 X2.0426 Y15.0246
G01 X1.9808 Y15.0091
G01 X1.9177 Y14.9998
G01 X1.8540 Y14.9966
G01 X1.7904 Y14.9998
G01 X1.7272 Y15.0091
G01 X1.6654 Y15.0246
G01 X1.6053 Y15.0461
G01 X1.5477 Y15.0734
G01 X1.4930 Y15.1061
G01 X1.4418 Y15.1441
G01 X1.3946 Y15.1870
G01 X1.3517 Y15.2342
G01 X1.3137 Y15.2854
G01 X1.2810 Y15.3401
G01 X1.2537 Y15.3977
G01 X1.2322 Y15.4578
G01 X1.2167 Y15.5196
G01 X1.2074 Y15.5827
G01 X1.2042 Y15.6464
G00 Z1.0000
G00 X1.2042 Y18.1864
G01 F400.00
G01 Z0.0000
G01 F1000.00
G01 X1.2074 Y18.2501
G01 X1.2167 Y18.3132
G01 X1.2322 Y18.3750
G01 X1.2537 Y18.4351
G01 X1.2810 Y18.4927
G01 X1.3137 Y18.5474
G01 X1.3517 Y18.5986
G01 X1.3946 Y18.6458
G01 X1.4418 Y18.6887
G01 X1.4930 Y18.7267
G01 X1.5477 Y18.7594
G01 X1.6053 Y18.7867
G01 X1.6654 Y18.8082
G01 X1.7272 Y18.8237
G01 X1.7903 Y18.8330
G01 X1.8540 Y18.8362
G01 X1.9177 Y18.8330
G01 X1.9808 Y18.8237
G01 X2.0426 Y18.8082
G01 X2.1027 Y18.7867
G01 X2.1603 Y18.7594
G01 X2.2150 Y18.7267
G01 X2.2662 Y18.6887
G01 X2.3134 Y18.6458
G01 X2.3563 Y18.5986
G01 X2.3943 Y18.5474
G01 X2.4270 Y18.4927
G01 X2.4543 Y18.4351
G01 X2.4758 Y18.3750
G01 X2.4913 Y18.3132
G01 X2.5006 Y18.2501
G01 X2.5038 Y18.1864
G01 X2.5006 Y18.1227
G01 X2.4913 Y18.0596
G01 X2.4758 Y17.9978
G01 X2.4543 Y17.9377
G01 X2.4270 Y17.8801
G01 X2.3943 Y17.8254
G01 X2.3563 Y17.7742
G01 X2.3134 Y17.7270
G01 X2.2662 Y17.6841
G01 X2.2150 Y17.6461
G01 X2.1603 Y17.6134
G01 X2.1027 Y17.5861
G01 X2.0426 Y17.5646
G01 X1.9808 Y17.5491
G01 X1.9177 Y17.5398
G01 X1.8540 Y17.5366
G01 X1.7904 Y17.5398
G01 X1.7272 Y17.5491
G01 X1.6654 Y17.5646
G01 X1.6053 Y17.5861
G01 X1.5477 Y17.6134
G01 X1.4930 Y17.6461
G01 X1.4418 Y17.6841
G01 X1.3946 Y17.7270
G01 X1.3517 Y17.7742
G01 X1.3137 Y17.8254
G01 X1.2810 Y17.8801
G01 X1.2537 Y17.9377
G01 X1.2322 Y17.9978
G01 X1.2167 Y18.0596
G01 X1.2074 Y18.1227
G01 X1.2042 Y18.1864
G00 Z1.0000
G00 X1.2042 Y18.1864
G01 F400.00
G01 Z0.0000
G01 F1000.00
G01 X1.6047 Y18.1864
G00 Z1.0000
G00 X1.6047 Y18.1864
G01 F400.00
G01 Z0.0000
G01 F1000.00
G01 X1.6059 Y18.2108
G01 X1.6095 Y18.2350
G01 X1.6155 Y18.2588
G01 X1.6237 Y18.2818
G01 X1.6342 Y18.3039
G01 X1.6467 Y18.3249
G01 X1.6613 Y18.3445
G01 X1.6777 Y18.3627
G01 X1.6959 Y18.3791
G01 X1.7155 Y18.3937
G01 X1.7365 Y18.4062
G01 X1.7586 Y18.4167
G01 X1.7816 Y18.4249
G01 X1.8054 Y18.4309
G01 X1.8296 Y18.4345
G01 X1.8540 Y18.4357
G01 X1.8784 Y18.4345
G01 X1.9026 Y18.4309
G01 X1.9264 Y18.4249
G01 X1.9494 Y18.4167
G01 X1.9715 Y18.4062
G01 X1.9925 Y18.3937
G01 X2.0121 Y18.3791
G01 X2.0303 Y18.3627
G01 X2.0467 Y18.3445
G01 X2.0613 Y18.3249
G01 X2.0738 Y18.3039
G01 X2.0843 Y18.2818
G01 X2.0925 Y18.2588
G01 X2.0985 Y18.2350
G01 X2.1021 Y18.2108
G01 X2.1033 Y18.1864
G01 X2.1021 Y18.1620
G01 X2.0985 Y18.1378
G01 X2.0925 Y18.1140
G01 X2.0843 Y18.0910
G01 X2.0738 Y18.0689
G01 X2.0613 Y18.0479
G01 X2.0467 Y18.0283
G01 X2.0303 Y18.0101
G01 X2.0121 Y17.9937
G01 X1.9925 Y17.9791
G01 X1.9715 Y17.9666
G01 X1.9494 Y17.9561
G01 X1.9264 Y17.9479
G01 X1.9026 Y17.9419
G01 X1.8784 Y17.9383
G01 X1.8540 Y17.9371
G01 X1.8297 Y17.9383
G01 X1.8053 Y17.9419
G01 X1.7816 Y17.9479
G01 X1.7586 Y17.9561
G01 X1.7365 Y17.9666
G01 X1.7155 Y17.9791
G01 X1.6959 Y17.9937
G01 X1.6777 Y18.0101
G01 X1.6613 Y18.0283
G01 X1.6467 Y18.0479
G01 X1.6342 Y18.0689
G01 X1.6237 Y18.0910
G01 X1.6155 Y18.1140
G01 X1.6095 Y18.1378
G01 X1.6059 Y18.1620
G01 X1.6047 Y18.1864
G00 Z1.0000
G00 X1.6047 Y20.7264
G01 F400.00
G01 Z0.0000
G01 F1000.00
G01 X1.6059 Y20.7508
G01 X1.6095 Y20.7750
G01 X1.6155 Y20.7988
G01 X1.6237 Y20.8218
G01 X1.6342 Y20.8439
G01 X1.6467 Y20.8649
G01 X1.6613 Y20.8845
G01 X1.6777 Y20.9027
G01 X1.6959 Y20.9191
G01 X1.7155 Y20.9337
G01 X1.7365 Y20.9462
G01 X1.7586 Y20.9567
G01 X1.7816 Y20.9649
G01 X1.8054 Y20.9709
G01 X1.8296 Y20.9745
G01 X1.8540 Y20.9757
G01 X1.8784 Y20.9745
G01 X1.9026 Y20.9709
G01 X1.9264 Y20.9649
G01 X1.9494 Y20.9567
G01 X1.9715 Y20.9462
G01 X1.9925 Y20.9337
G01 X2.0121 Y20.9191
G01 X2.0303 Y20.9027
G01 X2.0467 Y20.8845
G01 X2.0613 Y20.8649
G01 X2.0738 Y20.8439
G01 X2.0843 Y20.8218
G01 X2.0925 Y20.7988
G01 X2.0985 Y20.7750
G01 X2.1021 Y20.7508
G01 X2.1033 Y20.7264
G01 X2.1021 Y20.7020
G01 X2.0985 Y20.6778
G01 X2.0925 Y20.6540
G01 X2.0843 Y20.6310
G01 X2.0738 Y20.6089
G01 X2.0613 Y20.5879
G01 X2.0467 Y20.5683
G01 X2.0303 Y20.5501
G01 X2.0121 Y20.5337
G01 X1.9925 Y20.5191
G01 X1.9715 Y20.5066
G01 X1.9494 Y20.4961
G01 X1.9264 Y20.4879
G01 X1.9026 Y20.4819
G01 X1.8784 Y20.4783
G01 X1.8540 Y20.4771
G01 X1.8297 Y20.4783
G01 X1.8053 Y20.4819
G01 X1.7816 Y20.4879
G01 X1.7586 Y20.4961
G01 X1.7365 Y20.5066
G01 X1.7155 Y20.5191
G01 X1.6959 Y20.5337
G01 X1.6777 Y20.5501
G01 X1.6613 Y20.5683
G01 X1.6467 Y20.5879
G01 X1.6342 Y20.6089
G01 X1.6237 Y20.6310
G01 X1.6155 Y20.6540
G01 X1.6095 Y20.6778
G01 X1.6059 Y20.7020
G01 X1.6047 Y20.7264
G00 Z1.0000
G00 X1.6047 Y20.7264
G01 F400.00
G01 Z0.0000
G01 F1000.00
G01 X1.2042 Y20.7264
G00 Z1.0000
G00 X1.2042 Y20.7264
G01 F400.00
G01 Z0.0000
G01 F1000.00
G01 X1.2074 Y20.7901
G01 X1.2167 Y20.8532
G01 X1.2322 Y20.9150
G01 X1.2537 Y20.9751
G01 X1.2810 Y21.0327
G01 X1.3137 Y21.0874
G01 X1.3517 Y21.1386
G01 X1.3946 Y21.1858
G01 X1.4418 Y21.2287
G01 X1.4930 Y21.2667
G01 X1.5477 Y21.2994
G01 X1.6053 Y21.3267
G01 X1.6654 Y21.3482
G01 X1.7272 Y21.3637
G01 X1.7903 Y21.3730
G01 X1.8540 Y21.3762
G01 X1.9177 Y21.3730
G01 X1.9808 Y21.3637
G01 X2.0426 Y21.3482
G01 X2.1027 Y21.3267
G01 X2.1603 Y21.2994
G01 X2.2150 Y21.2667
G01 X2.2662 Y21.2287
G01 X2.3134 Y21.1858
G01 X2.3563 Y21.1386
G01 X2.3943 Y21.0874
G01 X2.4270 Y21.0327
G01 X2.4543 Y20.9751
G01 X2.4758 Y20.9150
G01 X2.4913 Y20.8532
G01 X2.5006 Y20.7901
G01 X2.5038 Y20.7264
G01 X2.5006 Y20.6627
G01 X2.4913 Y20.5996
G01 X2.4758 Y20.5378
G01 X2.4543 Y20.4777
G01 X2.4270 Y20.4201
G01 X2.3943 Y20.3654
G01 X2.3563 Y20.3142
G01 X2.3134 Y20.2670
G01 X2.2662 Y20.2241
G01 X2.2150 Y20.1861
G01 X2.1603 Y20.1534
G01 X2.1027 Y20.1261
G01 X2.0426 Y20.1046
G01 X1.9808 Y20.0891
G01 X1.9177 Y20.0798
G01 X1.8540 Y20.0766
G01 X1.7904 Y20.0798
G01 X1.7272 Y20.0891
G01 X1.6654 Y20.1046
G01 X1.6053 Y20.1261
G01 X1.5477 Y20.1534
G01 X1.4930 Y20.1861
G01 X1.4418 Y20.2241
G01 X1.3946 Y20.2670
G01 X1.3517 Y20.3142
G01 X1.3137 Y20.3654
G01 X1.2810 Y20.4201
G01 X1.2537 Y20.4777
G01 X1.2322 Y20.5378
G01 X1.2167 Y20.5996
G01 X1.2074 Y20.6627
G01 X1.2042 Y20.7264
G00 Z1.0000
G00 X1.2042 Y23.2664
G01 F400.00
G01 Z0.0000
G01 F1000.00
G01 X1.6047 Y23.2664
G00 Z1.0000
G00 X1.6047 Y23.2664
G01 F400.00
G01 Z0.0000
G01 F1000.00
G01 X1.6059 Y23.2908
G01 X1.6095 Y23.3150
G01 X1.6155 Y23.3388
G01 X1.6237 Y23.3618
G01 X1.6342 Y23.3839
G01 X1.6467 Y23.4049
G01 X1.6613 Y23.4245
G01 X1.6777 Y23.4427
G01 X1.6959 Y23.4591
G01 X1.7155 Y23.4737
G01 X1.7365 Y23.4862
G01 X1.7586 Y23.4967
G01 X1.7816 Y23.5049
G01 X1.8054 Y23.5109
G01 X1.8296 Y23.5145
G01 X1.8540 Y23.5157
G01 X1.8784 Y23.5145
G01 X1.9026 Y23.5109
G01 X1.9264 Y23.5049
G01 X1.9494 Y23.4967
G01 X1.9715 Y23.4862
G01 X1.9925 Y23.4737
G01 X2.0121 Y23.4591
G01 X2.0303 Y23.4427
G01 X2.0467 Y23.4245
G01 X2.0613 Y23.4049
G01 X2.0738 Y23.3839
G01 X2.0843 Y23.3618
G01 X2.0925 Y23.3388
G01 X2.0985 Y23.3150
G01 X2.1021 Y23.2908
G01 X2.1033 Y23.2664
G01 X2.1021 Y23.2420
G01 X2.0985 Y23.2178
G01 X2.0925 Y23.1940
G01 X2.0843 Y23.1710
G01 X2.0738 Y23.1489
G01 X2.0613 Y23.1279
G01 X2.0467 Y23.1083
G01 X2.0303 Y23.0901
G01 X2.0121 Y23.0737
G01 X1.9925 Y23.0591
G01 X1.9715 Y23.0466
G01 X1.9494 Y23.0361
G01 X1.9264 Y23.0279
G01 X1.9026 Y23.0219
G01 X1.8784 Y23.0183
G01 X1.8540 Y23.0171
G01 X1.8297 Y23.0183
G01 X1.8053 Y23.0219
G01 X1.7816 Y23.0279
G01 X1.7586 Y23.0361
G01 X1.7365 Y23.0466
G01 X1.7155 Y23.0591
G01 X1.6959 Y23.0737
G01 X1.6777 Y23.0901
G01 X1.6613 Y23.1083
G01 X1.6467 Y23.1279
G01 X1.6342 Y23.1489
G01 X1.6237 Y23.1710
G01 X1.6155 Y23.1940
G01 X1.6095 Y23.2178
G01 X1.6059 Y23.2420
G01 X1.6047 Y23.2664
G00 Z1.0000
G00 X1.2042 Y23.2664
G01 F400.00
G01 Z0.0000
G01 F1000.00
G01 X1.2074 Y23.3301
G01 X1.2167 Y23.3932
G01 X1.2322 Y23.4550
G01 X1.2537 Y23.5151
G01 X1.2810 Y23.5727
G01 X1.3137 Y23.6274
G01 X1.3517 Y23.6786
G01 X1.3946 Y23.7258
G01 X1.4418 Y23.7687
G01 X1.4930 Y23.8067
G01 X1.5477 Y23.8394
G01 X1.6053 Y23.8667
G01 X1.6654 Y23.8882
G01 X1.7272 Y23.9037
G01 X1.7903 Y23.9130
G01 X1.8540 Y23.9162
G01 X1.9177 Y23.9130
G01 X1.9808 Y23.9037
G01 X2.0426 Y23.8882
G01 X2.1027 Y23.8667
G01 X2.1603 Y23.8394
G01 X2.2150 Y23.8067
G01 X2.2662 Y23.7687
G01 X2.3134 Y23.7258
G01 X2.3563 Y23.6786
G01 X2.3943 Y23.6274
G01 X2.4270 Y23.5727
G01 X2.4543 Y23.5151
G01 X2.4758 Y23.4550
G01 X2.4913 Y23.3932
G01 X2.5006 Y23.3301
G01 X2.5038 Y23.2664
G01 X2.5006 Y23.2027
G01 X2.4913 Y23.1396
G01 X2.4758 Y23.0778
G01 X2.4543 Y23.0177
G01 X2.4270 Y22.9601
G01 X2.3943 Y22.9054
G01 X2.3563 Y22.8542
G01 X2.3134 Y22.8070
G01 X2.2662 Y22.7641
G01 X2.2150 Y22.7261
G01 X2.1603 Y22.6934
G01 X2.1027 Y22.6661
G01 X2.0426 Y22.6446
G01 X1.9808 Y22.6291
G01 X1.9177 Y22.6198
G01 X1.8540 Y22.6166
G01 X1.7904 Y22.6198
G01 X1.7272 Y22.6291
G01 X1.6654 Y22.6446
G01 X1.6053 Y22.6661
G01 X1.5477 Y22.6934
G01 X1.4930 Y22.7261
G01 X1.4418 Y22.7641
G01 X1.3946 Y22.8070
G01 X1.3517 Y22.8542
G01 X1.3137 Y22.9054
G01 X1.2810 Y22.9601
G01 X1.2537 Y23.0177
G01 X1.2322 Y23.0778
G01 X1.2167 Y23.1396
G01 X1.2074 Y23.2027
G01 X1.2042 Y23.2664
G00 Z1.0000
G00 X1.2042 Y25.8064
G01 F400.00
G01 Z0.0000
G01 F1000.00
G01 X1.2074 Y25.8701
G01 X1.2167 Y25.9332
G01 X1.2322 Y25.9950
G01 X1.2537 Y26.0551
G01 X1.2810 Y26.1127
G01 X1.3137 Y26.1674
G01 X1.3517 Y26.2186
G01 X1.3946 Y26.2658
G01 X1.4418 Y26.3087
G01 X1.4930 Y26.3467
G01 X1.5477 Y26.3794
G01 X1.6053 Y26.4067
G01 X1.6654 Y26.4282
G01 X1.7272 Y26.4437
G01 X1.7903 Y26.4530
G01 X1.8540 Y26.4562
G01 X1.9177 Y26.4530
G01 X1.9808 Y26.4437
G01 X2.0426 Y26.4282
G01 X2.1027 Y26.4067
G01 X2.1603 Y26.3794
G01 X2.2150 Y26.3467
G01 X2.2662 Y26.3087
G01 X2.3134 Y26.2658
G01 X2.3563 Y26.2186
G01 X2.3943 Y26.1674
G01 X2.4270 Y26.1127
G01 X2.4543 Y26.0551
G01 X2.4758 Y25.9950
G01 X2.4913 Y25.9332
G01 X2.5006 Y25.8701
G01 X2.5038 Y25.8064
G01 X2.5006 Y25.7427
G01 X2.4913 Y25.6796
G01 X2.4758 Y25.6178
G01 X2.4543 Y25.5577
G01 X2.4270 Y25.5001
G01 X2.3943 Y25.4454
G01 X2.3563 Y25.3942
G01 X2.3134 Y25.3470
G01 X2.2662 Y25.3041
G01 X2.2150 Y25.2661
G01 X2.1603 Y25.2334
G01 X2.1027 Y25.2061
G01 X2.0426 Y25.1846
G01 X1.9808 Y25.1691
G01 X1.9177 Y25.1598
G01 X1.8540 Y25.1566
G01 X1.7904 Y25.1598
G01 X1.7272 Y25.1691
G01 X1.6654 Y25.1846
G01 X1.6053 Y25.2061
G01 X1.5477 Y25.2334
G01 X1.4930 Y25.2661
G01 X1.4418 Y25.3041
G01 X1.3946 Y25.3470
G01 X1.3517 Y25.3942
G01 X1.3137 Y25.4454
G01 X1.2810 Y25.5001
G01 X1.2537 Y25.5577
G01 X1.2322 Y25.6178
G01 X1.2167 Y25.6796
G01 X1.2074 Y25.7427
G01 X1.2042 Y25.8064
G00 Z1.0000
G00 X1.2042 Y25.8064
G01 F400.00
G01 Z0.0000
G01 F1000.00
G01 X1.6047 Y25.8064
G00 Z1.0000
G00 X1.6047 Y25.8064
G01 F400.00
G01 Z0.0000
G01 F1000.00
G01 X1.6059 Y25.8308
G01 X1.6095 Y25.8550
G01 X1.6155 Y25.8788
G01 X1.6237 Y25.9018
G01 X1.6342 Y25.9239
G01 X1.6467 Y25.9449
G01 X1.6613 Y25.9645
G01 X1.6777 Y25.9827
G01 X1.6959 Y25.9991
G01 X1.7155 Y26.0137
G01 X1.7365 Y26.0262
G01 X1.7586 Y26.0367
G01 X1.7816 Y26.0449
G01 X1.8054 Y26.0509
G01 X1.8296 Y26.0545
G01 X1.8540 Y26.0557
G01 X1.8784 Y26.0545
G01 X1.9026 Y26.0509
G01 X1.9264 Y26.0449
G01 X1.9494 Y26.0367
G01 X1.9715 Y26.0262
G01 X1.9925 Y26.0137
G01 X2.0121 Y25.9991
G01 X2.0303 Y25.9827
G01 X2.0467 Y25.9645
G01 X2.0613 Y25.9449
G01 X2.0738 Y25.9239
G01 X2.0843 Y25.9018
G01 X2.0925 Y25.8788
G01 X2.0985 Y25.8550
G01 X2.1021 Y25.8308
G01 X2.1033 Y25.8064
G01 X2.1021 Y25.7820
G01 X2.0985 Y25.7578
G01 X2.0925 Y25.7340
G01 X2.0843 Y25.7110
G01 X2.0738 Y25.6889
G01 X2.0613 Y25.6679
G01 X2.0467 Y25.6483
G01 X2.0303 Y25.6301
G01 X2.0121 Y25.6137
G01 X1.9925 Y25.5991
G01 X1.9715 Y25.5866
G01 X1.9494 Y25.5761
G01 X1.9264 Y25.5679
G01 X1.9026 Y25.5619
G01 X1.8784 Y25.5583
G01 X1.8540 Y25.5571
G01 X1.8297 Y25.5583
G01 X1.8053 Y25.5619
G01 X1.7816 Y25.5679
G01 X1.7586 Y25.5761
G01 X1.7365 Y25.5866
G01 X1.7155 Y25.5991
G01 X1.6959 Y25.6137
G01 X1.6777 Y25.6301
G01 X1.6613 Y25.6483
G01 X1.6467 Y25.6679
G01 X1.6342 Y25.6889
G01 X1.6237 Y25.7110
G01 X1.6155 Y25.7340
G01 X1.6095 Y25.7578
G01 X1.6059 Y25.7820
G01 X1.6047 Y25.8064
G00 Z1.0000
G00 X1.6047 Y28.3464
G01 F400.00
G01 Z0.0000
G01 F1000.00
G01 X1.6059 Y28.3708
G01 X1.6095 Y28.3950
G01 X1.6155 Y28.4188
G01 X1.6237 Y28.4418
G01 X1.6342 Y28.4639
G01 X1.6467 Y28.4849
G01 X1.6613 Y28.5045
G01 X1.6777 Y28.5227
G01 X1.6959 Y28.5391
G01 X1.7155 Y28.5537
G01 X1.7365 Y28.5662
G01 X1.7586 Y28.5767
G01 X1.7816 Y28.5849
G01 X1.8054 Y28.5909
G01 X1.8296 Y28.5945
G01 X1.8540 Y28.5957
G01 X1.8784 Y28.5945
G01 X1.9026 Y28.5909
G01 X1.9264 Y28.5849
G01 X1.9494 Y28.5767
G01 X1.9715 Y28.5662
G01 X1.9925 Y28.5537
G01 X2.0121 Y28.5391
G01 X2.0303 Y28.5227
G01 X2.0467 Y28.5045
G01 X2.0613 Y28.4849
G01 X2.0738 Y28.4639
G01 X2.0843 Y28.4418
G01 X2.0925 Y28.4188
G01 X2.0985 Y28.3950
G01 X2.1021 Y28.3708
G01 X2.1033 Y28.3464
G01 X2.1021 Y28.3220
G01 X2.0985 Y28.2978
G01 X2.0925 Y28.2740
G01 X2.0843 Y28.2510
G01 X2.0738 Y28.2289
G01 X2.0613 Y28.2079
G01 X2.0467 Y28.1883
G01 X2.0303 Y28.1701
G01 X2.0121 Y28.1537
G01 X1.9925 Y28.1391
G01 X1.9715 Y28.1266
G01 X1.9494 Y28.1161
G01 X1.9264 Y28.1079
G01 X1.9026 Y28.1019
G01 X1.8784 Y28.0983
G01 X1.8540 Y28.0971
G01 X1.8297 Y28.0983
G01 X1.8053 Y28.1019
G01 X1.7816 Y28.1079
G01 X1.7586 Y28.1161
G01 X1.7365 Y28.1266
G01 X1.7155 Y28.1391
G01 X1.6959 Y28.1537
G01 X1.6777 Y28.1701
G01 X1.6613 Y28.1883
G01 X1.6467 Y28.2079
G01 X1.6342 Y28.2289
G01 X1.6237 Y28.2510
G01 X1.6155 Y28.2740
G01 X1.6095 Y28.2978
G01 X1.6059 Y28.3220
G01 X1.6047 Y28.3464
G00 Z1.0000
G00 X1.6047 Y28.3464
G01 F400.00
G01 Z0.0000
G01 F1000.00
G01 X1.2042 Y28.3464
G00 Z1.0000
G00 X1.2042 Y28.3464
G01 F400.00
G01 Z0.0000
G01 F1000.00
G01 X1.2074 Y28.4101
G01 X1.2167 Y28.4732
G01 X1.2322 Y28.5350
G01 X1.2537 Y28.5951
G01 X1.2810 Y28.6527
G01 X1.3137 Y28.7074
G01 X1.3517 Y28.7586
G01 X1.3946 Y28.8058
G01 X1.4418 Y28.8487
G01 X1.4930 Y28.8867
G01 X1.5477 Y28.9194
G01 X1.6053 Y28.9467
G01 X1.6654 Y28.9682
G01 X1.7272 Y28.9837
G01 X1.7903 Y28.9930
G01 X1.8540 Y28.9962
G01 X1.9177 Y28.9930
G01 X1.9808 Y28.9837
G01 X2.0426 Y28.9682
G01 X2.1027 Y28.9467
G01 X2.1603 Y28.9194
G01 X2.2150 Y28.8867
G01 X2.2662 Y28.8487
G01 X2.3134 Y28.8058
G01 X2.3563 Y28.7586
G01 X2.3943 Y28.7074
G01 X2.4270 Y28.6527
G01 X2.4543 Y28.5951
G01 X2.4758 Y28.5350
G01 X2.4913 Y28.4732
G01 X2.5006 Y28.4101
G01 X2.5038 Y28.3464
G01 X2.5006 Y28.2827
G01 X2.4913 Y28.2196
G01 X2.4758 Y28.1578
G01 X2.4543 Y28.0977
G01 X2.4270 Y28.0401
G01 X2.3943 Y27.9854
G01 X2.3563 Y27.9342
G01 X2.3134 Y27.8870
G01 X2.2662 Y27.8441
G01 X2.2150 Y27.8061
G01 X2.1603 Y27.7734
G01 X2.1027 Y27.7461
G01 X2.0426 Y27.7246
G01 X1.9808 Y27.7091
G01 X1.9177 Y27.6998
G01 X1.8540 Y27.6966
G01 X1.7904 Y27.6998
G01 X1.7272 Y27.7091
G01 X1.6654 Y27.7246
G01 X1.6053 Y27.7461
G01 X1.5477 Y27.7734
G01 X1.4930 Y27.8061
G01 X1.4418 Y27.8441
G01 X1.3946 Y27.8870
G01 X1.3517 Y27.9342
G01 X1.3137 Y27.9854
G01 X1.2810 Y28.0401
G01 X1.2537 Y28.0977
G01 X1.2322 Y28.1578
G01 X1.2167 Y28.2196
G01 X1.2074 Y28.2827
G01 X1.2042 Y28.3464
G00 Z1.0000
G00 X1.2042 Y30.8864
G01 F400.00
G01 Z0.0000
G01 F1000.00
G01 X1.2074 Y30.9501
G01 X1.2167 Y31.0132
G01 X1.2322 Y31.0750
G01 X1.2537 Y31.1351
G01 X1.2810 Y31.1927
G01 X1.3137 Y31.2474
G01 X1.3517 Y31.2986
G01 X1.3946 Y31.3458
G01 X1.4418 Y31.3887
G01 X1.4930 Y31.4267
G01 X1.5477 Y31.4594
G01 X1.6053 Y31.4867
G01 X1.6654 Y31.5082
G01 X1.7272 Y31.5237
G01 X1.7903 Y31.5330
G01 X1.8540 Y31.5362
G01 X1.9177 Y31.5330
G01 X1.9808 Y31.5237
G01 X2.0426 Y31.5082
G01 X2.1027 Y31.4867
G01 X2.1603 Y31.4594
G01 X2.2150 Y31.4267
G01 X2.2662 Y31.3887
G01 X2.3134 Y31.3458
G01 X2.3563 Y31.2986
G01 X2.3943 Y31.2474
G01 X2.4270 Y31.1927
G01 X2.4543 Y31.1351
G01 X2.4758 Y31.0750
G01 X2.4913 Y31.0132
G01 X2.5006 Y30.9501
G01 X2.5038 Y30.8864
G01 X2.5006 Y30.8227
G01 X2.4913 Y30.7596
G01 X2.4758 Y30.6978
G01 X2.4543 Y30.6377
G01 X2.4270 Y30.5801
G01 X2.3943 Y30.5254
G01 X2.3563 Y30.4742
G01 X2.3134 Y30.4270
G01 X2.2662 Y30.3841
G01 X2.2150 Y30.3461
G01 X2.1603 Y30.3134
G01 X2.1027 Y30.2861
G01 X2.0426 Y30.2646
G01 X1.9808 Y30.2491
G01 X1.9177 Y30.2398
G01 X1.8540 Y30.2366
G01 X1.7904 Y30.2398
G01 X1.7272 Y30.2491
G01 X1.6654 Y30.2646
G01 X1.6053 Y30.2861
G01 X1.5477 Y30.3134
G01 X1.4930 Y30.3461
G01 X1.4418 Y30.3841
G01 X1.3946 Y30.4270
G01 X1.3517 Y30.4742
G01 X1.3137 Y30.5254
G01 X1.2810 Y30.5801
G01 X1.2537 Y30.6377
G01 X1.2322 Y30.6978
G01 X1.2167 Y30.7596
G01 X1.2074 Y30.8227
G01 X1.2042 Y30.8864
G00 Z1.0000
G00 X1.2042 Y30.8864
G01 F400.00
G01 Z0.0000
G01 F1000.00
G01 X1.6047 Y30.8864
G00 Z1.0000
G00 X1.6047 Y30.8864
G01 F400.00
G01 Z0.0000
G01 F1000.00
G01 X1.6059 Y30.9108
G01 X1.6095 Y30.9350
G01 X1.6155 Y30.9588
G01 X1.6237 Y30.9818
G01 X1.6342 Y31.0039
G01 X1.6467 Y31.0249
G01 X1.6613 Y31.0445
G01 X1.6777 Y31.0627
G01 X1.6959 Y31.0791
G01 X1.7155 Y31.0937
G01 X1.7365 Y31.1062
G01 X1.7586 Y31.1167
G01 X1.7816 Y31.1249
G01 X1.8054 Y31.1309
G01 X1.8296 Y31.1345
G01 X1.8540 Y31.1357
G01 X1.8784 Y31.1345
G01 X1.9026 Y31.1309
G01 X1.9264 Y31.1249
G01 X1.9494 Y31.1167
G01 X1.9715 Y31.1062
G01 X1.9925 Y31.0937
G01 X2.0121 Y31.0791
G01 X2.0303 Y31.0627
G01 X2.0467 Y31.0445
G01 X2.0613 Y31.0249
G01 X2.0738 Y31.0039
G01 X2.0843 Y30.9818
G01 X2.0925 Y30.9588
G01 X2.0985 Y30.9350
G01 X2.1021 Y30.9108
G01 X2.1033 Y30.8864
G01 X2.1021 Y30.8620
G01 X2.0985 Y30.8378
G01 X2.0925 Y30.8140
G01 X2.0843 Y30.7910
G01 X2.0738 Y30.7689
G01 X2.0613 Y30.7479
G01 X2.0467 Y30.7283
G01 X2.0303 Y30.7101
G01 X2.0121 Y30.6937
G01 X1.9925 Y30.6791
G01 X1.9715 Y30.6666
G01 X1.9494 Y30.6561
G01 X1.9264 Y30.6479
G01 X1.9026 Y30.6419
G01 X1.8784 Y30.6383
G01 X1.8540 Y30.6371
G01 X1.8297 Y30.6383
G01 X1.8053 Y30.6419
G01 X1.7816 Y30.6479
G01 X1.7586 Y30.6561
G01 X1.7365 Y30.6666
G01 X1.7155 Y30.6791
G01 X1.6959 Y30.6937
G01 X1.6777 Y30.7101
G01 X1.6613 Y30.7283
G01 X1.6467 Y30.7479
G01 X1.6342 Y30.7689
G01 X1.6237 Y30.7910
G01 X1.6155 Y30.8140
G01 X1.6095 Y30.8378
G01 X1.6059 Y30.8620
G01 X1.6047 Y30.8864
G00 Z1.0000
G00 X1.6047 Y33.4264
G01 F400.00
G01 Z0.0000
G01 F1000.00
G01 X1.2042 Y33.4264
G00 Z1.0000
G00 X1.6047 Y33.4264
G01 F400.00
G01 Z0.0000
G01 F1000.00
G01 X1.6059 Y33.4508
G01 X1.6095 Y33.4750
G01 X1.6155 Y33.4988
G01 X1.6237 Y33.5218
G01 X1.6342 Y33.5439
G01 X1.6467 Y33.5649
G01 X1.6613 Y33.5845
G01 X1.6777 Y33.6027
G01 X1.6959 Y33.6191
G01 X1.7155 Y33.6337
G01 X1.7365 Y33.6462
G01 X1.7586 Y33.6567
G01 X1.7816 Y33.6649
G01 X1.8054 Y33.6709
G01 X1.8296 Y33.6745
G01 X1.8540 Y33.6757
G01 X1.8784 Y33.6745
G01 X1.9026 Y33.6709
G01 X1.9264 Y33.6649
G01 X1.9494 Y33.6567
G01 X1.9715 Y33.6462
G01 X1.9925 Y33.6337
G01 X2.0121 Y33.6191
G01 X2.0303 Y33.6027
G01 X2.0467 Y33.5845
G01 X2.0613 Y33.5649
G01 X2.0738 Y33.5439
G01 X2.0843 Y33.5218
G01 X2.0925 Y33.4988
G01 X2.0985 Y33.4750
G01 X2.1021 Y33.4508
G01 X2.1033 Y33.4264
G01 X2.1021 Y33.4020
G01 X2.0985 Y33.3778
G01 X2.0925 Y33.3540
G01 X2.0843 Y33.3310
G01 X2.0738 Y33.3089
G01 X2.0613 Y33.2879
G01 X2.0467 Y33.2683
G01 X2.0303 Y33.2501
G01 X2.0121 Y33.2337
G01 X1.9925 Y33.2191
G01 X1.9715 Y33.2066
G01 X1.9494 Y33.1961
G01 X1.9264 Y33.1879
G01 X1.9026 Y33.1819
G01 X1.8784 Y33.1783
G01 X1.8540 Y33.1771
G01 X1.8296 Y33.1783
G01 X1.8054 Y33.1819
G01 X1.7816 Y33.1879
G01 X1.7586 Y33.1961
G01 X1.7365 Y33.2066
G01 X1.7155 Y33.2191
G01 X1.6959 Y33.2337
G01 X1.6777 Y33.2501
G01 X1.6613 Y33.2683
G01 X1.6467 Y33.2879
G01 X1.6342 Y33.3089
G01 X1.6237 Y33.3310
G01 X1.6155 Y33.3540
G01 X1.6095 Y33.3778
G01 X1.6059 Y33.4020
G01 X1.6047 Y33.4264
G00 Z1.0000
G00 X1.2042 Y33.4264
G01 F400.00
G01 Z0.0000
G01 F1000.00
G01 X1.2074 Y33.4901
G01 X1.2167 Y33.5532
G01 X1.2322 Y33.6150
G01 X1.2537 Y33.6751
G01 X1.2810 Y33.7327
G01 X1.3137 Y33.7874
G01 X1.3517 Y33.8386
G01 X1.3946 Y33.8858
G01 X1.4418 Y33.9287
G01 X1.4930 Y33.9667
G01 X1.5477 Y33.9994
G01 X1.6053 Y34.0267
G01 X1.6654 Y34.0482
G01 X1.7272 Y34.0637
G01 X1.7903 Y34.0730
G01 X1.8540 Y34.0762
G01 X1.9177 Y34.0730
G01 X1.9808 Y34.0637
G01 X2.0426 Y34.0482
G01 X2.1027 Y34.0267
G01 X2.1603 Y33.9994
G01 X2.2150 Y33.9667
G01 X2.2662 Y33.9287
G01 X2.3134 Y33.8858
G01 X2.3563 Y33.8386
G01 X2.3943 Y33.7874
G01 X2.4270 Y33.7327
G01 X2.4543 Y33.6751
G01 X2.4758 Y33.6150
G01 X2.4913 Y33.5532
G01 X2.5006 Y33.4901
G01 X2.5038 Y33.4264
G01 X2.5006 Y33.3627
G01 X2.4913 Y33.2996
G01 X2.4758 Y33.2378
G01 X2.4543 Y33.1777
G01 X2.4270 Y33.1201
G01 X2.3943 Y33.0654
G01 X2.3563 Y33.0142
G01 X2.3134 Y32.9670
G01 X2.2662 Y32.9241
G01 X2.2150 Y32.8861
G01 X2.1603 Y32.8534
G01 X2.1027 Y32.8261
G01 X2.0426 Y32.8046
G01 X1.9808 Y32.7891
G01 X1.9177 Y32.7798
G01 X1.8540 Y32.7766
G01 X1.7903 Y32.7798
G01 X1.7272 Y32.7891
G01 X1.6654 Y32.8046
G01 X1.6053 Y32.8261
G01 X1.5477 Y32.8534
G01 X1.4930 Y32.8861
G01 X1.4418 Y32.9241
G01 X1.3946 Y32.9670
G01 X1.3517 Y33.0142
G01 X1.3137 Y33.0654
G01 X1.2810 Y33.1201
G01 X1.2537 Y33.1777
G01 X1.2322 Y33.2378
G01 X1.2167 Y33.2996
G01 X1.2074 Y33.3627
G01 X1.2042 Y33.4264
G00 Z1.0000
G00 X1.2042 Y35.9664
G01 F400.00
G01 Z0.0000
G01 F1000.00
G01 X1.6047 Y35.9664
G00 Z1.0000
G00 X1.6047 Y35.9664
G01 F400.00
G01 Z0.0000
G01 F1000.00
G01 X1.6059 Y35.9908
G01 X1.6095 Y36.0150
G01 X1.6155 Y36.0388
G01 X1.6237 Y36.0618
G01 X1.6342 Y36.0839
G01 X1.6467 Y36.1049
G01 X1.6613 Y36.1245
G01 X1.6777 Y36.1427
G01 X1.6959 Y36.1591
G01 X1.7155 Y36.1737
G01 X1.7365 Y36.1862
G01 X1.7586 Y36.1967
G01 X1.7816 Y36.2049
G01 X1.8054 Y36.2109
G01 X1.8296 Y36.2145
G01 X1.8540 Y36.2157
G01 X1.8784 Y36.2145
G01 X1.9026 Y36.2109
G01 X1.9264 Y36.2049
G01 X1.9494 Y36.1967
G01 X1.9715 Y36.1862
G01 X1.9925 Y36.1737
G01 X2.0121 Y36.1591
G01 X2.0303 Y36.1427
G01 X2.0467 Y36.1245
G01 X2.0613 Y36.1049
G01 X2.0738 Y36.0839
G01 X2.0843 Y36.0618
G01 X2.0925 Y36.0388
G01 X2.0985 Y36.0150
G01 X2.1021 Y35.9908
G01 X2.1033 Y35.9664
G01 X2.1021 Y35.9420
G01 X2.0985 Y35.9178
G01 X2.0925 Y35.8940
G01 X2.0843 Y35.8710
G01 X2.0738 Y35.8489
G01 X2.0613 Y35.8279
G01 X2.0467 Y35.8083
G01 X2.0303 Y35.7901
G01 X2.0121 Y35.7737
G01 X1.9925 Y35.7591
G01 X1.9715 Y35.7466
G01 X1.9494 Y35.7361
G01 X1.9264 Y35.7279
G01 X1.9026 Y35.7219
G01 X1.8784 Y35.7183
G01 X1.8540 Y35.7171
G01 X1.8296 Y35.7183
G01 X1.8054 Y35.7219
G01 X1.7816 Y35.7279
G01 X1.7586 Y35.7361
G01 X1.7365 Y35.7466
G01 X1.7155 Y35.7591
G01 X1.6959 Y35.7737
G01 X1.6777 Y35.7901
G01 X1.6613 Y35.8083
G01 X1.6467 Y35.8279
G01 X1.6342 Y35.8489
G01 X1.6237 Y35.8710
G01 X1.6155 Y35.8940
G01 X1.6095 Y35.9178
G01 X1.6059 Y35.9420
G01 X1.6047 Y35.9664
G00 Z1.0000
G00 X1.2042 Y35.9664
G01 F400.00
G01 Z0.0000
G01 F1000.00
G01 X1.2074 Y36.0301
G01 X1.2167 Y36.0932
G01 X1.2322 Y36.1550
G01 X1.2537 Y36.2151
G01 X1.2810 Y36.2727
G01 X1.3137 Y36.3274
G01 X1.3517 Y36.3786
G01 X1.3946 Y36.4258
G01 X1.4418 Y36.4687
G01 X1.4930 Y36.5067
G01 X1.5477 Y36.5394
G01 X1.6053 Y36.5667
G01 X1.6654 Y36.5882
G01 X1.7272 Y36.6037
G01 X1.7903 Y36.6130
G01 X1.8540 Y36.6162
G01 X1.9177 Y36.6130
G01 X1.9808 Y36.6037
G01 X2.0426 Y36.5882
G01 X2.1027 Y36.5667
G01 X2.1603 Y36.5394
G01 X2.2150 Y36.5067
G01 X2.2662 Y36.4687
G01 X2.3134 Y36.4258
G01 X2.3563 Y36.3786
G01 X2.3943 Y36.3274
G01 X2.4270 Y36.2727
G01 X2.4543 Y36.2151
G01 X2.4758 Y36.1550
G01 X2.4913 Y36.0932
G01 X2.5006 Y36.0301
G01 X2.5038 Y35.9664
G01 X2.5006 Y35.9027
G01 X2.4913 Y35.8396
G01 X2.4758 Y35.7778
G01 X2.4543 Y35.7177
G01 X2.4270 Y35.6601
G01 X2.3943 Y35.6054
G01 X2.3563 Y35.5542
G01 X2.3134 Y35.5070
G01 X2.2662 Y35.4641
G01 X2.2150 Y35.4261
G01 X2.1603 Y35.3934
G01 X2.1027 Y35.3661
G01 X2.0426 Y35.3446
G01 X1.9808 Y35.3291
G01 X1.9177 Y35.3198
G01 X1.8540 Y35.3166
G01 X1.7903 Y35.3198
G01 X1.7272 Y35.3291
G01 X1.6654 Y35.3446
G01 X1.6053 Y35.3661
G01 X1.5477 Y35.3934
G01 X1.4930 Y35.4261
G01 X1.4418 Y35.4641
G01 X1.3946 Y35.5070
G01 X1.3517 Y35.5542
G01 X1.3137 Y35.6054
G01 X1.2810 Y35.6601
G01 X1.2537 Y35.7177
G01 X1.2322 Y35.7778
G01 X1.2167 Y35.8396
G01 X1.2074 Y35.9027
G01 X1.2042 Y35.9664
G00 Z1.0000
G00 X1.2042 Y38.5064
G01 F400.00
G01 Z0.0000
G01 F1000.00
G01 X1.2074 Y38.5701
G01 X1.2167 Y38.6332
G01 X1.2322 Y38.6950
G01 X1.2537 Y38.7551
G01 X1.2810 Y38.8127
G01 X1.3137 Y38.8674
G01 X1.3517 Y38.9186
G01 X1.3946 Y38.9658
G01 X1.4418 Y39.0087
G01 X1.4930 Y39.0467
G01 X1.5477 Y39.0794
G01 X1.6053 Y39.1067
G01 X1.6654 Y39.1282
G01 X1.7272 Y39.1437
G01 X1.7903 Y39.1530
G01 X1.8540 Y39.1562
G01 X1.9177 Y39.1530
G01 X1.9808 Y39.1437
G01 X2.0426 Y39.1282
G01 X2.1027 Y39.1067
G01 X2.1603 Y39.0794
G01 X2.2150 Y39.0467
G01 X2.2662 Y39.0087
G01 X2.3134 Y38.9658
G01 X2.3563 Y38.9186
G01 X2.3943 Y38.8674
G01 X2.4270 Y38.8127
G01 X2.4543 Y38.7551
G01 X2.4758 Y38.6950
G01 X2.4913 Y38.6332
G01 X2.5006 Y38.5701
G01 X2.5038 Y38.5064
G01 X2.5006 Y38.4427
G01 X2.4913 Y38.3796
G01 X2.4758 Y38.3178
G01 X2.4543 Y38.2577
G01 X2.4270 Y38.2001
G01 X2.3943 Y38.1454
G01 X2.3563 Y38.0942
G01 X2.3134 Y38.0470
G01 X2.2662 Y38.0041
G01 X2.2150 Y37.9661
G01 X2.1603 Y37.9334
G01 X2.1027 Y37.9061
G01 X2.0426 Y37.8846
G01 X1.9808 Y37.8691
G01 X1.9177 Y37.8598
G01 X1.8540 Y37.8566
G01 X1.7904 Y37.8598
G01 X1.7272 Y37.8691
G01 X1.6654 Y37.8846
G01 X1.6053 Y37.9061
G01 X1.5477 Y37.9334
G01 X1.4930 Y37.9661
G01 X1.4418 Y38.0041
G01 X1.3946 Y38.0470
G01 X1.3517 Y38.0942
G01 X1.3137 Y38.1454
G01 X1.2810 Y38.2001
G01 X1.2537 Y38.2577
G01 X1.2322 Y38.3178
G01 X1.2167 Y38.3796
G01 X1.2074 Y38.4427
G01 X1.2042 Y38.5064
G00 Z1.0000
G00 X1.2042 Y38.5064
G01 F400.00
G01 Z0.0000
G01 F1000.00
G01 X1.6047 Y38.5064
G00 Z1.0000
G00 X1.6047 Y38.5064
G01 F400.00
G01 Z0.0000
G01 F1000.00
G01 X1.6059 Y38.5308
G01 X1.6095 Y38.5550
G01 X1.6155 Y38.5788
G01 X1.6237 Y38.6018
G01 X1.6342 Y38.6239
G01 X1.6467 Y38.6449
G01 X1.6613 Y38.6645
G01 X1.6777 Y38.6827
G01 X1.6959 Y38.6991
G01 X1.7155 Y38.7137
G01 X1.7365 Y38.7262
G01 X1.7586 Y38.7367
G01 X1.7816 Y38.7449
G01 X1.8054 Y38.7509
G01 X1.8296 Y38.7545
G01 X1.8540 Y38.7557
G01 X1.8784 Y38.7545
G01 X1.9026 Y38.7509
G01 X1.9264 Y38.7449
G01 X1.9494 Y38.7367
G01 X1.9715 Y38.7262
G01 X1.9925 Y38.7137
G01 X2.0121 Y38.6991
G01 X2.0303 Y38.6827
G01 X2.0467 Y38.6645
G01 X2.0613 Y38.6449
G01 X2.0738 Y38.6239
G01 X2.0843 Y38.6018
G01 X2.0925 Y38.5788
G01 X2.0985 Y38.5550
G01 X2.1021 Y38.5308
G01 X2.1033 Y38.5064
G01 X2.1021 Y38.4820
G01 X2.0985 Y38.4578
G01 X2.0925 Y38.4340
G01 X2.0843 Y38.4110
G01 X2.0738 Y38.3889
G01 X2.0613 Y38.3679
G01 X2.0467 Y38.3483
G01 X2.0303 Y38.3301
G01 X2.0121 Y38.3137
G01 X1.9925 Y38.2991
G01 X1.9715 Y38.2866
G01 X1.9494 Y38.2761
G01 X1.9264 Y38.2679
G01 X1.9026 Y38.2619
G01 X1.8784 Y38.2583
G01 X1.8540 Y38.2571
G01 X1.8297 Y38.2583
G01 X1.8053 Y38.2619
G01 X1.7816 Y38.2679
G01 X1.7586 Y38.2761
G01 X1.7365 Y38.2866
G01 X1.7155 Y38.2991
G01 X1.6959 Y38.3137
G01 X1.6777 Y38.3301
G01 X1.6613 Y38.3483
G01 X1.6467 Y38.3679
G01 X1.6342 Y38.3889
G01 X1.6237 Y38.4110
G01 X1.6155 Y38.4340
G01 X1.6095 Y38.4578
G01 X1.6059 Y38.4820
G01 X1.6047 Y38.5064
G00 Z1.0000
G00 X1.6047 Y41.0464
G01 F400.00
G01 Z0.0000
G01 F1000.00
G01 X1.2042 Y41.0464
G00 Z1.0000
G00 X1.6047 Y41.0464
G01 F400.00
G01 Z0.0000
G01 F1000.00
G01 X1.6059 Y41.0708
G01 X1.6095 Y41.0950
G01 X1.6155 Y41.1188
G01 X1.6237 Y41.1418
G01 X1.6342 Y41.1639
G01 X1.6467 Y41.1849
G01 X1.6613 Y41.2045
G01 X1.6777 Y41.2227
G01 X1.6959 Y41.2391
G01 X1.7155 Y41.2537
G01 X1.7365 Y41.2662
G01 X1.7586 Y41.2767
G01 X1.7816 Y41.2849
G01 X1.8054 Y41.2909
G01 X1.8296 Y41.2945
G01 X1.8540 Y41.2957
G01 X1.8784 Y41.2945
G01 X1.9026 Y41.2909
G01 X1.9264 Y41.2849
G01 X1.9494 Y41.2767
G01 X1.9715 Y41.2662
G01 X1.9925 Y41.2537
G01 X2.0121 Y41.2391
G01 X2.0303 Y41.2227
G01 X2.0467 Y41.2045
G01 X2.0613 Y41.1849
G01 X2.0738 Y41.1639
G01 X2.0843 Y41.1418
G01 X2.0925 Y41.1188
G01 X2.0985 Y41.0950
G01 X2.1021 Y41.0708
G01 X2.1033 Y41.0464
G01 X2.1021 Y41.0220
G01 X2.0985 Y40.9978
G01 X2.0925 Y40.9740
G01 X2.0843 Y40.9510
G01 X2.0738 Y40.9289
G01 X2.0613 Y40.9079
G01 X2.0467 Y40.8883
G01 X2.0303 Y40.8701
G01 X2.0121 Y40.8537
G01 X1.9925 Y40.8391
G01 X1.9715 Y40.8266
G01 X1.9494 Y40.8161
G01 X1.9264 Y40.8079
G01 X1.9026 Y40.8019
G01 X1.8784 Y40.7983
G01 X1.8540 Y40.7971
G01 X1.8297 Y40.7983
G01 X1.8053 Y40.8019
G01 X1.7816 Y40.8079
G01 X1.7586 Y40.8161
G01 X1.7365 Y40.8266
G01 X1.7155 Y40.8391
G01 X1.6959 Y40.8537
G01 X1.6777 Y40.8701
G01 X1.6613 Y40.8883
G01 X1.6467 Y40.9079
G01 X1.6342 Y40.9289
G01 X1.6237 Y40.9510
G01 X1.6155 Y40.9740
G01 X1.6095 Y40.9978
G01 X1.6059 Y41.0220
G01 X1.6047 Y41.0464
G00 Z1.0000
G00 X1.2042 Y41.0464
G01 F400.00
G01 Z0.0000
G01 F1000.00
G01 X1.2074 Y41.1101
G01 X1.2167 Y41.1732
G01 X1.2322 Y41.2350
G01 X1.2537 Y41.2951
G01 X1.2810 Y41.3527
G01 X1.3137 Y41.4074
G01 X1.3517 Y41.4586
G01 X1.3946 Y41.5058
G01 X1.4418 Y41.5487
G01 X1.4930 Y41.5867
G01 X1.5477 Y41.6194
G01 X1.6053 Y41.6467
G01 X1.6654 Y41.6682
G01 X1.7272 Y41.6837
G01 X1.7903 Y41.6930
G01 X1.8540 Y41.6962
G01 X1.9177 Y41.6930
G01 X1.9808 Y41.6837
G01 X2.0426 Y41.6682
G01 X2.1027 Y41.6467
G01 X2.1603 Y41.6194
G01 X2.2150 Y41.5867
G01 X2.2662 Y41.5487
G01 X2.3134 Y41.5058
G01 X2.3563 Y41.4586
G01 X2.3943 Y41.4074
G01 X2.4270 Y41.3527
G01 X2.4543 Y41.2951
G01 X2.4758 Y41.2350
G01 X2.4913 Y41.1732
G01 X2.5006 Y41.1101
G01 X2.5038 Y41.0464
G01 X2.5006 Y40.9827
G01 X2.4913 Y40.9196
G01 X2.4758 Y40.8578
G01 X2.4543 Y40.7977
G01 X2.4270 Y40.7401
G01 X2.3943 Y40.6854
G01 X2.3563 Y40.6342
G01 X2.3134 Y40.5870
G01 X2.2662 Y40.5441
G01 X2.2150 Y40.5061
G01 X2.1603 Y40.4734
G01 X2.1027 Y40.4461
G01 X2.0426 Y40.4246
G01 X1.9808 Y40.4091
G01 X1.9177 Y40.3998
G01 X1.8540 Y40.3966
G01 X1.7904 Y40.3998
G01 X1.7272 Y40.4091
G01 X1.6654 Y40.4246
G01 X1.6053 Y40.4461
G01 X1.5477 Y40.4734
G01 X1.4930 Y40.5061
G01 X1.4418 Y40.5441
G01 X1.3946 Y40.5870
G01 X1.3517 Y40.6342
G01 X1.3137 Y40.6854
G01 X1.2810 Y40.7401
G01 X1.2537 Y40.7977
G01 X1.2322 Y40.8578
G01 X1.2167 Y40.9196
G01 X1.2074 Y40.9827
G01 X1.2042 Y41.0464
G00 Z1.0000
G00 X1.2042 Y43.5864
G01 F400.00
G01 Z0.0000
G01 F1000.00
G01 X1.2074 Y43.6501
G01 X1.2167 Y43.7132
G01 X1.2322 Y43.7750
G01 X1.2537 Y43.8351
G01 X1.2810 Y43.8927
G01 X1.3137 Y43.9474
G01 X1.3517 Y43.9986
G01 X1.3946 Y44.0458
G01 X1.4418 Y44.0887
G01 X1.4930 Y44.1267
G01 X1.5477 Y44.1594
G01 X1.6053 Y44.1867
G01 X1.6654 Y44.2082
G01 X1.7272 Y44.2237
G01 X1.7903 Y44.2330
G01 X1.8540 Y44.2362
G01 X1.9177 Y44.2330
G01 X1.9808 Y44.2237
G01 X2.0426 Y44.2082
G01 X2.1027 Y44.1867
G01 X2.1603 Y44.1594
G01 X2.2150 Y44.1267
G01 X2.2662 Y44.0887
G01 X2.3134 Y44.0458
G01 X2.3563 Y43.9986
G01 X2.3943 Y43.9474
G01 X2.4270 Y43.8927
G01 X2.4543 Y43.8351
G01 X2.4758 Y43.7750
G01 X2.4913 Y43.7132
G01 X2.5006 Y43.6501
G01 X2.5038 Y43.5864
G01 X2.5006 Y43.5227
G01 X2.4913 Y43.4596
G01 X2.4758 Y43.3978
G01 X2.4543 Y43.3377
G01 X2.4270 Y43.2801
G01 X2.3943 Y43.2254
G01 X2.3563 Y43.1742
G01 X2.3134 Y43.1270
G01 X2.2662 Y43.0841
G01 X2.2150 Y43.0461
G01 X2.1603 Y43.0134
G01 X2.1027 Y42.9861
G01 X2.0426 Y42.9646
G01 X1.9808 Y42.9491
G01 X1.9177 Y42.9398
G01 X1.8540 Y42.9366
G01 X1.7904 Y42.9398
G01 X1.7272 Y42.9491
G01 X1.6654 Y42.9646
G01 X1.6053 Y42.9861
G01 X1.5477 Y43.0134
G01 X1.4930 Y43.0461
G01 X1.4418 Y43.0841
G01 X1.3946 Y43.1270
G01 X1.3517 Y43.1742
G01 X1.3137 Y43.2254
G01 X1.2810 Y43.2801
G01 X1.2537 Y43.3377
G01 X1.2322 Y43.3978
G01 X1.2167 Y43.4596
G01 X1.2074 Y43.5227
G01 X1.2042 Y43.5864
G00 Z1.0000
G00 X1.2042 Y43.5864
G01 F400.00
G01 Z0.0000
G01 F1000.00
G01 X1.6047 Y43.5864
G00 Z1.0000
G00 X1.6047 Y43.5864
G01 F400.00
G01 Z0.0000
G01 F1000.00
G01 X1.6059 Y43.6108
G01 X1.6095 Y43.6350
G01 X1.6155 Y43.6588
G01 X1.6237 Y43.6818
G01 X1.6342 Y43.7039
G01 X1.6467 Y43.7249
G01 X1.6613 Y43.7445
G01 X1.6777 Y43.7627
G01 X1.6959 Y43.7791
G01 X1.7155 Y43.7937
G01 X1.7365 Y43.8062
G01 X1.7586 Y43.8167
G01 X1.7816 Y43.8249
G01 X1.8054 Y43.8309
G01 X1.8296 Y43.8345
G01 X1.8540 Y43.8357
G01 X1.8784 Y43.8345
G01 X1.9026 Y43.8309
G01 X1.9264 Y43.8249
G01 X1.9494 Y43.8167
G01 X1.9715 Y43.8062
G01 X1.9925 Y43.7937
G01 X2.0121 Y43.7791
G01 X2.0303 Y43.7627
G01 X2.0467 Y43.7445
G01 X2.0613 Y43.7249
G01 X2.0738 Y43.7039
G01 X2.0843 Y43.6818
G01 X2.0925 Y43.6588
G01 X2.0985 Y43.6350
G01 X2.1021 Y43.6108
G01 X2.1033 Y43.5864
G01 X2.1021 Y43.5620
G01 X2.0985 Y43.5378
G01 X2.0925 Y43.5140
G01 X2.0843 Y43.4910
G01 X2.0738 Y43.4689
G01 X2.0613 Y43.4479
G01 X2.0467 Y43.4283
G01 X2.0303 Y43.4101
G01 X2.0121 Y43.3937
G01 X1.9925 Y43.3791
G01 X1.9715 Y43.3666
G01 X1.9494 Y43.3561
G01 X1.9264 Y43.3479
G01 X1.9026 Y43.3419
G01 X1.8784 Y43.3383
G01 X1.8540 Y43.3371
G01 X1.8297 Y43.3383
G01 X1.8053 Y43.3419
G01 X1.7816 Y43.3479
G01 X1.7586 Y43.3561
G01 X1.7365 Y43.3666
G01 X1.7155 Y43.3791
G01 X1.6959 Y43.3937
G01 X1.6777 Y43.4101
G01 X1.6613 Y43.4283
G01 X1.6467 Y43.4479
G01 X1.6342 Y43.4689
G01 X1.6237 Y43.4910
G01 X1.6155 Y43.5140
G01 X1.6095 Y43.5378
G01 X1.6059 Y43.5620
G01 X1.6047 Y43.5864
G00 Z1.0000
G00 X1.6047 Y46.1264
G01 F400.00
G01 Z0.0000
G01 F1000.00
G01 X1.6059 Y46.1508
G01 X1.6095 Y46.1750
G01 X1.6155 Y46.1988
G01 X1.6237 Y46.2218
G01 X1.6342 Y46.2439
G01 X1.6467 Y46.2649
G01 X1.6613 Y46.2845
G01 X1.6777 Y46.3027
G01 X1.6959 Y46.3191
G01 X1.7155 Y46.3337
G01 X1.7365 Y46.3462
G01 X1.7586 Y46.3567
G01 X1.7816 Y46.3649
G01 X1.8054 Y46.3709
G01 X1.8296 Y46.3745
G01 X1.8540 Y46.3757
G01 X1.8784 Y46.3745
G01 X1.9026 Y46.3709
G01 X1.9264 Y46.3649
G01 X1.9494 Y46.3567
G01 X1.9715 Y46.3462
G01 X1.9925 Y46.3337
G01 X2.0121 Y46.3191
G01 X2.0303 Y46.3027
G01 X2.0467 Y46.2845
G01 X2.0613 Y46.2649
G01 X2.0738 Y46.2439
G01 X2.0843 Y46.2218
G01 X2.0925 Y46.1988
G01 X2.0985 Y46.1750
G01 X2.1021 Y46.1508
G01 X2.1033 Y46.1264
G01 X2.1021 Y46.1020
G01 X2.0985 Y46.0778
G01 X2.0925 Y46.0540
G01 X2.0843 Y46.0310
G01 X2.0738 Y46.0089
G01 X2.0613 Y45.9879
G01 X2.0467 Y45.9683
G01 X2.0303 Y45.9501
G01 X2.0121 Y45.9337
G01 X1.9925 Y45.9191
G01 X1.9715 Y45.9066
G01 X1.9494 Y45.8961
G01 X1.9264 Y45.8879
G01 X1.9026 Y45.8819
G01 X1.8784 Y45.8783
G01 X1.8540 Y45.8771
G01 X1.8297 Y45.8783
G01 X1.8053 Y45.8819
G01 X1.7816 Y45.8879
G01 X1.7586 Y45.8961
G01 X1.7365 Y45.9066
G01 X1.7155 Y45.9191
G01 X1.6959 Y45.9337
G01 X1.6777 Y45.9501
G01 X1.6613 Y45.9683
G01 X1.6467 Y45.9879
G01 X1.6342 Y46.0089
G01 X1.6237 Y46.0310
G01 X1.6155 Y46.0540
G01 X1.6095 Y46.0778
G01 X1.6059 Y46.1020
G01 X1.6047 Y46.1264
G00 Z1.0000
G00 X1.6047 Y46.1264
G01 F400.00
G01 Z0.0000
G01 F1000.00
G01 X1.2042 Y46.1264
G00 Z1.0000
G00 X1.2042 Y46.1264
G01 F400.00
G01 Z0.0000
G01 F1000.00
G01 X1.2074 Y46.1901
G01 X1.2167 Y46.2532
G01 X1.2322 Y46.3150
G01 X1.2537 Y46.3751
G01 X1.2810 Y46.4327
G01 X1.3137 Y46.4874
G01 X1.3517 Y46.5386
G01 X1.3946 Y46.5858
G01 X1.4418 Y46.6287
G01 X1.4930 Y46.6667
G01 X1.5477 Y46.6994
G01 X1.6053 Y46.7267
G01 X1.6654 Y46.7482
G01 X1.7272 Y46.7637
G01 X1.7903 Y46.7730
G01 X1.8540 Y46.7762
G01 X1.9177 Y46.7730
G01 X1.9808 Y46.7637
G01 X2.0426 Y46.7482
G01 X2.1027 Y46.7267
G01 X2.1603 Y46.6994
G01 X2.2150 Y46.6667
G01 X2.2662 Y46.6287
G01 X2.3134 Y46.5858
G01 X2.3563 Y46.5386
G01 X2.3943 Y46.4874
G01 X2.4270 Y46.4327
G01 X2.4543 Y46.3751
G01 X2.4758 Y46.3150
G01 X2.4913 Y46.2532
G01 X2.5006 Y46.1901
G01 X2.5038 Y46.1264
G01 X2.5006 Y46.0627
G01 X2.4913 Y45.9996
G01 X2.4758 Y45.9378
G01 X2.4543 Y45.8777
G01 X2.4270 Y45.8201
G01 X2.3943 Y45.7654
G01 X2.3563 Y45.7142
G01 X2.3134 Y45.6670
G01 X2.2662 Y45.6241
G01 X2.2150 Y45.5861
G01 X2.1603 Y45.5534
G01 X2.1027 Y45.5261
G01 X2.0426 Y45.5046
G01 X1.9808 Y45.4891
G01 X1.9177 Y45.4798
G01 X1.8540 Y45.4766
G01 X1.7904 Y45.4798
G01 X1.7272 Y45.4891
G01 X1.6654 Y45.5046
G01 X1.6053 Y45.5261
G01 X1.5477 Y45.5534
G01 X1.4930 Y45.5861
G01 X1.4418 Y45.6241
G01 X1.3946 Y45.6670
G01 X1.3517 Y45.7142
G01 X1.3137 Y45.7654
G01 X1.2810 Y45.8201
G01 X1.2537 Y45.8777
G01 X1.2322 Y45.9378
G01 X1.2167 Y45.9996
G01 X1.2074 Y46.0627
G01 X1.2042 Y46.1264
G00 Z1.0000
G00 X1.2042 Y48.6664
G01 F400.00
G01 Z0.0000
G01 F1000.00
G01 X1.2074 Y48.7301
G01 X1.2167 Y48.7932
G01 X1.2322 Y48.8550
G01 X1.2537 Y48.9151
G01 X1.2810 Y48.9727
G01 X1.3137 Y49.0274
G01 X1.3517 Y49.0786
G01 X1.3946 Y49.1258
G01 X1.4418 Y49.1687
G01 X1.4930 Y49.2067
G01 X1.5477 Y49.2394
G01 X1.6053 Y49.2667
G01 X1.6654 Y49.2882
G01 X1.7272 Y49.3037
G01 X1.7903 Y49.3130
G01 X1.8540 Y49.3162
G01 X1.9177 Y49.3130
G01 X1.9808 Y49.3037
G01 X2.0426 Y49.2882
G01 X2.1027 Y49.2667
G01 X2.1603 Y49.2394
G01 X2.2150 Y49.2067
G01 X2.2662 Y49.1687
G01 X2.3134 Y49.1258
G01 X2.3563 Y49.0786
G01 X2.3943 Y49.0274
G01 X2.4270 Y48.9727
G01 X2.4543 Y48.9151
G01 X2.4758 Y48.8550
G01 X2.4913 Y48.7932
G01 X2.5006 Y48.7301
G01 X2.5038 Y48.6664
G01 X2.5006 Y48.6027
G01 X2.4913 Y48.5396
G01 X2.4758 Y48.4778
G01 X2.4543 Y48.4177
G01 X2.4270 Y48.3601
G01 X2.3943 Y48.3054
G01 X2.3563 Y48.2542
G01 X2.3134 Y48.2070
G01 X2.2662 Y48.1641
G01 X2.2150 Y48.1261
G01 X2.1603 Y48.0934
G01 X2.1027 Y48.0661
G01 X2.0426 Y48.0446
G01 X1.9808 Y48.0291
G01 X1.9177 Y48.0198
G01 X1.8540 Y48.0166
G01 X1.7904 Y48.0198
G01 X1.7272 Y48.0291
G01 X1.6654 Y48.0446
G01 X1.6053 Y48.0661
G01 X1.5477 Y48.0934
G01 X1.4930 Y48.1261
G01 X1.4418 Y48.1641
G01 X1.3946 Y48.2070
G01 X1.3517 Y48.2542
G01 X1.3137 Y48.3054
G01 X1.2810 Y48.3601
G01 X1.2537 Y48.4177
G01 X1.2322 Y48.4778
G01 X1.2167 Y48.5396
G01 X1.2074 Y48.6027
G01 X1.2042 Y48.6664
G00 Z1.0000
G00 X1.2042 Y48.6664
G01 F400.00
G01 Z0.0000
G01 F1000.00
G01 X1.6047 Y48.6664
G00 Z1.0000
G00 X1.6047 Y48.6664
G01 F400.00
G01 Z0.0000
G01 F1000.00
G01 X1.6059 Y48.6908
G01 X1.6095 Y48.7150
G01 X1.6155 Y48.7388
G01 X1.6237 Y48.7618
G01 X1.6342 Y48.7839
G01 X1.6467 Y48.8049
G01 X1.6613 Y48.8245
G01 X1.6777 Y48.8427
G01 X1.6959 Y48.8591
G01 X1.7155 Y48.8737
G01 X1.7365 Y48.8862
G01 X1.7586 Y48.8967
G01 X1.7816 Y48.9049
G01 X1.8054 Y48.9109
G01 X1.8296 Y48.9145
G01 X1.8540 Y48.9157
G01 X1.8784 Y48.9145
G01 X1.9026 Y48.9109
G01 X1.9264 Y48.9049
G01 X1.9494 Y48.8967
G01 X1.9715 Y48.8862
G01 X1.9925 Y48.8737
G01 X2.0121 Y48.8591
G01 X2.0303 Y48.8427
G01 X2.0467 Y48.8245
G01 X2.0613 Y48.8049
G01 X2.0738 Y48.7839
G01 X2.0843 Y48.7618
G01 X2.0925 Y48.7388
G01 X2.0985 Y48.7150
G01 X2.1021 Y48.6908
G01 X2.1033 Y48.6664
G01 X2.1021 Y48.6420
G01 X2.0985 Y48.6178
G01 X2.0925 Y48.5940
G01 X2.0843 Y48.5710
G01 X2.0738 Y48.5489
G01 X2.0613 Y48.5279
G01 X2.0467 Y48.5083
G01 X2.0303 Y48.4901
G01 X2.0121 Y48.4737
G01 X1.9925 Y48.4591
G01 X1.9715 Y48.4466
G01 X1.9494 Y48.4361
G01 X1.9264 Y48.4279
G01 X1.9026 Y48.4219
G01 X1.8784 Y48.4183
G01 X1.8540 Y48.4171
G01 X1.8297 Y48.4183
G01 X1.8053 Y48.4219
G01 X1.7816 Y48.4279
G01 X1.7586 Y48.4361
G01 X1.7365 Y48.4466
G01 X1.7155 Y48.4591
G01 X1.6959 Y48.4737
G01 X1.6777 Y48.4901
G01 X1.6613 Y48.5083
G01 X1.6467 Y48.5279
G01 X1.6342 Y48.5489
G01 X1.6237 Y48.5710
G01 X1.6155 Y48.5940
G01 X1.6095 Y48.6178
G01 X1.6059 Y48.6420
G01 X1.6047 Y48.6664
G00 Z1.0000
G00 X1.6047 Y51.2064
G01 F400.00
G01 Z0.0000
G01 F1000.00
G01 X1.2042 Y51.2064
G00 Z1.0000
G00 X1.6047 Y51.2064
G01 F400.00
G01 Z0.0000
G01 F1000.00
G01 X1.6059 Y51.2308
G01 X1.6095 Y51.2550
G01 X1.6155 Y51.2788
G01 X1.6237 Y51.3018
G01 X1.6342 Y51.3239
G01 X1.6467 Y51.3449
G01 X1.6613 Y51.3645
G01 X1.6777 Y51.3827
G01 X1.6959 Y51.3991
G01 X1.7155 Y51.4137
G01 X1.7365 Y51.4262
G01 X1.7586 Y51.4367
G01 X1.7816 Y51.4449
G01 X1.8054 Y51.4509
G01 X1.8296 Y51.4545
G01 X1.8540 Y51.4557
G01 X1.8784 Y51.4545
G01 X1.9026 Y51.4509
G01 X1.9264 Y51.4449
G01 X1.9494 Y51.4367
G01 X1.9715 Y51.4262
G01 X1.9925 Y51.4137
G01 X2.0121 Y51.3991
G01 X2.0303 Y51.3827
G01 X2.0467 Y51.3645
G01 X2.0613 Y51.3449
G01 X2.0738 Y51.3239
G01 X2.0843 Y51.3018
G01 X2.0925 Y51.2788
G01 X2.0985 Y51.2550
G01 X2.1021 Y51.2308
G01 X2.1033 Y51.2064
G01 X2.1021 Y51.1820
G01 X2.0985 Y51.1578
G01 X2.0925 Y51.1340
G01 X2.0843 Y51.1110
G01 X2.0738 Y51.0889
G01 X2.0613 Y51.0679
G01 X2.0467 Y51.0483
G01 X2.0303 Y51.0301
G01 X2.0121 Y51.0137
G01 X1.9925 Y50.9991
G01 X1.9715 Y50.9866
G01 X1.9494 Y50.9761
G01 X1.9264 Y50.9679
G01 X1.9026 Y50.9619
G01 X1.8784 Y50.9583
G01 X1.8540 Y50.9571
G01 X1.8297 Y50.9583
G01 X1.8053 Y50.9619
G01 X1.7816 Y50.9679
G01 X1.7586 Y50.9761
G01 X1.7365 Y50.9866
G01 X1.7155 Y50.9991
G01 X1.6959 Y51.0137
G01 X1.6777 Y51.0301
G01 X1.6613 Y51.0483
G01 X1.6467 Y51.0679
G01 X1.6342 Y51.0889
G01 X1.6237 Y51.1110
G01 X1.6155 Y51.1340
G01 X1.6095 Y51.1578
G01 X1.6059 Y51.1820
G01 X1.6047 Y51.2064
G00 Z1.0000
G00 X1.2042 Y51.2064
G01 F400.00
G01 Z0.0000
G01 F1000.00
G01 X1.2074 Y51.2701
G01 X1.2167 Y51.3332
G01 X1.2322 Y51.3950
G01 X1.2537 Y51.4551
G01 X1.2810 Y51.5127
G01 X1.3137 Y51.5674
G01 X1.3517 Y51.6186
G01 X1.3946 Y51.6658
G01 X1.4418 Y51.7087
G01 X1.4930 Y51.7467
G01 X1.5477 Y51.7794
G01 X1.6053 Y51.8067
G01 X1.6654 Y51.8282
G01 X1.7272 Y51.8437
G01 X1.7903 Y51.8530
G01 X1.8540 Y51.8562
G01 X1.9177 Y51.8530
G01 X1.9808 Y51.8437
G01 X2.0426 Y51.8282
G01 X2.1027 Y51.8067
G01 X2.1603 Y51.7794
G01 X2.2150 Y51.7467
G01 X2.2662 Y51.7087
G01 X2.3134 Y51.6658
G01 X2.3563 Y51.6186
G01 X2.3943 Y51.5674
G01 X2.4270 Y51.5127
G01 X2.4543 Y51.4551
G01 X2.4758 Y51.3950
G01 X2.4913 Y51.3332
G01 X2.5006 Y51.2701
G01 X2.5038 Y51.2064
G01 X2.5006 Y51.1427
G01 X2.4913 Y51.0796
G01 X2.4758 Y51.0178
G01 X2.4543 Y50.9577
G01 X2.4270 Y50.9001
G01 X2.3943 Y50.8454
G01 X2.3563 Y50.7942
G01 X2.3134 Y50.7470
G01 X2.2662 Y50.7041
G01 X2.2150 Y50.6661
G01 X2.1603 Y50.6334
G01 X2.1027 Y50.6061
G01 X2.0426 Y50.5846
G01 X1.9808 Y50.5691
G01 X1.9177 Y50.5598
G01 X1.8540 Y50.5566
G01 X1.7904 Y50.5598
G01 X1.7272 Y50.5691
G01 X1.6654 Y50.5846
G01 X1.6053 Y50.6061
G01 X1.5477 Y50.6334
G01 X1.4930 Y50.6661
G01 X1.4418 Y50.7041
G01 X1.3946 Y50.7470
G01 X1.3517 Y50.7942
G01 X1.3137 Y50.8454
G01 X1.2810 Y50.9001
G01 X1.2537 Y50.9577
G01 X1.2322 Y51.0178
G01 X1.2167 Y51.0796
G01 X1.2074 Y51.1427
G01 X1.2042 Y51.2064
G00 Z1.0000
G00 X1.2042 Y53.7464
G01 F400.00
G01 Z0.0000
G01 F1000.00
G01 X1.6047 Y53.7464
G00 Z1.0000
G00 X1.6047 Y53.7464
G01 F400.00
G01 Z0.0000
G01 F1000.00
G01 X1.6059 Y53.7708
G01 X1.6095 Y53.7950
G01 X1.6155 Y53.8188
G01 X1.6237 Y53.8418
G01 X1.6342 Y53.8639
G01 X1.6467 Y53.8849
G01 X1.6613 Y53.9045
G01 X1.6777 Y53.9227
G01 X1.6959 Y53.9391
G01 X1.7155 Y53.9537
G01 X1.7365 Y53.9662
G01 X1.7586 Y53.9767
G01 X1.7816 Y53.9849
G01 X1.8054 Y53.9909
G01 X1.8296 Y53.9945
G01 X1.8540 Y53.9957
G01 X1.8784 Y53.9945
G01 X1.9026 Y53.9909
G01 X1.9264 Y53.9849
G01 X1.9494 Y53.9767
G01 X1.9715 Y53.9662
G01 X1.9925 Y53.9537
G01 X2.0121 Y53.9391
G01 X2.0303 Y53.9227
G01 X2.0467 Y53.9045
G01 X2.0613 Y53.8849
G01 X2.0738 Y53.8639
G01 X2.0843 Y53.8418
G01 X2.0925 Y53.8188
G01 X2.0985 Y53.7950
G01 X2.1021 Y53.7708
G01 X2.1033 Y53.7464
G01 X2.1021 Y53.7220
G01 X2.0985 Y53.6978
G01 X2.0925 Y53.6740
G01 X2.0843 Y53.6510
G01 X2.0738 Y53.6289
G01 X2.0613 Y53.6079
G01 X2.0467 Y53.5883
G01 X2.0303 Y53.5701
G01 X2.0121 Y53.5537
G01 X1.9925 Y53.5391
G01 X1.9715 Y53.5266
G01 X1.9494 Y53.5161
G01 X1.9264 Y53.5079
G01 X1.9026 Y53.5019
G01 X1.8784 Y53.4983
G01 X1.8540 Y53.4971
G01 X1.8297 Y53.4983
G01 X1.8053 Y53.5019
G01 X1.7816 Y53.5079
G01 X1.7586 Y53.5161
G01 X1.7365 Y53.5266
G01 X1.7155 Y53.5391
G01 X1.6959 Y53.5537
G01 X1.6777 Y53.5701
G01 X1.6613 Y53.5883
G01 X1.6467 Y53.6079
G01 X1.6342 Y53.6289
G01 X1.6237 Y53.6510
G01 X1.6155 Y53.6740
G01 X1.6095 Y53.6978
G01 X1.6059 Y53.7220
G01 X1.6047 Y53.7464
G00 Z1.0000
G00 X1.2042 Y53.7464
G01 F400.00
G01 Z0.0000
G01 F1000.00
G01 X1.2074 Y53.8101
G01 X1.2167 Y53.8732
G01 X1.2322 Y53.9350
G01 X1.2537 Y53.9951
G01 X1.2810 Y54.0527
G01 X1.3137 Y54.1074
G01 X1.3517 Y54.1586
G01 X1.3946 Y54.2058
G01 X1.4418 Y54.2487
G01 X1.4930 Y54.2867
G01 X1.5477 Y54.3194
G01 X1.6053 Y54.3467
G01 X1.6654 Y54.3682
G01 X1.7272 Y54.3837
G01 X1.7903 Y54.3930
G01 X1.8540 Y54.3962
G01 X1.9177 Y54.3930
G01 X1.9808 Y54.3837
G01 X2.0426 Y54.3682
G01 X2.1027 Y54.3467
G01 X2.1603 Y54.3194
G01 X2.2150 Y54.2867
G01 X2.2662 Y54.2487
G01 X2.3134 Y54.2058
G01 X2.3563 Y54.1586
G01 X2.3943 Y54.1074
G01 X2.4270 Y54.0527
G01 X2.4543 Y53.9951
G01 X2.4758 Y53.9350
G01 X2.4913 Y53.8732
G01 X2.5006 Y53.8101
G01 X2.5038 Y53.7464
G01 X2.5006 Y53.6827
G01 X2.4913 Y53.6196
G01 X2.4758 Y53.5578
G01 X2.4543 Y53.4977
G01 X2.4270 Y53.4401
G01 X2.3943 Y53.3854
G01 X2.3563 Y53.3342
G01 X2.3134 Y53.2870
G01 X2.2662 Y53.2441
G01 X2.2150 Y53.2061
G01 X2.1603 Y53.1734
G01 X2.1027 Y53.1461
G01 X2.0426 Y53.1246
G01 X1.9808 Y53.1091
G01 X1.9177 Y53.0998
G01 X1.8540 Y53.0966
G01 X1.7904 Y53.0998
G01 X1.7272 Y53.1091
G01 X1.6654 Y53.1246
G01 X1.6053 Y53.1461
G01 X1.5477 Y53.1734
G01 X1.4930 Y53.2061
G01 X1.4418 Y53.2441
G01 X1.3946 Y53.2870
G01 X1.3517 Y53.3342
G01 X1.3137 Y53.3854
G01 X1.2810 Y53.4401
G01 X1.2537 Y53.4977
G01 X1.2322 Y53.5578
G01 X1.2167 Y53.6196
G01 X1.2074 Y53.6827
G01 X1.2042 Y53.7464
G00 Z1.0000
G00 X1.2042 Y56.2864
G01 F400.00
G01 Z0.0000
G01 F1000.00
G01 X1.6047 Y56.2864
G00 Z1.0000
G00 X1.6047 Y56.2864
G01 F400.00
G01 Z0.0000
G01 F1000.00
G01 X1.6059 Y56.3108
G01 X1.6095 Y56.3350
G01 X1.6155 Y56.3588
G01 X1.6237 Y56.3818
G01 X1.6342 Y56.4039
G01 X1.6467 Y56.4249
G01 X1.6613 Y56.4445
G01 X1.6777 Y56.4627
G01 X1.6959 Y56.4791
G01 X1.7155 Y56.4937
G01 X1.7365 Y56.5062
G01 X1.7586 Y56.5167
G01 X1.7816 Y56.5249
G01 X1.8054 Y56.5309
G01 X1.8296 Y56.5345
G01 X1.8540 Y56.5357
G01 X1.8784 Y56.5345
G01 X1.9026 Y56.5309
G01 X1.9264 Y56.5249
G01 X1.9494 Y56.5167
G01 X1.9715 Y56.5062
G01 X1.9925 Y56.4937
G01 X2.0121 Y56.4791
G01 X2.0303 Y56.4627
G01 X2.0467 Y56.4445
G01 X2.0613 Y56.4249
G01 X2.0738 Y56.4039
G01 X2.0843 Y56.3818
G01 X2.0925 Y56.3588
G01 X2.0985 Y56.3350
G01 X2.1021 Y56.3108
G01 X2.1033 Y56.2864
G01 X2.1021 Y56.2620
G01 X2.0985 Y56.2378
G01 X2.0925 Y56.2140
G01 X2.0843 Y56.1910
G01 X2.0738 Y56.1689
G01 X2.0613 Y56.1479
G01 X2.0467 Y56.1283
G01 X2.0303 Y56.1101
G01 X2.0121 Y56.0937
G01 X1.9925 Y56.0791
G01 X1.9715 Y56.0666
G01 X1.9494 Y56.0561
G01 X1.9264 Y56.0479
G01 X1.9026 Y56.0419
G01 X1.8784 Y56.0383
G01 X1.8540 Y56.0371
G01 X1.8296 Y56.0383
G01 X1.8054 Y56.0419
G01 X1.7816 Y56.0479
G01 X1.7586 Y56.0561
G01 X1.7365 Y56.0666
G01 X1.7155 Y56.0791
G01 X1.6959 Y56.0937
G01 X1.6777 Y56.1101
G01 X1.6613 Y56.1283
G01 X1.6467 Y56.1479
G01 X1.6342 Y56.1689
G01 X1.6237 Y56.1910
G01 X1.6155 Y56.2140
G01 X1.6095 Y56.2378
G01 X1.6059 Y56.2620
G01 X1.6047 Y56.2864
G00 Z1.0000
G00 X1.2042 Y56.2864
G01 F400.00
G01 Z0.0000
G01 F1000.00
G01 X1.2074 Y56.3501
G01 X1.2167 Y56.4132
G01 X1.2322 Y56.4750
G01 X1.2537 Y56.5351
G01 X1.2810 Y56.5927
G01 X1.3137 Y56.6474
G01 X1.3517 Y56.6986
G01 X1.3946 Y56.7458
G01 X1.4418 Y56.7887
G01 X1.4930 Y56.8267
G01 X1.5477 Y56.8594
G01 X1.6053 Y56.8867
G01 X1.6654 Y56.9082
G01 X1.7272 Y56.9237
G01 X1.7903 Y56.9330
G01 X1.8540 Y56.9362
G01 X1.9177 Y56.9330
G01 X1.9808 Y56.9237
G01 X2.0426 Y56.9082
G01 X2.1027 Y56.8867
G01 X2.1603 Y56.8594
G01 X2.2150 Y56.8267
G01 X2.2662 Y56.7887
G01 X2.3134 Y56.7458
G01 X2.3563 Y56.6986
G01 X2.3943 Y56.6474
G01 X2.4270 Y56.5927
G01 X2.4543 Y56.5351
G01 X2.4758 Y56.4750
G01 X2.4913 Y56.4132
G01 X2.5006 Y56.3501
G01 X2.5038 Y56.2864
G01 X2.5006 Y56.2227
G01 X2.4913 Y56.1596
G01 X2.4758 Y56.0978
G01 X2.4543 Y56.0377
G01 X2.4270 Y55.9801
G01 X2.3943 Y55.9254
G01 X2.3563 Y55.8742
G01 X2.3134 Y55.8270
G01 X2.2662 Y55.7841
G01 X2.2150 Y55.7461
G01 X2.1603 Y55.7134
G01 X2.1027 Y55.6861
G01 X2.0426 Y55.6646
G01 X1.9808 Y55.6491
G01 X1.9177 Y55.6398
G01 X1.8540 Y55.6366
G01 X1.7903 Y55.6398
G01 X1.7272 Y55.6491
G01 X1.6654 Y55.6646
G01 X1.6053 Y55.6861
G01 X1.5477 Y55.7134
G01 X1.4930 Y55.7461
G01 X1.4418 Y55.7841
G01 X1.3946 Y55.8270
G01 X1.3517 Y55.8742
G01 X1.3137 Y55.9254
G01 X1.2810 Y55.9801
G01 X1.2537 Y56.0377
G01 X1.2322 Y56.0978
G01 X1.2167 Y56.1596
G01 X1.2074 Y56.2227
G01 X1.2042 Y56.2864
G00 Z1.0000
G00 X1.2042 Y58.8264
G01 F400.00
G01 Z0.0000
G01 F1000.00
G01 X1.6047 Y58.8264
G00 Z1.0000
G00 X1.6047 Y58.8264
G01 F400.00
G01 Z0.0000
G01 F1000.00
G01 X1.6059 Y58.8508
G01 X1.6095 Y58.8750
G01 X1.6155 Y58.8988
G01 X1.6237 Y58.9218
G01 X1.6342 Y58.9439
G01 X1.6467 Y58.9649
G01 X1.6613 Y58.9845
G01 X1.6777 Y59.0027
G01 X1.6959 Y59.0191
G01 X1.7155 Y59.0337
G01 X1.7365 Y59.0462
G01 X1.7586 Y59.0567
G01 X1.7816 Y59.0649
G01 X1.8054 Y59.0709
G01 X1.8296 Y59.0745
G01 X1.8540 Y59.0757
G01 X1.8784 Y59.0745
G01 X1.9026 Y59.0709
G01 X1.9264 Y59.0649
G01 X1.9494 Y59.0567
G01 X1.9715 Y59.0462
G01 X1.9925 Y59.0337
G01 X2.0121 Y59.0191
G01 X2.0303 Y59.0027
G01 X2.0467 Y58.9845
G01 X2.0613 Y58.9649
G01 X2.0738 Y58.9439
G01 X2.0843 Y58.9218
G01 X2.0925 Y58.8988
G01 X2.0985 Y58.8750
G01 X2.1021 Y58.8508
G01 X2.1033 Y58.8264
G01 X2.1021 Y58.8020
G01 X2.0985 Y58.7778
G01 X2.0925 Y58.7540
G01 X2.0843 Y58.7310
G01 X2.0738 Y58.7089
G01 X2.0613 Y58.6879
G01 X2.0467 Y58.6683
G01 X2.0303 Y58.6501
G01 X2.0121 Y58.6337
G01 X1.9925 Y58.6191
G01 X1.9715 Y58.6066
G01 X1.9494 Y58.5961
G01 X1.9264 Y58.5879
G01 X1.9026 Y58.5819
G01 X1.8784 Y58.5783
G01 X1.8540 Y58.5771
G01 X1.8296 Y58.5783
G01 X1.8054 Y58.5819
G01 X1.7816 Y58.5879
G01 X1.7586 Y58.5961
G01 X1.7365 Y58.6066
G01 X1.7155 Y58.6191
G01 X1.6959 Y58.6337
G01 X1.6777 Y58.6501
G01 X1.6613 Y58.6683
G01 X1.6467 Y58.6879
G01 X1.6342 Y58.7089
G01 X1.6237 Y58.7310
G01 X1.6155 Y58.7540
G01 X1.6095 Y58.7778
G01 X1.6059 Y58.8020
G01 X1.6047 Y58.8264
G00 Z1.0000
G00 X1.2042 Y58.8264
G01 F400.00
G01 Z0.0000
G01 F1000.00
G01 X1.2074 Y58.8901
G01 X1.2167 Y58.9532
G01 X1.2322 Y59.0150
G01 X1.2537 Y59.0751
G01 X1.2810 Y59.1327
G01 X1.3137 Y59.1874
G01 X1.3517 Y59.2386
G01 X1.3946 Y59.2858
G01 X1.4418 Y59.3287
G01 X1.4930 Y59.3667
G01 X1.5477 Y59.3994
G01 X1.6053 Y59.4267
G01 X1.6654 Y59.4482
G01 X1.7272 Y59.4637
G01 X1.7903 Y59.4730
G01 X1.8540 Y59.4762
G01 X1.9177 Y59.4730
G01 X1.9808 Y59.4637
G01 X2.0426 Y59.4482
G01 X2.1027 Y59.4267
G01 X2.1603 Y59.3994
G01 X2.2150 Y59.3667
G01 X2.2662 Y59.3287
G01 X2.3134 Y59.2858
G01 X2.3563 Y59.2386
G01 X2.3943 Y59.1874
G01 X2.4270 Y59.1327
G01 X2.4543 Y59.0751
G01 X2.4758 Y59.0150
G01 X2.4913 Y58.9532
G01 X2.5006 Y58.8901
G01 X2.5038 Y58.8264
G01 X2.5006 Y58.7627
G01 X2.4913 Y58.6996
G01 X2.4758 Y58.6378
G01 X2.4543 Y58.5777
G01 X2.4270 Y58.5201
G01 X2.3943 Y58.4654
G01 X2.3563 Y58.4142
G01 X2.3134 Y58.3670
G01 X2.2662 Y58.3241
G01 X2.2150 Y58.2861
G01 X2.1603 Y58.2534
G01 X2.1027 Y58.2261
G01 X2.0426 Y58.2046
G01 X1.9808 Y58.1891
G01 X1.9177 Y58.1798
G01 X1.8540 Y58.1766
G01 X1.7903 Y58.1798
G01 X1.7272 Y58.1891
G01 X1.6654 Y58.2046
G01 X1.6053 Y58.2261
G01 X1.5477 Y58.2534
G01 X1.4930 Y58.2861
G01 X1.4418 Y58.3241
G01 X1.3946 Y58.3670
G01 X1.3517 Y58.4142
G01 X1.3137 Y58.4654
G01 X1.2810 Y58.5201
G01 X1.2537 Y58.5777
G01 X1.2322 Y58.6378
G01 X1.2167 Y58.6996
G01 X1.2074 Y58.7627
G01 X1.2042 Y58.8264
G00 Z1.0000
G00 X1.2042 Y61.3664
G01 F400.00
G01 Z0.0000
G01 F1000.00
G01 X1.6047 Y61.3664
G00 Z1.0000
G00 X1.6047 Y61.3664
G01 F400.00
G01 Z0.0000
G01 F1000.00
G01 X1.6059 Y61.3908
G01 X1.6095 Y61.4150
G01 X1.6155 Y61.4388
G01 X1.6237 Y61.4618
G01 X1.6342 Y61.4839
G01 X1.6467 Y61.5049
G01 X1.6613 Y61.5245
G01 X1.6777 Y61.5427
G01 X1.6959 Y61.5591
G01 X1.7155 Y61.5737
G01 X1.7365 Y61.5862
G01 X1.7586 Y61.5967
G01 X1.7816 Y61.6049
G01 X1.8054 Y61.6109
G01 X1.8296 Y61.6145
G01 X1.8540 Y61.6157
G01 X1.8784 Y61.6145
G01 X1.9026 Y61.6109
G01 X1.9264 Y61.6049
G01 X1.9494 Y61.5967
G01 X1.9715 Y61.5862
G01 X1.9925 Y61.5737
G01 X2.0121 Y61.5591
G01 X2.0303 Y61.5427
G01 X2.0467 Y61.5245
G01 X2.0613 Y61.5049
G01 X2.0738 Y61.4839
G01 X2.0843 Y61.4618
G01 X2.0925 Y61.4388
G01 X2.0985 Y61.4150
G01 X2.1021 Y61.3908
G01 X2.1033 Y61.3664
G01 X2.1021 Y61.3420
G01 X2.0985 Y61.3178
G01 X2.0925 Y61.2940
G01 X2.0843 Y61.2710
G01 X2.0738 Y61.2489
G01 X2.0613 Y61.2279
G01 X2.0467 Y61.2083
G01 X2.0303 Y61.1901
G01 X2.0121 Y61.1737
G01 X1.9925 Y61.1591
G01 X1.9715 Y61.1466
G01 X1.9494 Y61.1361
G01 X1.9264 Y61.1279
G01 X1.9026 Y61.1219
G01 X1.8784 Y61.1183
G01 X1.8540 Y61.1171
G01 X1.8297 Y61.1183
G01 X1.8053 Y61.1219
G01 X1.7816 Y61.1279
G01 X1.7586 Y61.1361
G01 X1.7365 Y61.1466
G01 X1.7155 Y61.1591
G01 X1.6959 Y61.1737
G01 X1.6777 Y61.1901
G01 X1.6613 Y61.2083
G01 X1.6467 Y61.2279
G01 X1.6342 Y61.2489
G01 X1.6237 Y61.2710
G01 X1.6155 Y61.2940
G01 X1.6095 Y61.3178
G01 X1.6059 Y61.3420
G01 X1.6047 Y61.3664
G00 Z1.0000
G00 X1.2042 Y61.3664
G01 F400.00
G01 Z0.0000
G01 F1000.00
G01 X1.2074 Y61.4301
G01 X1.2167 Y61.4932
G01 X1.2322 Y61.5550
G01 X1.2537 Y61.6151
G01 X1.2810 Y61.6727
G01 X1.3137 Y61.7274
G01 X1.3517 Y61.7786
G01 X1.3946 Y61.8258
G01 X1.4418 Y61.8687
G01 X1.4930 Y61.9067
G01 X1.5477 Y61.9394
G01 X1.6053 Y61.9667
G01 X1.6654 Y61.9882
G01 X1.7272 Y62.0037
G01 X1.7903 Y62.0130
G01 X1.8540 Y62.0162
G01 X1.9177 Y62.0130
G01 X1.9808 Y62.0037
G01 X2.0426 Y61.9882
G01 X2.1027 Y61.9667
G01 X2.1603 Y61.9394
G01 X2.2150 Y61.9067
G01 X2.2662 Y61.8687
G01 X2.3134 Y61.8258
G01 X2.3563 Y61.7786
G01 X2.3943 Y61.7274
G01 X2.4270 Y61.6727
G01 X2.4543 Y61.6151
G01 X2.4758 Y61.5550
G01 X2.4913 Y61.4932
G01 X2.5006 Y61.4301
G01 X2.5038 Y61.3664
G01 X2.5006 Y61.3027
G01 X2.4913 Y61.2396
G01 X2.4758 Y61.1778
G01 X2.4543 Y61.1177
G01 X2.4270 Y61.0601
G01 X2.3943 Y61.0054
G01 X2.3563 Y60.9542
G01 X2.3134 Y60.9070
G01 X2.2662 Y60.8641
G01 X2.2150 Y60.8261
G01 X2.1603 Y60.7934
G01 X2.1027 Y60.7661
G01 X2.0426 Y60.7446
G01 X1.9808 Y60.7291
G01 X1.9177 Y60.7198
G01 X1.8540 Y60.7166
G01 X1.7904 Y60.7198
G01 X1.7272 Y60.7291
G01 X1.6654 Y60.7446
G01 X1.6053 Y60.7661
G01 X1.5477 Y60.7934
G01 X1.4930 Y60.8261
G01 X1.4418 Y60.8641
G01 X1.3946 Y60.9070
G01 X1.3517 Y60.9542
G01 X1.3137 Y61.0054
G01 X1.2810 Y61.0601
G01 X1.2537 Y61.1177
G01 X1.2322 Y61.1778
G01 X1.2167 Y61.2396
G01 X1.2074 Y61.3027
G01 X1.2042 Y61.3664
G00 Z1.0000
G00 X1.2042 Y63.9064
G01 F400.00
G01 Z0.0000
G01 F1000.00
G01 X1.6047 Y63.9064
G00 Z1.0000
G00 X1.6047 Y63.9064
G01 F400.00
G01 Z0.0000
G01 F1000.00
G01 X1.6059 Y63.9308
G01 X1.6095 Y63.9550
G01 X1.6155 Y63.9788
G01 X1.6237 Y64.0018
G01 X1.6342 Y64.0239
G01 X1.6467 Y64.0449
G01 X1.6613 Y64.0645
G01 X1.6777 Y64.0827
G01 X1.6959 Y64.0991
G01 X1.7155 Y64.1137
G01 X1.7365 Y64.1262
G01 X1.7586 Y64.1367
G01 X1.7816 Y64.1449
G01 X1.8054 Y64.1509
G01 X1.8296 Y64.1545
G01 X1.8540 Y64.1557
G01 X1.8784 Y64.1545
G01 X1.9026 Y64.1509
G01 X1.9264 Y64.1449
G01 X1.9494 Y64.1367
G01 X1.9715 Y64.1262
G01 X1.9925 Y64.1137
G01 X2.0121 Y64.0991
G01 X2.0303 Y64.0827
G01 X2.0467 Y64.0645
G01 X2.0613 Y64.0449
G01 X2.0738 Y64.0239
G01 X2.0843 Y64.0018
G01 X2.0925 Y63.9788
G01 X2.0985 Y63.9550
G01 X2.1021 Y63.9308
G01 X2.1033 Y63.9064
G01 X2.1021 Y63.8820
G01 X2.0985 Y63.8578
G01 X2.0925 Y63.8340
G01 X2.0843 Y63.8110
G01 X2.0738 Y63.7889
G01 X2.0613 Y63.7679
G01 X2.0467 Y63.7483
G01 X2.0303 Y63.7301
G01 X2.0121 Y63.7137
G01 X1.9925 Y63.6991
G01 X1.9715 Y63.6866
G01 X1.9494 Y63.6761
G01 X1.9264 Y63.6679
G01 X1.9026 Y63.6619
G01 X1.8784 Y63.6583
G01 X1.8540 Y63.6571
G01 X1.8297 Y63.6583
G01 X1.8053 Y63.6619
G01 X1.7816 Y63.6679
G01 X1.7586 Y63.6761
G01 X1.7365 Y63.6866
G01 X1.7155 Y63.6991
G01 X1.6959 Y63.7137
G01 X1.6777 Y63.7301
G01 X1.6613 Y63.7483
G01 X1.6467 Y63.7679
G01 X1.6342 Y63.7889
G01 X1.6237 Y63.8110
G01 X1.6155 Y63.8340
G01 X1.6095 Y63.8578
G01 X1.6059 Y63.8820
G01 X1.6047 Y63.9064
G00 Z1.0000
G00 X1.2042 Y63.9064
G01 F400.00
G01 Z0.0000
G01 F1000.00
G01 X1.2074 Y63.9701
G01 X1.2167 Y64.0332
G01 X1.2322 Y64.0950
G01 X1.2537 Y64.1551
G01 X1.2810 Y64.2127
G01 X1.3137 Y64.2674
G01 X1.3517 Y64.3186
G01 X1.3946 Y64.3658
G01 X1.4418 Y64.4087
G01 X1.4930 Y64.4467
G01 X1.5477 Y64.4794
G01 X1.6053 Y64.5067
G01 X1.6654 Y64.5282
G01 X1.7272 Y64.5437
G01 X1.7903 Y64.5530
G01 X1.8540 Y64.5562
G01 X1.9177 Y64.5530
G01 X1.9808 Y64.5437
G01 X2.0426 Y64.5282
G01 X2.1027 Y64.5067
G01 X2.1603 Y64.4794
G01 X2.2150 Y64.4467
G01 X2.2662 Y64.4087
G01 X2.3134 Y64.3658
G01 X2.3563 Y64.3186
G01 X2.3943 Y64.2674
G01 X2.4270 Y64.2127
G01 X2.4543 Y64.1551
G01 X2.4758 Y64.0950
G01 X2.4913 Y64.0332
G01 X2.5006 Y63.9701
G01 X2.5038 Y63.9064
G01 X2.5006 Y63.8427
G01 X2.4913 Y63.7796
G01 X2.4758 Y63.7178
G01 X2.4543 Y63.6577
G01 X2.4270 Y63.6001
G01 X2.3943 Y63.5454
G01 X2.3563 Y63.4942
G01 X2.3134 Y63.4470
G01 X2.2662 Y63.4041
G01 X2.2150 Y63.3661
G01 X2.1603 Y63.3334
G01 X2.1027 Y63.3061
G01 X2.0426 Y63.2846
G01 X1.9808 Y63.2691
G01 X1.9177 Y63.2598
G01 X1.8540 Y63.2566
G01 X1.7904 Y63.2598
G01 X1.7272 Y63.2691
G01 X1.6654 Y63.2846
G01 X1.6053 Y63.3061
G01 X1.5477 Y63.3334
G01 X1.4930 Y63.3661
G01 X1.4418 Y63.4041
G01 X1.3946 Y63.4470
G01 X1.3517 Y63.4942
G01 X1.3137 Y63.5454
G01 X1.2810 Y63.6001
G01 X1.2537 Y63.6577
G01 X1.2322 Y63.7178
G01 X1.2167 Y63.7796
G01 X1.2074 Y63.8427
G01 X1.2042 Y63.9064
G00 Z1.0000
G00 X1.2042 Y66.4464
G01 F400.00
G01 Z0.0000
G01 F1000.00
G01 X1.2074 Y66.5101
G01 X1.2167 Y66.5732
G01 X1.2322 Y66.6350
G01 X1.2537 Y66.6951
G01 X1.2810 Y66.7527
G01 X1.3137 Y66.8074
G01 X1.3517 Y66.8586
G01 X1.3946 Y66.9058
G01 X1.4418 Y66.9487
G01 X1.4930 Y66.9867
G01 X1.5477 Y67.0194
G01 X1.6053 Y67.0467
G01 X1.6654 Y67.0682
G01 X1.7272 Y67.0837
G01 X1.7903 Y67.0930
G01 X1.8540 Y67.0962
G01 X1.9177 Y67.0930
G01 X1.9808 Y67.0837
G01 X2.0426 Y67.0682
G01 X2.1027 Y67.0467
G01 X2.1603 Y67.0194
G01 X2.2150 Y66.9867
G01 X2.2662 Y66.9487
G01 X2.3134 Y66.9058
G01 X2.3563 Y66.8586
G01 X2.3943 Y66.8074
G01 X2.4270 Y66.7527
G01 X2.4543 Y66.6951
G01 X2.4758 Y66.6350
G01 X2.4913 Y66.5732
G01 X2.5006 Y66.5101
G01 X2.5038 Y66.4464
G01 X2.5006 Y66.3827
G01 X2.4913 Y66.3196
G01 X2.4758 Y66.2578
G01 X2.4543 Y66.1977
G01 X2.4270 Y66.1401
G01 X2.3943 Y66.0854
G01 X2.3563 Y66.0342
G01 X2.3134 Y65.9870
G01 X2.2662 Y65.9441
G01 X2.2150 Y65.9061
G01 X2.1603 Y65.8734
G01 X2.1027 Y65.8461
G01 X2.0426 Y65.8246
G01 X1.9808 Y65.8091
G01 X1.9177 Y65.7998
G01 X1.8540 Y65.7966
G01 X1.7904 Y65.7998
G01 X1.7272 Y65.8091
G01 X1.6654 Y65.8246
G01 X1.6053 Y65.8461
G01 X1.5477 Y65.8734
G01 X1.4930 Y65.9061
G01 X1.4418 Y65.9441
G01 X1.3946 Y65.9870
G01 X1.3517 Y66.0342
G01 X1.3137 Y66.0854
G01 X1.2810 Y66.1401
G01 X1.2537 Y66.1977
G01 X1.2322 Y66.2578
G01 X1.2167 Y66.3196
G01 X1.2074 Y66.3827
G01 X1.2042 Y66.4464
G00 Z1.0000
G00 X1.2042 Y66.4464
G01 F400.00
G01 Z0.0000
G01 F1000.00
G01 X1.6047 Y66.4464
G00 Z1.0000
G00 X1.6047 Y66.4464
G01 F400.00
G01 Z0.0000
G01 F1000.00
G01 X1.6059 Y66.4708
G01 X1.6095 Y66.4950
G01 X1.6155 Y66.5188
G01 X1.6237 Y66.5418
G01 X1.6342 Y66.5639
G01 X1.6467 Y66.5849
G01 X1.6613 Y66.6045
G01 X1.6777 Y66.6227
G01 X1.6959 Y66.6391
G01 X1.7155 Y66.6537
G01 X1.7365 Y66.6662
G01 X1.7586 Y66.6767
G01 X1.7816 Y66.6849
G01 X1.8054 Y66.6909
G01 X1.8296 Y66.6945
G01 X1.8540 Y66.6957
G01 X1.8784 Y66.6945
G01 X1.9026 Y66.6909
G01 X1.9264 Y66.6849
G01 X1.9494 Y66.6767
G01 X1.9715 Y66.6662
G01 X1.9925 Y66.6537
G01 X2.0121 Y66.6391
G01 X2.0303 Y66.6227
G01 X2.0467 Y66.6045
G01 X2.0613 Y66.5849
G01 X2.0738 Y66.5639
G01 X2.0843 Y66.5418
G01 X2.0925 Y66.5188
G01 X2.0985 Y66.4950
G01 X2.1021 Y66.4708
G01 X2.1033 Y66.4464
G01 X2.1021 Y66.4220
G01 X2.0985 Y66.3978
G01 X2.0925 Y66.3740
G01 X2.0843 Y66.3510
G01 X2.0738 Y66.3289
G01 X2.0613 Y66.3079
G01 X2.0467 Y66.2883
G01 X2.0303 Y66.2701
G01 X2.0121 Y66.2537
G01 X1.9925 Y66.2391
G01 X1.9715 Y66.2266
G01 X1.9494 Y66.2161
G01 X1.9264 Y66.2079
G01 X1.9026 Y66.2019
G01 X1.8784 Y66.1983
G01 X1.8540 Y66.1971
G01 X1.8297 Y66.1983
G01 X1.8053 Y66.2019
G01 X1.7816 Y66.2079
G01 X1.7586 Y66.2161
G01 X1.7365 Y66.2266
G01 X1.7155 Y66.2391
G01 X1.6959 Y66.2537
G01 X1.6777 Y66.2701
G01 X1.6613 Y66.2883
G01 X1.6467 Y66.3079
G01 X1.6342 Y66.3289
G01 X1.6237 Y66.3510
G01 X1.6155 Y66.3740
G01 X1.6095 Y66.3978
G01 X1.6059 Y66.4220
G01 X1.6047 Y66.4464
G00 Z1.0000
G00 X1.6047 Y68.9864
G01 F400.00
G01 Z0.0000
G01 F1000.00
G01 X1.2042 Y68.9864
G00 Z1.0000
G00 X1.6047 Y68.9864
G01 F400.00
G01 Z0.0000
G01 F1000.00
G01 X1.6059 Y69.0108
G01 X1.6095 Y69.0350
G01 X1.6155 Y69.0588
G01 X1.6237 Y69.0818
G01 X1.6342 Y69.1039
G01 X1.6467 Y69.1249
G01 X1.6613 Y69.1445
G01 X1.6777 Y69.1627
G01 X1.6959 Y69.1791
G01 X1.7155 Y69.1937
G01 X1.7365 Y69.2062
G01 X1.7586 Y69.2167
G01 X1.7816 Y69.2249
G01 X1.8054 Y69.2309
G01 X1.8296 Y69.2345
G01 X1.8540 Y69.2357
G01 X1.8784 Y69.2345
G01 X1.9026 Y69.2309
G01 X1.9264 Y69.2249
G01 X1.9494 Y69.2167
G01 X1.9715 Y69.2062
G01 X1.9925 Y69.1937
G01 X2.0121 Y69.1791
G01 X2.0303 Y69.1627
G01 X2.0467 Y69.1445
G01 X2.0613 Y69.1249
G01 X2.0738 Y69.1039
G01 X2.0843 Y69.0818
G01 X2.0925 Y69.0588
G01 X2.0985 Y69.0350
G01 X2.1021 Y69.0108
G01 X2.1033 Y68.9864
G01 X2.1021 Y68.9620
G01 X2.0985 Y68.9378
G01 X2.0925 Y68.9140
G01 X2.0843 Y68.8910
G01 X2.0738 Y68.8689
G01 X2.0613 Y68.8479
G01 X2.0467 Y68.8283
G01 X2.0303 Y68.8101
G01 X2.0121 Y68.7937
G01 X1.9925 Y68.7791
G01 X1.9715 Y68.7666
G01 X1.9494 Y68.7561
G01 X1.9264 Y68.7479
G01 X1.9026 Y68.7419
G01 X1.8784 Y68.7383
G01 X1.8540 Y68.7371
G01 X1.8297 Y68.7383
G01 X1.8053 Y68.7419
G01 X1.7816 Y68.7479
G01 X1.7586 Y68.7561
G01 X1.7365 Y68.7666
G01 X1.7155 Y68.7791
G01 X1.6959 Y68.7937
G01 X1.6777 Y68.8101
G01 X1.6613 Y68.8283
G01 X1.6467 Y68.8479
G01 X1.6342 Y68.8689
G01 X1.6237 Y68.8910
G01 X1.6155 Y68.9140
G01 X1.6095 Y68.9378
G01 X1.6059 Y68.9620
G01 X1.6047 Y68.9864
G00 Z1.0000
G00 X1.2042 Y68.9864
G01 F400.00
G01 Z0.0000
G01 F1000.00
G01 X1.2074 Y69.0501
G01 X1.2167 Y69.1132
G01 X1.2322 Y69.1750
G01 X1.2537 Y69.2351
G01 X1.2810 Y69.2927
G01 X1.3137 Y69.3474
G01 X1.3517 Y69.3986
G01 X1.3946 Y69.4458
G01 X1.4418 Y69.4887
G01 X1.4930 Y69.5267
G01 X1.5477 Y69.5594
G01 X1.6053 Y69.5867
G01 X1.6654 Y69.6082
G01 X1.7272 Y69.6237
G01 X1.7903 Y69.6330
G01 X1.8540 Y69.6362
G01 X1.9177 Y69.6330
G01 X1.9808 Y69.6237
G01 X2.0426 Y69.6082
G01 X2.1027 Y69.5867
G01 X2.1603 Y69.5594
G01 X2.2150 Y69.5267
G01 X2.2662 Y69.4887
G01 X2.3134 Y69.4458
G01 X2.3563 Y69.3986
G01 X2.3943 Y69.3474
G01 X2.4270 Y69.2927
G01 X2.4543 Y69.2351
G01 X2.4758 Y69.1750
G01 X2.4913 Y69.1132
G01 X2.5006 Y69.0501
G01 X2.5038 Y68.9864
G01 X2.5006 Y68.9227
G01 X2.4913 Y68.8596
G01 X2.4758 Y68.7978
G01 X2.4543 Y68.7377
G01 X2.4270 Y68.6801
G01 X2.3943 Y68.6254
G01 X2.3563 Y68.5742
G01 X2.3134 Y68.5270
G01 X2.2662 Y68.4841
G01 X2.2150 Y68.4461
G01 X2.1603 Y68.4134
G01 X2.1027 Y68.3861
G01 X2.0426 Y68.3646
G01 X1.9808 Y68.3491
G01 X1.9177 Y68.3398
G01 X1.8540 Y68.3366
G01 X1.7904 Y68.3398
G01 X1.7272 Y68.3491
G01 X1.6654 Y68.3646
G01 X1.6053 Y68.3861
G01 X1.5477 Y68.4134
G01 X1.4930 Y68.4461
G01 X1.4418 Y68.4841
G01 X1.3946 Y68.5270
G01 X1.3517 Y68.5742
G01 X1.3137 Y68.6254
G01 X1.2810 Y68.6801
G01 X1.2537 Y68.7377
G01 X1.2322 Y68.7978
G01 X1.2167 Y68.8596
G01 X1.2074 Y68.9227
G01 X1.2042 Y68.9864
G00 Z1.0000
G00 X1.2041 Y70.8764
G01 F400.00
G01 Z0.0000
G01 F1000.00
G01 X1.2040 Y72.1764
G01 X2.5040 Y72.1764
G01 X2.5040 Y70.8764
G01 X1.2041 Y70.8764
G00 Z1.0000
G00 X1.2041 Y70.8764
G01 F400.00
G01 Z0.0000
G01 F1000.00
G01 X1.6041 Y71.2764
G00 Z1.0000
G00 X1.6041 Y71.2764
G01 F400.00
G01 Z0.0000
G01 F1000.00
G01 X1.6040 Y71.7764
G01 X2.1040 Y71.7764
G01 X2.1040 Y71.2764
G01 X1.6041 Y71.2764
G00 Z1.0000
G00 X9.2900 Y72.2581
G01 F400.00
G01 Z0.0000
G01 F1000.00
G01 X9.2919 Y72.2674
G01 X9.2956 Y72.2765
G01 X9.3010 Y72.2846
G01 X9.3079 Y72.2915
G01 X9.3160 Y72.2969
G01 X9.3251 Y72.3006
G01 X9.3346 Y72.3025
G01 X9.3432 Y72.3029
G01 X10.2586 Y72.3030
G01 X10.2696 Y72.3025
G01 X10.2742 Y72.3018
G01 X10.2835 Y72.2990
G01 X10.2921 Y72.2944
G01 X10.2997 Y72.2882
G01 X10.3030 Y72.2846
G01 X10.3084 Y72.2765
G01 X10.3121 Y72.2674
G01 X10.3140 Y72.2579
G01 X10.3144 Y72.2493
G01 X10.3145 Y71.0089
G01 X10.3140 Y70.9979
G01 X10.3133 Y70.9933
G01 X10.3105 Y70.9840
G01 X10.3059 Y70.9754
G01 X10.3030 Y70.9714
G01 X10.2961 Y70.9645
G01 X10.2880 Y70.9591
G01 X10.2789 Y70.9554
G01 X10.2694 Y70.9535
G01 X10.2608 Y70.9531
G01 X9.3454 Y70.9530
G01 X9.3344 Y70.9535
G01 X9.3298 Y70.9542
G01 X9.3205 Y70.9570
G01 X9.3119 Y70.9616
G01 X9.3043 Y70.9678
G01 X9.3010 Y70.9714
G01 X9.2956 Y70.9795
G01 X9.2919 Y70.9886
G01 X9.2900 Y70.9981
G01 X9.2896 Y71.0067
G01 X9.2895 Y72.2471
G01 X9.2900 Y72.2581
G00 Z1.0000
G00 X9.2900 Y72.2581
G01 F400.00
G01 Z0.0000
G01 F1000.00
G01 X9.6895 Y71.9030
G00 Z1.0000
G00 X9.6895 Y71.9030
G01 F400.00
G01 Z0.0000
G01 F1000.00
G01 X9.9145 Y71.9030
G01 X9.9145 Y71.3530
G01 X9.6895 Y71.3530
G01 X9.6895 Y71.9030
G00 Z1.0000
G00 X9.2900 Y69.7181
G01 F400.00
G01 Z0.0000
G01 F1000.00
G01 X9.2919 Y69.7274
G01 X9.2956 Y69.7365
G01 X9.3010 Y69.7446
G01 X9.3079 Y69.7515
G01 X9.3160 Y69.7569
G01 X9.3251 Y69.7606
G01 X9.3346 Y69.7625
G01 X9.3432 Y69.7629
G01 X10.2586 Y69.7630
G01 X10.2696 Y69.7625
G01 X10.2742 Y69.7618
G01 X10.2835 Y69.7590
G01 X10.2921 Y69.7544
G01 X10.2997 Y69.7482
G01 X10.3030 Y69.7446
G01 X10.3084 Y69.7365
G01 X10.3121 Y69.7274
G01 X10.3140 Y69.7179
G01 X10.3144 Y69.7093
G01 X10.3145 Y68.4689
G01 X10.3140 Y68.4579
G01 X10.3133 Y68.4533
G01 X10.3105 Y68.4440
G01 X10.3059 Y68.4354
G01 X10.3030 Y68.4314
G01 X10.2961 Y68.4245
G01 X10.2880 Y68.4191
G01 X10.2789 Y68.4154
G01 X10.2694 Y68.4135
G01 X10.2608 Y68.4131
G01 X9.3454 Y68.4130
G01 X9.3344 Y68.4135
G01 X9.3298 Y68.4142
G01 X9.3205 Y68.4170
G01 X9.3119 Y68.4216
G01 X9.3043 Y68.4278
G01 X9.3010 Y68.4314
G01 X9.2956 Y68.4395
G01 X9.2919 Y68.4486
G01 X9.2900 Y68.4581
G01 X9.2896 Y68.4667
G01 X9.2895 Y69.7071
G01 X9.2900 Y69.7181
G00 Z1.0000
G00 X9.2900 Y69.7181
G01 F400.00
G01 Z0.0000
G01 F1000.00
G01 X9.6895 Y69.3630
G00 Z1.0000
G00 X9.6895 Y69.3630
G01 F400.00
G01 Z0.0000
G01 F1000.00
G01 X9.9145 Y69.3630
G01 X9.9145 Y68.8130
G01 X9.6895 Y68.8130
G01 X9.6895 Y69.3630
G00 Z1.0000
G00 X9.2900 Y67.1781
G01 F400.00
G01 Z0.0000
G01 F1000.00
G01 X9.6895 Y66.8230
G00 Z1.0000
G00 X9.2900 Y67.1781
G01 F400.00
G01 Z0.0000
G01 F1000.00
G01 X9.2919 Y67.1874
G01 X9.2956 Y67.1965
G01 X9.3010 Y67.2046
G01 X9.3079 Y67.2115
G01 X9.3160 Y67.2169
G01 X9.3251 Y67.2206
G01 X9.3346 Y67.2225
G01 X9.3432 Y67.2229
G01 X10.2586 Y67.2230
G01 X10.2696 Y67.2225
G01 X10.2742 Y67.2218
G01 X10.2835 Y67.2190
G01 X10.2921 Y67.2144
G01 X10.2997 Y67.2082
G01 X10.3030 Y67.2046
G01 X10.3084 Y67.1965
G01 X10.3121 Y67.1874
G01 X10.3140 Y67.1779
G01 X10.3144 Y67.1693
G01 X10.3145 Y65.9289
G01 X10.3140 Y65.9179
G01 X10.3133 Y65.9133
G01 X10.3105 Y65.9040
G01 X10.3059 Y65.8954
G01 X10.3030 Y65.8914
G01 X10.2961 Y65.8845
G01 X10.2880 Y65.8791
G01 X10.2789 Y65.8754
G01 X10.2694 Y65.8735
G01 X10.2608 Y65.8731
G01 X9.3454 Y65.8730
G01 X9.3344 Y65.8735
G01 X9.3298 Y65.8742
G01 X9.3205 Y65.8770
G01 X9.3119 Y65.8816
G01 X9.3043 Y65.8878
G01 X9.3010 Y65.8914
G01 X9.2956 Y65.8995
G01 X9.2919 Y65.9086
G01 X9.2900 Y65.9181
G01 X9.2896 Y65.9267
G01 X9.2895 Y67.1671
G01 X9.2900 Y67.1781
G00 Z1.0000
G00 X9.6895 Y66.8230
G01 F400.00
G01 Z0.0000
G01 F1000.00
G01 X9.9145 Y66.8230
G01 X9.9145 Y66.2730
G01 X9.6895 Y66.2730
G01 X9.6895 Y66.8230
G00 Z1.0000
G00 X9.2900 Y64.6381
G01 F400.00
G01 Z0.0000
G01 F1000.00
G01 X9.6895 Y64.2830
G00 Z1.0000
G00 X9.2900 Y64.6381
G01 F400.00
G01 Z0.0000
G01 F1000.00
G01 X9.2919 Y64.6474
G01 X9.2956 Y64.6565
G01 X9.3010 Y64.6646
G01 X9.3079 Y64.6715
G01 X9.3160 Y64.6769
G01 X9.3251 Y64.6806
G01 X9.3346 Y64.6825
G01 X9.3432 Y64.6829
G01 X10.2586 Y64.6830
G01 X10.2696 Y64.6825
G01 X10.2742 Y64.6818
G01 X10.2835 Y64.6790
G01 X10.2921 Y64.6744
G01 X10.2997 Y64.6682
G01 X10.3030 Y64.6646
G01 X10.3084 Y64.6565
G01 X10.3121 Y64.6474
G01 X10.3140 Y64.6379
G01 X10.3144 Y64.6293
G01 X10.3145 Y63.3889
G01 X10.3140 Y63.3779
G01 X10.3133 Y63.3733
G01 X10.3105 Y63.3640
G01 X10.3059 Y63.3554
G01 X10.2997 Y63.3478
G01 X10.2961 Y63.3445
G01 X10.2880 Y63.3391
G01 X10.2789 Y63.3354
G01 X10.2694 Y63.3335
G01 X10.2608 Y63.3331
G01 X9.3454 Y63.3330
G01 X9.3344 Y63.3335
G01 X9.3298 Y63.3342
G01 X9.3205 Y63.3370
G01 X9.3160 Y63.3391
G01 X9.3079 Y63.3445
G01 X9.3010 Y63.3514
G01 X9.2956 Y63.3595
G01 X9.2919 Y63.3686
G01 X9.2900 Y63.3781
G01 X9.2896 Y63.3867
G01 X9.2895 Y64.6271
G01 X9.2900 Y64.6381
G00 Z1.0000
G00 X9.6895 Y64.2830
G01 F400.00
G01 Z0.0000
G01 F1000.00
G01 X9.9145 Y64.2830
G01 X9.9145 Y63.7330
G01 X9.6895 Y63.7330
G01 X9.6895 Y64.2830
G00 Z1.0000
G00 X12.2650 Y64.6381
G01 F400.00
G01 Z0.0000
G01 F1000.00
G01 X12.6645 Y64.2830
G00 Z1.0000
G00 X12.2650 Y64.6381
G01 F400.00
G01 Z0.0000
G01 F1000.00
G01 X12.2669 Y64.6474
G01 X12.2706 Y64.6565
G01 X12.2760 Y64.6646
G01 X12.2829 Y64.6715
G01 X12.2910 Y64.6769
G01 X12.3001 Y64.6806
G01 X12.3096 Y64.6825
G01 X12.3182 Y64.6829
G01 X13.2336 Y64.6830
G01 X13.2446 Y64.6825
G01 X13.2492 Y64.6818
G01 X13.2585 Y64.6790
G01 X13.2630 Y64.6769
G01 X13.2711 Y64.6715
G01 X13.2780 Y64.6646
G01 X13.2834 Y64.6565
G01 X13.2871 Y64.6474
G01 X13.2890 Y64.6379
G01 X13.2894 Y64.6293
G01 X13.2895 Y63.3889
G01 X13.2890 Y63.3779
G01 X13.2883 Y63.3733
G01 X13.2855 Y63.3640
G01 X13.2809 Y63.3554
G01 X13.2747 Y63.3478
G01 X13.2711 Y63.3445
G01 X13.2630 Y63.3391
G01 X13.2539 Y63.3354
G01 X13.2444 Y63.3335
G01 X13.2358 Y63.3331
G01 X12.3204 Y63.3330
G01 X12.3094 Y63.3335
G01 X12.3048 Y63.3342
G01 X12.2955 Y63.3370
G01 X12.2910 Y63.3391
G01 X12.2829 Y63.3445
G01 X12.2760 Y63.3514
G01 X12.2706 Y63.3595
G01 X12.2669 Y63.3686
G01 X12.2650 Y63.3781
G01 X12.2646 Y63.3867
G01 X12.2645 Y64.6271
G01 X12.2650 Y64.6381
G00 Z1.0000
G00 X12.6645 Y64.2830
G01 F400.00
G01 Z0.0000
G01 F1000.00
G01 X12.8895 Y64.2830
G01 X12.8895 Y63.7330
G01 X12.6645 Y63.7330
G01 X12.6645 Y64.2830
G00 Z1.0000
G00 X12.6645 Y66.8230
G01 F400.00
G01 Z0.0000
G01 F1000.00
G01 X12.8895 Y66.8230
G01 X12.8895 Y66.2730
G01 X12.6645 Y66.2730
G01 X12.6645 Y66.8230
G00 Z1.0000
G00 X12.6645 Y66.8230
G01 F400.00
G01 Z0.0000
G01 F1000.00
G01 X12.2650 Y67.1781
G00 Z1.0000
G00 X12.2650 Y67.1781
G01 F400.00
G01 Z0.0000
G01 F1000.00
G01 X12.2669 Y67.1874
G01 X12.2706 Y67.1965
G01 X12.2760 Y67.2046
G01 X12.2829 Y67.2115
G01 X12.2910 Y67.2169
G01 X12.3001 Y67.2206
G01 X12.3096 Y67.2225
G01 X12.3182 Y67.2229
G01 X13.2336 Y67.2230
G01 X13.2446 Y67.2225
G01 X13.2492 Y67.2218
G01 X13.2585 Y67.2190
G01 X13.2671 Y67.2144
G01 X13.2711 Y67.2115
G01 X13.2780 Y67.2046
G01 X13.2834 Y67.1965
G01 X13.2871 Y67.1874
G01 X13.2890 Y67.1779
G01 X13.2894 Y67.1693
G01 X13.2895 Y65.9289
G01 X13.2890 Y65.9179
G01 X13.2883 Y65.9133
G01 X13.2855 Y65.9040
G01 X13.2809 Y65.8954
G01 X13.2780 Y65.8914
G01 X13.2711 Y65.8845
G01 X13.2630 Y65.8791
G01 X13.2539 Y65.8754
G01 X13.2444 Y65.8735
G01 X13.2358 Y65.8731
G01 X12.3204 Y65.8730
G01 X12.3094 Y65.8735
G01 X12.3048 Y65.8742
G01 X12.2955 Y65.8770
G01 X12.2869 Y65.8816
G01 X12.2829 Y65.8845
G01 X12.2760 Y65.8914
G01 X12.2706 Y65.8995
G01 X12.2669 Y65.9086
G01 X12.2650 Y65.9181
G01 X12.2646 Y65.9267
G01 X12.2645 Y67.1671
G01 X12.2650 Y67.1781
G00 Z1.0000
G00 X12.6645 Y69.3630
G01 F400.00
G01 Z0.0000
G01 F1000.00
G01 X12.8895 Y69.3630
G01 X12.8895 Y68.8130
G01 X12.6645 Y68.8130
G01 X12.6645 Y69.3630
G00 Z1.0000
G00 X12.6645 Y69.3630
G01 F400.00
G01 Z0.0000
G01 F1000.00
G01 X12.2650 Y69.7181
G00 Z1.0000
G00 X12.2650 Y69.7181
G01 F400.00
G01 Z0.0000
G01 F1000.00
G01 X12.2669 Y69.7274
G01 X12.2706 Y69.7365
G01 X12.2760 Y69.7446
G01 X12.2829 Y69.7515
G01 X12.2910 Y69.7569
G01 X12.3001 Y69.7606
G01 X12.3096 Y69.7625
G01 X12.3182 Y69.7629
G01 X13.2336 Y69.7630
G01 X13.2446 Y69.7625
G01 X13.2492 Y69.7618
G01 X13.2585 Y69.7590
G01 X13.2671 Y69.7544
G01 X13.2711 Y69.7515
G01 X13.2780 Y69.7446
G01 X13.2834 Y69.7365
G01 X13.2871 Y69.7274
G01 X13.2890 Y69.7179
G01 X13.2894 Y69.7093
G01 X13.2895 Y68.4689
G01 X13.2890 Y68.4579
G01 X13.2883 Y68.4533
G01 X13.2855 Y68.4440
G01 X13.2809 Y68.4354
G01 X13.2780 Y68.4314
G01 X13.2711 Y68.4245
G01 X13.2630 Y68.4191
G01 X13.2539 Y68.4154
G01 X13.2444 Y68.4135
G01 X13.2358 Y68.4131
G01 X12.3204 Y68.4130
G01 X12.3094 Y68.4135
G01 X12.3048 Y68.4142
G01 X12.2955 Y68.4170
G01 X12.2869 Y68.4216
G01 X12.2829 Y68.4245
G01 X12.2760 Y68.4314
G01 X12.2706 Y68.4395
G01 X12.2669 Y68.4486
G01 X12.2650 Y68.4581
G01 X12.2646 Y68.4667
G01 X12.2645 Y69.7071
G01 X12.2650 Y69.7181
G00 Z1.0000
G00 X12.6645 Y71.9030
G01 F400.00
G01 Z0.0000
G01 F1000.00
G01 X12.8895 Y71.9030
G01 X12.8895 Y71.3530
G01 X12.6645 Y71.3530
G01 X12.6645 Y71.9030
G00 Z1.0000
G00 X12.6645 Y71.9030
G01 F400.00
G01 Z0.0000
G01 F1000.00
G01 X12.2650 Y72.2581
G00 Z1.0000
G00 X12.2650 Y72.2581
G01 F400.00
G01 Z0.0000
G01 F1000.00
G01 X12.2669 Y72.2674
G01 X12.2706 Y72.2765
G01 X12.2760 Y72.2846
G01 X12.2829 Y72.2915
G01 X12.2910 Y72.2969
G01 X12.3001 Y72.3006
G01 X12.3096 Y72.3025
G01 X12.3182 Y72.3029
G01 X13.2336 Y72.3030
G01 X13.2446 Y72.3025
G01 X13.2492 Y72.3018
G01 X13.2585 Y72.2990
G01 X13.2630 Y72.2969
G01 X13.2711 Y72.2915
G01 X13.2780 Y72.2846
G01 X13.2834 Y72.2765
G01 X13.2871 Y72.2674
G01 X13.2890 Y72.2579
G01 X13.2894 Y72.2493
G01 X13.2895 Y71.0089
G01 X13.2890 Y70.9979
G01 X13.2883 Y70.9933
G01 X13.2855 Y70.9840
G01 X13.2809 Y70.9754
G01 X13.2780 Y70.9714
G01 X13.2711 Y70.9645
G01 X13.2630 Y70.9591
G01 X13.2539 Y70.9554
G01 X13.2444 Y70.9535
G01 X13.2358 Y70.9531
G01 X12.3204 Y70.9530
G01 X12.3094 Y70.9535
G01 X12.3048 Y70.9542
G01 X12.2955 Y70.9570
G01 X12.2910 Y70.9591
G01 X12.2829 Y70.9645
G01 X12.2760 Y70.9714
G01 X12.2706 Y70.9795
G01 X12.2669 Y70.9886
G01 X12.2650 Y70.9981
G01 X12.2646 Y71.0067
G01 X12.2645 Y72.2471
G01 X12.2650 Y72.2581
G00 Z1.0000
G00 X15.6400 Y72.2581
G01 F400.00
G01 Z0.0000
G01 F1000.00
G01 X15.6419 Y72.2674
G01 X15.6456 Y72.2765
G01 X15.6510 Y72.2846
G01 X15.6579 Y72.2915
G01 X15.6660 Y72.2969
G01 X15.6751 Y72.3006
G01 X15.6846 Y72.3025
G01 X15.6932 Y72.3029
G01 X16.4837 Y72.3030
G01 X16.4946 Y72.3025
G01 X16.4992 Y72.3018
G01 X16.5039 Y72.3006
G01 X16.5130 Y72.2969
G01 X16.5171 Y72.2944
G01 X16.5247 Y72.2882
G01 X16.5309 Y72.2806
G01 X16.5355 Y72.2720
G01 X16.5371 Y72.2674
G01 X16.5390 Y72.2579
G01 X16.5394 Y72.2493
G01 X16.5395 Y71.0089
G01 X16.5390 Y70.9979
G01 X16.5383 Y70.9933
G01 X16.5355 Y70.9840
G01 X16.5334 Y70.9795
G01 X16.5280 Y70.9714
G01 X16.5247 Y70.9678
G01 X16.5171 Y70.9616
G01 X16.5130 Y70.9591
G01 X16.5039 Y70.9554
G01 X16.4944 Y70.9535
G01 X16.4858 Y70.9531
G01 X15.6953 Y70.9530
G01 X15.6844 Y70.9535
G01 X15.6798 Y70.9542
G01 X15.6751 Y70.9554
G01 X15.6660 Y70.9591
G01 X15.6579 Y70.9645
G01 X15.6543 Y70.9678
G01 X15.6481 Y70.9754
G01 X15.6456 Y70.9795
G01 X15.6419 Y70.9886
G01 X15.6400 Y70.9981
G01 X15.6396 Y71.0067
G01 X15.6395 Y72.2471
G01 X15.6400 Y72.2581
G00 Z1.0000
G00 X15.6400 Y72.2581
G01 F400.00
G01 Z0.0000
G01 F1000.00
G01 X16.0395 Y71.9030
G00 Z1.0000
G00 X16.0395 Y71.9030
G01 F400.00
G01 Z0.0000
G01 F1000.00
G01 X16.1395 Y71.9030
G01 X16.1395 Y71.3530
G01 X16.0395 Y71.3530
G01 X16.0395 Y71.9030
G00 Z1.0000
G00 X15.6400 Y69.7181
G01 F400.00
G01 Z0.0000
G01 F1000.00
G01 X16.0395 Y69.3630
G00 Z1.0000
G00 X15.6400 Y69.7181
G01 F400.00
G01 Z0.0000
G01 F1000.00
G01 X15.6419 Y69.7274
G01 X15.6456 Y69.7365
G01 X15.6510 Y69.7446
G01 X15.6579 Y69.7515
G01 X15.6660 Y69.7569
G01 X15.6751 Y69.7606
G01 X15.6846 Y69.7625
G01 X15.6932 Y69.7629
G01 X16.4837 Y69.7630
G01 X16.4946 Y69.7625
G01 X16.4992 Y69.7618
G01 X16.5039 Y69.7606
G01 X16.5130 Y69.7569
G01 X16.5171 Y69.7544
G01 X16.5247 Y69.7482
G01 X16.5309 Y69.7406
G01 X16.5355 Y69.7320
G01 X16.5371 Y69.7274
G01 X16.5390 Y69.7179
G01 X16.5394 Y69.7093
G01 X16.5395 Y68.4689
G01 X16.5390 Y68.4579
G01 X16.5383 Y68.4533
G01 X16.5355 Y68.4440
G01 X16.5334 Y68.4395
G01 X16.5280 Y68.4314
G01 X16.5247 Y68.4278
G01 X16.5171 Y68.4216
G01 X16.5130 Y68.4191
G01 X16.5039 Y68.4154
G01 X16.4944 Y68.4135
G01 X16.4858 Y68.4131
G01 X15.6953 Y68.4130
G01 X15.6844 Y68.4135
G01 X15.6798 Y68.4142
G01 X15.6751 Y68.4154
G01 X15.6660 Y68.4191
G01 X15.6579 Y68.4245
G01 X15.6543 Y68.4278
G01 X15.6481 Y68.4354
G01 X15.6456 Y68.4395
G01 X15.6419 Y68.4486
G01 X15.6400 Y68.4581
G01 X15.6396 Y68.4667
G01 X15.6395 Y69.7071
G01 X15.6400 Y69.7181
G00 Z1.0000
G00 X16.0395 Y69.3630
G01 F400.00
G01 Z0.0000
G01 F1000.00
G01 X16.1395 Y69.3630
G01 X16.1395 Y68.8130
G01 X16.0395 Y68.8130
G01 X16.0395 Y69.3630
G00 Z1.0000
G00 X15.6400 Y67.1781
G01 F400.00
G01 Z0.0000
G01 F1000.00
G01 X15.6419 Y67.1874
G01 X15.6456 Y67.1965
G01 X15.6510 Y67.2046
G01 X15.6579 Y67.2115
G01 X15.6660 Y67.2169
G01 X15.6751 Y67.2206
G01 X15.6846 Y67.2225
G01 X15.6932 Y67.2229
G01 X16.4837 Y67.2230
G01 X16.4946 Y67.2225
G01 X16.4992 Y67.2218
G01 X16.5039 Y67.2206
G01 X16.5130 Y67.2169
G01 X16.5171 Y67.2144
G01 X16.5247 Y67.2082
G01 X16.5309 Y67.2006
G01 X16.5355 Y67.1920
G01 X16.5371 Y67.1874
G01 X16.5390 Y67.1779
G01 X16.5394 Y67.1693
G01 X16.5395 Y65.9289
G01 X16.5390 Y65.9179
G01 X16.5383 Y65.9133
G01 X16.5355 Y65.9040
G01 X16.5334 Y65.8995
G01 X16.5280 Y65.8914
G01 X16.5247 Y65.8878
G01 X16.5171 Y65.8816
G01 X16.5130 Y65.8791
G01 X16.5039 Y65.8754
G01 X16.4944 Y65.8735
G01 X16.4858 Y65.8731
G01 X15.6953 Y65.8730
G01 X15.6844 Y65.8735
G01 X15.6798 Y65.8742
G01 X15.6751 Y65.8754
G01 X15.6660 Y65.8791
G01 X15.6579 Y65.8845
G01 X15.6543 Y65.8878
G01 X15.6481 Y65.8954
G01 X15.6456 Y65.8995
G01 X15.6419 Y65.9086
G01 X15.6400 Y65.9181
G01 X15.6396 Y65.9267
G01 X15.6395 Y67.1671
G01 X15.6400 Y67.1781
G00 Z1.0000
G00 X15.6400 Y67.1781
G01 F400.00
G01 Z0.0000
G01 F1000.00
G01 X16.0395 Y66.8230
G00 Z1.0000
G00 X16.0395 Y66.8230
G01 F400.00
G01 Z0.0000
G01 F1000.00
G01 X16.1395 Y66.8230
G01 X16.1395 Y66.2730
G01 X16.0395 Y66.2730
G01 X16.0395 Y66.8230
G00 Z1.0000
G00 X15.6400 Y64.6381
G01 F400.00
G01 Z0.0000
G01 F1000.00
G01 X16.0395 Y64.2830
G00 Z1.0000
G00 X15.6400 Y64.6381
G01 F400.00
G01 Z0.0000
G01 F1000.00
G01 X15.6419 Y64.6474
G01 X15.6456 Y64.6565
G01 X15.6510 Y64.6646
G01 X15.6579 Y64.6715
G01 X15.6660 Y64.6769
G01 X15.6751 Y64.6806
G01 X15.6846 Y64.6825
G01 X15.6932 Y64.6829
G01 X16.4837 Y64.6830
G01 X16.4946 Y64.6825
G01 X16.4992 Y64.6818
G01 X16.5039 Y64.6806
G01 X16.5130 Y64.6769
G01 X16.5171 Y64.6744
G01 X16.5247 Y64.6682
G01 X16.5309 Y64.6606
G01 X16.5355 Y64.6520
G01 X16.5371 Y64.6474
G01 X16.5390 Y64.6379
G01 X16.5394 Y64.6293
G01 X16.5395 Y63.3889
G01 X16.5390 Y63.3779
G01 X16.5383 Y63.3733
G01 X16.5371 Y63.3686
G01 X16.5334 Y63.3595
G01 X16.5280 Y63.3514
G01 X16.5211 Y63.3445
G01 X16.5171 Y63.3416
G01 X16.5130 Y63.3391
G01 X16.5039 Y63.3354
G01 X16.4944 Y63.3335
G01 X16.4858 Y63.3331
G01 X15.6953 Y63.3330
G01 X15.6844 Y63.3335
G01 X15.6798 Y63.3342
G01 X15.6751 Y63.3354
G01 X15.6660 Y63.3391
G01 X15.6579 Y63.3445
G01 X15.6543 Y63.3478
G01 X15.6481 Y63.3554
G01 X15.6456 Y63.3595
G01 X15.6419 Y63.3686
G01 X15.6400 Y63.3781
G01 X15.6396 Y63.3867
G01 X15.6395 Y64.6271
G01 X15.6400 Y64.6381
G00 Z1.0000
G00 X16.0395 Y64.2830
G01 F400.00
G01 Z0.0000
G01 F1000.00
G01 X16.1395 Y64.2830
G01 X16.1395 Y63.7330
G01 X16.0395 Y63.7330
G01 X16.0395 Y64.2830
G00 Z1.0000
G00 X18.7400 Y64.6381
G01 F400.00
G01 Z0.0000
G01 F1000.00
G01 X19.1395 Y64.2830
G00 Z1.0000
G00 X18.7400 Y64.6381
G01 F400.00
G01 Z0.0000
G01 F1000.00
G01 X18.7419 Y64.6474
G01 X18.7456 Y64.6565
G01 X18.7510 Y64.6646
G01 X18.7579 Y64.6715
G01 X18.7660 Y64.6769
G01 X18.7751 Y64.6806
G01 X18.7846 Y64.6825
G01 X18.7932 Y64.6829
G01 X19.5837 Y64.6830
G01 X19.5946 Y64.6825
G01 X19.5992 Y64.6818
G01 X19.6039 Y64.6806
G01 X19.6130 Y64.6769
G01 X19.6171 Y64.6744
G01 X19.6247 Y64.6682
G01 X19.6309 Y64.6606
G01 X19.6355 Y64.6520
G01 X19.6371 Y64.6474
G01 X19.6390 Y64.6379
G01 X19.6394 Y64.6293
G01 X19.6395 Y63.3889
G01 X19.6390 Y63.3779
G01 X19.6383 Y63.3733
G01 X19.6371 Y63.3686
G01 X19.6334 Y63.3595
G01 X19.6280 Y63.3514
G01 X19.6211 Y63.3445
G01 X19.6171 Y63.3416
G01 X19.6130 Y63.3391
G01 X19.6039 Y63.3354
G01 X19.5944 Y63.3335
G01 X19.5858 Y63.3331
G01 X18.7953 Y63.3330
G01 X18.7844 Y63.3335
G01 X18.7798 Y63.3342
G01 X18.7705 Y63.3370
G01 X18.7660 Y63.3391
G01 X18.7579 Y63.3445
G01 X18.7543 Y63.3478
G01 X18.7481 Y63.3554
G01 X18.7435 Y63.3640
G01 X18.7419 Y63.3686
G01 X18.7400 Y63.3781
G01 X18.7396 Y63.3867
G01 X18.7395 Y64.6271
G01 X18.7400 Y64.6381
G00 Z1.0000
G00 X19.1395 Y64.2830
G01 F400.00
G01 Z0.0000
G01 F1000.00
G01 X19.2395 Y64.2830
G01 X19.2395 Y63.7330
G01 X19.1395 Y63.7330
G01 X19.1395 Y64.2830
G00 Z1.0000
G00 X19.1395 Y66.8230
G01 F400.00
G01 Z0.0000
G01 F1000.00
G01 X19.2395 Y66.8230
G01 X19.2395 Y66.2730
G01 X19.1395 Y66.2730
G01 X19.1395 Y66.8230
G00 Z1.0000
G00 X19.1395 Y66.8230
G01 F400.00
G01 Z0.0000
G01 F1000.00
G01 X18.7400 Y67.1781
G00 Z1.0000
G00 X18.7400 Y67.1781
G01 F400.00
G01 Z0.0000
G01 F1000.00
G01 X18.7419 Y67.1874
G01 X18.7456 Y67.1965
G01 X18.7510 Y67.2046
G01 X18.7579 Y67.2115
G01 X18.7660 Y67.2169
G01 X18.7751 Y67.2206
G01 X18.7846 Y67.2225
G01 X18.7932 Y67.2229
G01 X19.5837 Y67.2230
G01 X19.5946 Y67.2225
G01 X19.5992 Y67.2218
G01 X19.6039 Y67.2206
G01 X19.6130 Y67.2169
G01 X19.6171 Y67.2144
G01 X19.6247 Y67.2082
G01 X19.6309 Y67.2006
G01 X19.6355 Y67.1920
G01 X19.6371 Y67.1874
G01 X19.6390 Y67.1779
G01 X19.6394 Y67.1693
G01 X19.6395 Y65.9289
G01 X19.6390 Y65.9179
G01 X19.6383 Y65.9133
G01 X19.6355 Y65.9040
G01 X19.6334 Y65.8995
G01 X19.6280 Y65.8914
G01 X19.6247 Y65.8878
G01 X19.6171 Y65.8816
G01 X19.6130 Y65.8791
G01 X19.6039 Y65.8754
G01 X19.5944 Y65.8735
G01 X19.5858 Y65.8731
G01 X18.7953 Y65.8730
G01 X18.7844 Y65.8735
G01 X18.7798 Y65.8742
G01 X18.7751 Y65.8754
G01 X18.7660 Y65.8791
G01 X18.7619 Y65.8816
G01 X18.7543 Y65.8878
G01 X18.7481 Y65.8954
G01 X18.7435 Y65.9040
G01 X18.7419 Y65.9086
G01 X18.7400 Y65.9181
G01 X18.7396 Y65.9267
G01 X18.7395 Y67.1671
G01 X18.7400 Y67.1781
G00 Z1.0000
G00 X19.1395 Y69.3630
G01 F400.00
G01 Z0.0000
G01 F1000.00
G01 X18.7400 Y69.7181
G00 Z1.0000
G00 X18.7400 Y69.7181
G01 F400.00
G01 Z0.0000
G01 F1000.00
G01 X18.7419 Y69.7274
G01 X18.7456 Y69.7365
G01 X18.7510 Y69.7446
G01 X18.7579 Y69.7515
G01 X18.7660 Y69.7569
G01 X18.7751 Y69.7606
G01 X18.7846 Y69.7625
G01 X18.7932 Y69.7629
G01 X19.5837 Y69.7630
G01 X19.5946 Y69.7625
G01 X19.5992 Y69.7618
G01 X19.6039 Y69.7606
G01 X19.6130 Y69.7569
G01 X19.6171 Y69.7544
G01 X19.6247 Y69.7482
G01 X19.6309 Y69.7406
G01 X19.6355 Y69.7320
G01 X19.6371 Y69.7274
G01 X19.6390 Y69.7179
G01 X19.6394 Y69.7093
G01 X19.6395 Y68.4689
G01 X19.6390 Y68.4579
G01 X19.6383 Y68.4533
G01 X19.6355 Y68.4440
G01 X19.6334 Y68.4395
G01 X19.6280 Y68.4314
G01 X19.6247 Y68.4278
G01 X19.6171 Y68.4216
G01 X19.6130 Y68.4191
G01 X19.6039 Y68.4154
G01 X19.5944 Y68.4135
G01 X19.5858 Y68.4131
G01 X18.7953 Y68.4130
G01 X18.7844 Y68.4135
G01 X18.7798 Y68.4142
G01 X18.7751 Y68.4154
G01 X18.7660 Y68.4191
G01 X18.7619 Y68.4216
G01 X18.7543 Y68.4278
G01 X18.7481 Y68.4354
G01 X18.7435 Y68.4440
G01 X18.7419 Y68.4486
G01 X18.7400 Y68.4581
G01 X18.7396 Y68.4667
G01 X18.7395 Y69.7071
G01 X18.7400 Y69.7181
G00 Z1.0000
G00 X19.1395 Y69.3630
G01 F400.00
G01 Z0.0000
G01 F1000.00
G01 X19.2395 Y69.3630
G01 X19.2395 Y68.8130
G01 X19.1395 Y68.8130
G01 X19.1395 Y69.3630
G00 Z1.0000
G00 X19.1395 Y71.9030
G01 F400.00
G01 Z0.0000
G01 F1000.00
G01 X19.2395 Y71.9030
G01 X19.2395 Y71.3530
G01 X19.1395 Y71.3530
G01 X19.1395 Y71.9030
G00 Z1.0000
G00 X19.1395 Y71.9030
G01 F400.00
G01 Z0.0000
G01 F1000.00
G01 X18.7400 Y72.2581
G00 Z1.0000
G00 X18.7400 Y72.2581
G01 F400.00
G01 Z0.0000
G01 F1000.00
G01 X18.7419 Y72.2674
G01 X18.7456 Y72.2765
G01 X18.7510 Y72.2846
G01 X18.7579 Y72.2915
G01 X18.7660 Y72.2969
G01 X18.7751 Y72.3006
G01 X18.7846 Y72.3025
G01 X18.7932 Y72.3029
G01 X19.5837 Y72.3030
G01 X19.5946 Y72.3025
G01 X19.5992 Y72.3018
G01 X19.6039 Y72.3006
G01 X19.6130 Y72.2969
G01 X19.6171 Y72.2944
G01 X19.6247 Y72.2882
G01 X19.6309 Y72.2806
G01 X19.6355 Y72.2720
G01 X19.6371 Y72.2674
G01 X19.6390 Y72.2579
G01 X19.6394 Y72.2493
G01 X19.6395 Y71.0089
G01 X19.6390 Y70.9979
G01 X19.6383 Y70.9933
G01 X19.6371 Y70.9886
G01 X19.6334 Y70.9795
G01 X19.6280 Y70.9714
G01 X19.6247 Y70.9678
G01 X19.6171 Y70.9616
