(G-CODE GENERATED BY FLATCAM v8.994 - www.flatcam.org - Version Date: 2020/11/7)

(Name: hack_soc_shield-Edge_Cuts.gbr_cutout_cnc)
(Type: G-code from Geometry)
(Units: MM)

(Created on Friday, 26 January 2024 at 20:21)

(This preprocessor is the default preprocessor used by FlatCAM.)
(It is made to work with MACH3 compatible motion controllers.)

(TOOL DIAMETER: 2.4 mm)
(Feedrate_XY: 600.0 mm/min)
(Feedrate_Z: 200.0 mm/min)
(Feedrate rapids 3000.0 mm/min)

(Z_Cut: -1.9 mm)
(DepthPerCut: 0.475 mm <=>4 passes)
(Z_Move: 1.0 mm)
(Z Start: None mm)
(Z End: 15.0 mm)
(X,Y End: None mm)
(Steps per circle: 64)
(Preprocessor Geometry: default)

(X range:   -1.3500 ...   77.5500  mm)
(Y range:   -1.3500 ...   75.1820  mm)

(Spindle Speed: 0.0 RPM)
G21
G90
G94

G01 F600.00

M5
G00 Z15.0000
G00 X0.0000 Y0.0000
T1
M6    
(MSG, Change to Tool Dia = 2.4000)
M0
G00 Z15.0000

M03
G01 F600.00
G00 X-1.3500 Y35.5660
G01 F200.00
G01 Z-0.4750
G01 F600.00
G01 X-1.3500 Y-0.0500
G01 X-1.3438 Y-0.1774
G01 X-1.3250 Y-0.3036
G01 X-1.2940 Y-0.4274
G01 X-1.2511 Y-0.5475
G01 X-1.1965 Y-0.6628
G01 X-1.1309 Y-0.7723
G01 X-1.0549 Y-0.8747
G01 X-0.9693 Y-0.9693
G01 X-0.8747 Y-1.0549
G01 X-0.7723 Y-1.1309
G01 X-0.6628 Y-1.1965
G01 X-0.5475 Y-1.2511
G01 X-0.4274 Y-1.2940
G01 X-0.3036 Y-1.3250
G01 X-0.1774 Y-1.3438
G01 X-0.0500 Y-1.3500
G01 X36.7500 Y-1.3500
G00 X36.7500 Y-1.3500
G01 F200.00
G01 Z-0.9500
G01 F600.00
G01 X-0.0500 Y-1.3500
G01 X-0.1774 Y-1.3438
G01 X-0.3036 Y-1.3250
G01 X-0.4274 Y-1.2940
G01 X-0.5475 Y-1.2511
G01 X-0.6628 Y-1.1965
G01 X-0.7723 Y-1.1309
G01 X-0.8747 Y-1.0549
G01 X-0.9693 Y-0.9693
G01 X-1.0549 Y-0.8747
G01 X-1.1309 Y-0.7723
G01 X-1.1965 Y-0.6628
G01 X-1.2511 Y-0.5475
G01 X-1.2940 Y-0.4274
G01 X-1.3250 Y-0.3036
G01 X-1.3438 Y-0.1774
G01 X-1.3500 Y-0.0500
G01 X-1.3500 Y35.5660
G00 X-1.3500 Y35.5660
G01 F200.00
G01 Z-1.4250
G01 F600.00
G01 X-1.3500 Y-0.0500
G01 X-1.3438 Y-0.1774
G01 X-1.3250 Y-0.3036
G01 X-1.2940 Y-0.4274
G01 X-1.2511 Y-0.5475
G01 X-1.1965 Y-0.6628
G01 X-1.1309 Y-0.7723
G01 X-1.0549 Y-0.8747
G01 X-0.9693 Y-0.9693
G01 X-0.8747 Y-1.0549
G01 X-0.7723 Y-1.1309
G01 X-0.6628 Y-1.1965
G01 X-0.5475 Y-1.2511
G01 X-0.4274 Y-1.2940
G01 X-0.3036 Y-1.3250
G01 X-0.1774 Y-1.3438
G01 X-0.0500 Y-1.3500
G01 X36.7500 Y-1.3500
G00 X36.7500 Y-1.3500
G01 F200.00
G01 Z-1.9000
G01 F600.00
G01 X-0.0500 Y-1.3500
G01 X-0.1774 Y-1.3438
G01 X-0.3036 Y-1.3250
G01 X-0.4274 Y-1.2940
G01 X-0.5475 Y-1.2511
G01 X-0.6628 Y-1.1965
G01 X-0.7723 Y-1.1309
G01 X-0.8747 Y-1.0549
G01 X-0.9693 Y-0.9693
G01 X-1.0549 Y-0.8747
G01 X-1.1309 Y-0.7723
G01 X-1.1965 Y-0.6628
G01 X-1.2511 Y-0.5475
G01 X-1.2940 Y-0.4274
G01 X-1.3250 Y-0.3036
G01 X-1.3438 Y-0.1774
G01 X-1.3500 Y-0.0500
G01 X-1.3500 Y35.5660
G00 Z1.0000
G00 X-1.3500 Y38.4660
G01 F200.00
G01 Z-0.4750
G01 F600.00
G01 X-1.3500 Y73.8820
G01 X-1.3438 Y74.0094
G01 X-1.3250 Y74.1356
G01 X-1.2940 Y74.2594
G01 X-1.2511 Y74.3795
G01 X-1.1965 Y74.4948
G01 X-1.1309 Y74.6043
G01 X-1.0549 Y74.7067
G01 X-0.9693 Y74.8013
G01 X-0.8747 Y74.8869
G01 X-0.7723 Y74.9629
G01 X-0.6628 Y75.0285
G01 X-0.5475 Y75.0831
G01 X-0.4274 Y75.1260
G01 X-0.3036 Y75.1570
G01 X-0.1774 Y75.1758
G01 X-0.0500 Y75.1820
G01 X36.7500 Y75.1820
G00 X36.7500 Y75.1820
G01 F200.00
G01 Z-0.9500
G01 F600.00
G01 X-0.0500 Y75.1820
G01 X-0.1774 Y75.1758
G01 X-0.3036 Y75.1570
G01 X-0.4274 Y75.1260
G01 X-0.5475 Y75.0831
G01 X-0.6628 Y75.0285
G01 X-0.7723 Y74.9629
G01 X-0.8747 Y74.8869
G01 X-0.9693 Y74.8013
G01 X-1.0549 Y74.7067
G01 X-1.1309 Y74.6043
G01 X-1.1965 Y74.4948
G01 X-1.2511 Y74.3795
G01 X-1.2940 Y74.2594
G01 X-1.3250 Y74.1356
G01 X-1.3438 Y74.0094
G01 X-1.3500 Y73.8820
G01 X-1.3500 Y38.4660
G00 X-1.3500 Y38.4660
G01 F200.00
G01 Z-1.4250
G01 F600.00
G01 X-1.3500 Y73.8820
G01 X-1.3438 Y74.0094
G01 X-1.3250 Y74.1356
G01 X-1.2940 Y74.2594
G01 X-1.2511 Y74.3795
G01 X-1.1965 Y74.4948
G01 X-1.1309 Y74.6043
G01 X-1.0549 Y74.7067
G01 X-0.9693 Y74.8013
G01 X-0.8747 Y74.8869
G01 X-0.7723 Y74.9629
G01 X-0.6628 Y75.0285
G01 X-0.5475 Y75.0831
G01 X-0.4274 Y75.1260
G01 X-0.3036 Y75.1570
G01 X-0.1774 Y75.1758
G01 X-0.0500 Y75.1820
G01 X36.7500 Y75.1820
G00 X36.7500 Y75.1820
G01 F200.00
G01 Z-1.9000
G01 F600.00
G01 X-0.0500 Y75.1820
G01 X-0.1774 Y75.1758
G01 X-0.3036 Y75.1570
G01 X-0.4274 Y75.1260
G01 X-0.5475 Y75.0831
G01 X-0.6628 Y75.0285
G01 X-0.7723 Y74.9629
G01 X-0.8747 Y74.8869
G01 X-0.9693 Y74.8013
G01 X-1.0549 Y74.7067
G01 X-1.1309 Y74.6043
G01 X-1.1965 Y74.4948
G01 X-1.2511 Y74.3795
G01 X-1.2940 Y74.2594
G01 X-1.3250 Y74.1356
G01 X-1.3438 Y74.0094
G01 X-1.3500 Y73.8820
G01 X-1.3500 Y38.4660
G00 Z1.0000
G00 X39.6500 Y75.1820
G01 F200.00
G01 Z-0.4750
G01 F600.00
G01 X76.2500 Y75.1820
G01 X76.3774 Y75.1758
G01 X76.5036 Y75.1570
G01 X76.6274 Y75.1260
G01 X76.7475 Y75.0831
G01 X76.8628 Y75.0285
G01 X76.9723 Y74.9629
G01 X77.0747 Y74.8869
G01 X77.1693 Y74.8013
G01 X77.2549 Y74.7067
G01 X77.3309 Y74.6043
G01 X77.3965 Y74.4948
G01 X77.4511 Y74.3795
G01 X77.4940 Y74.2594
G01 X77.5250 Y74.1356
G01 X77.5438 Y74.0094
G01 X77.5500 Y73.8820
G01 X77.5500 Y38.4660
G00 X77.5500 Y38.4660
G01 F200.00
G01 Z-0.9500
G01 F600.00
G01 X77.5500 Y73.8820
G01 X77.5438 Y74.0094
G01 X77.5250 Y74.1356
G01 X77.4940 Y74.2594
G01 X77.4511 Y74.3795
G01 X77.3965 Y74.4948
G01 X77.3309 Y74.6043
G01 X77.2549 Y74.7067
G01 X77.1693 Y74.8013
G01 X77.0747 Y74.8869
G01 X76.9723 Y74.9629
G01 X76.8628 Y75.0285
G01 X76.7475 Y75.0831
G01 X76.6274 Y75.1260
G01 X76.5036 Y75.1570
G01 X76.3774 Y75.1758
G01 X76.2500 Y75.1820
G01 X39.6500 Y75.1820
G00 X39.6500 Y75.1820
G01 F200.00
G01 Z-1.4250
G01 F600.00
G01 X76.2500 Y75.1820
G01 X76.3774 Y75.1758
G01 X76.5036 Y75.1570
G01 X76.6274 Y75.1260
G01 X76.7475 Y75.0831
G01 X76.8628 Y75.0285
G01 X76.9723 Y74.9629
G01 X77.0747 Y74.8869
G01 X77.1693 Y74.8013
G01 X77.2549 Y74.7067
G01 X77.3309 Y74.6043
G01 X77.3965 Y74.4948
G01 X77.4511 Y74.3795
G01 X77.4940 Y74.2594
G01 X77.5250 Y74.1356
G01 X77.5438 Y74.0094
G01 X77.5500 Y73.8820
G01 X77.5500 Y38.4660
G00 X77.5500 Y38.4660
G01 F200.00
G01 Z-1.9000
G01 F600.00
G01 X77.5500 Y73.8820
G01 X77.5438 Y74.0094
G01 X77.5250 Y74.1356
G01 X77.4940 Y74.2594
G01 X77.4511 Y74.3795
G01 X77.3965 Y74.4948
G01 X77.3309 Y74.6043
G01 X77.2549 Y74.7067
G01 X77.1693 Y74.8013
G01 X77.0747 Y74.8869
G01 X76.9723 Y74.9629
G01 X76.8628 Y75.0285
G01 X76.7475 Y75.0831
G01 X76.6274 Y75.1260
G01 X76.5036 Y75.1570
G01 X76.3774 Y75.1758
G01 X76.2500 Y75.1820
G01 X39.6500 Y75.1820
G00 Z1.0000
G00 X77.5500 Y35.5660
G01 F200.00
G01 Z-0.4750
G01 F600.00
G01 X77.5500 Y-0.0500
G01 X77.5438 Y-0.1774
G01 X77.5250 Y-0.3036
G01 X77.4940 Y-0.4274
G01 X77.4511 Y-0.5475
G01 X77.3965 Y-0.6628
G01 X77.3309 Y-0.7723
G01 X77.2549 Y-0.8747
G01 X77.1693 Y-0.9693
G01 X77.0747 Y-1.0549
G01 X76.9723 Y-1.1309
G01 X76.8628 Y-1.1965
G01 X76.7475 Y-1.2511
G01 X76.6274 Y-1.2940
G01 X76.5036 Y-1.3250
G01 X76.3774 Y-1.3438
G01 X76.2500 Y-1.3500
G01 X39.6500 Y-1.3500
G00 X39.6500 Y-1.3500
G01 F200.00
G01 Z-0.9500
G01 F600.00
G01 X76.2500 Y-1.3500
G01 X76.3774 Y-1.3438
G01 X76.5036 Y-1.3250
G01 X76.6274 Y-1.2940
G01 X76.7475 Y-1.2511
G01 X76.8628 Y-1.1965
G01 X76.9723 Y-1.1309
G01 X77.0747 Y-1.0549
G01 X77.1693 Y-0.9693
G01 X77.2549 Y-0.8747
G01 X77.3309 Y-0.7723
G01 X77.3965 Y-0.6628
G01 X77.4511 Y-0.5475
G01 X77.4940 Y-0.4274
G01 X77.5250 Y-0.3036
G01 X77.5438 Y-0.1774
G01 X77.5500 Y-0.0500
G01 X77.5500 Y35.5660
G00 X77.5500 Y35.5660
G01 F200.00
G01 Z-1.4250
G01 F600.00
G01 X77.5500 Y-0.0500
G01 X77.5438 Y-0.1774
G01 X77.5250 Y-0.3036
G01 X77.4940 Y-0.4274
G01 X77.4511 Y-0.5475
G01 X77.3965 Y-0.6628
G01 X77.3309 Y-0.7723
G01 X77.2549 Y-0.8747
G01 X77.1693 Y-0.9693
G01 X77.0747 Y-1.0549
G01 X76.9723 Y-1.1309
G01 X76.8628 Y-1.1965
G01 X76.7475 Y-1.2511
G01 X76.6274 Y-1.2940
G01 X76.5036 Y-1.3250
G01 X76.3774 Y-1.3438
G01 X76.2500 Y-1.3500
G01 X39.6500 Y-1.3500
G00 X39.6500 Y-1.3500
G01 F200.00
G01 Z-1.9000
G01 F600.00
G01 X76.2500 Y-1.3500
G01 X76.3774 Y-1.3438
G01 X76.5036 Y-1.3250
G01 X76.6274 Y-1.2940
G01 X76.7475 Y-1.2511
G01 X76.8628 Y-1.1965
G01 X76.9723 Y-1.1309
G01 X77.0747 Y-1.0549
G01 X77.1693 Y-0.9693
G01 X77.2549 Y-0.8747
G01 X77.3309 Y-0.7723
G01 X77.3965 Y-0.6628
G01 X77.4511 Y-0.5475
G01 X77.4940 Y-0.4274
G01 X77.5250 Y-0.3036
G01 X77.5438 Y-0.1774
G01 X77.5500 Y-0.0500
G01 X77.5500 Y35.5660
G00 Z1.0000
M05
G00 Z1.0000
G00 Z15.00


