(G-CODE GENERATED BY FLATCAM v8.994 - www.flatcam.org - Version Date: 2020/11/7)

(Name: hack_soc_shield-B_Mask.gbr_iso_combined_mt_paint_cnc)
(Type: G-code from Geometry)
(Units: MM)

(Created on Saturday, 27 January 2024 at 10:33)

(This preprocessor is the default preprocessor used by FlatCAM.)
(It is made to work with MACH3 compatible motion controllers.)

(TOOL DIAMETER: 0.7 mm)
(Feedrate_XY: 1000.0 mm/min)
(Feedrate_Z: 400.0 mm/min)
(Feedrate rapids 3000.0 mm/min)

(Z_Cut: 0.0 mm)
(Z_Move: 1.0 mm)
(Z Start: None mm)
(Z End: 15.0 mm)
(X,Y End: None mm)
(Steps per circle: 64)
(Preprocessor Geometry: default)

(X range:    1.2044 ...   74.9960  mm)
(Y range:    2.2966 ...   72.4304  mm)

(Spindle Speed: 0.0 RPM)
G21
G90
G94

G01 F1000.00

M5
G00 Z15.0000
G00 X0.0000 Y0.0000
T3
M6    
(MSG, Change to Tool Dia = 0.7000)
M0
G00 Z15.0000

M03
G01 F1000.00
G00 X1.6044 Y3.2980
G01 F400.00
G01 Z0.0000
G01 F1000.00
G01 X2.1044 Y3.2980
G01 X2.1044 Y2.7980
G01 X1.6044 Y2.7980
G01 X1.6044 Y3.2980
G00 Z1.0000
G00 X1.6044 Y3.2980
G01 F400.00
G01 Z0.0000
G01 F1000.00
G01 X1.2044 Y3.6980
G00 Z1.0000
G00 X1.2044 Y3.6980
G01 F400.00
G01 Z0.0000
G01 F1000.00
G01 X2.5044 Y3.6980
G01 X2.5044 Y2.3980
G01 X1.2045 Y2.3980
G01 X1.2044 Y3.6980
G00 Z1.0000
G00 X1.2046 Y5.5880
G01 F400.00
G01 Z0.0000
G01 F1000.00
G01 X1.2078 Y5.6517
G01 X1.2171 Y5.7148
G01 X1.2326 Y5.7766
G01 X1.2541 Y5.8367
G01 X1.2814 Y5.8943
G01 X1.3141 Y5.9490
G01 X1.3521 Y6.0002
G01 X1.3950 Y6.0474
G01 X1.4422 Y6.0903
G01 X1.4934 Y6.1283
G01 X1.5481 Y6.1610
G01 X1.6057 Y6.1883
G01 X1.6658 Y6.2098
G01 X1.7276 Y6.2253
G01 X1.7907 Y6.2346
G01 X1.8544 Y6.2378
G01 X1.9181 Y6.2346
G01 X1.9812 Y6.2253
G01 X2.0430 Y6.2098
G01 X2.1031 Y6.1883
G01 X2.1607 Y6.1610
G01 X2.2154 Y6.1283
G01 X2.2666 Y6.0903
G01 X2.3138 Y6.0474
G01 X2.3567 Y6.0002
G01 X2.3947 Y5.9490
G01 X2.4274 Y5.8943
G01 X2.4547 Y5.8367
G01 X2.4762 Y5.7766
G01 X2.4917 Y5.7148
G01 X2.5010 Y5.6517
G01 X2.5042 Y5.5880
G01 X2.5010 Y5.5243
G01 X2.4917 Y5.4612
G01 X2.4762 Y5.3994
G01 X2.4547 Y5.3393
G01 X2.4274 Y5.2817
G01 X2.3947 Y5.2270
G01 X2.3567 Y5.1758
G01 X2.3138 Y5.1286
G01 X2.2666 Y5.0857
G01 X2.2154 Y5.0477
G01 X2.1607 Y5.0150
G01 X2.1031 Y4.9877
G01 X2.0430 Y4.9662
G01 X1.9812 Y4.9507
G01 X1.9181 Y4.9414
G01 X1.8544 Y4.9382
G01 X1.7907 Y4.9414
G01 X1.7282 Y4.9506
G01 X1.6657 Y4.9662
G01 X1.6057 Y4.9877
G01 X1.5481 Y5.0150
G01 X1.4934 Y5.0477
G01 X1.4422 Y5.0857
G01 X1.3950 Y5.1286
G01 X1.3521 Y5.1758
G01 X1.3141 Y5.2270
G01 X1.2814 Y5.2817
G01 X1.2541 Y5.3393
G01 X1.2326 Y5.3994
G01 X1.2171 Y5.4612
G01 X1.2078 Y5.5243
G01 X1.2046 Y5.5880
G00 Z1.0000
G00 X1.2046 Y5.5880
G01 F400.00
G01 Z0.0000
G01 F1000.00
G01 X1.6051 Y5.5880
G00 Z1.0000
G00 X1.6051 Y5.5880
G01 F400.00
G01 Z0.0000
G01 F1000.00
G01 X1.6063 Y5.6124
G01 X1.6099 Y5.6366
G01 X1.6159 Y5.6604
G01 X1.6241 Y5.6834
G01 X1.6346 Y5.7055
G01 X1.6471 Y5.7265
G01 X1.6617 Y5.7461
G01 X1.6781 Y5.7643
G01 X1.6963 Y5.7807
G01 X1.7159 Y5.7953
G01 X1.7369 Y5.8078
G01 X1.7590 Y5.8183
G01 X1.7820 Y5.8265
G01 X1.8058 Y5.8325
G01 X1.8300 Y5.8361
G01 X1.8544 Y5.8373
G01 X1.8788 Y5.8361
G01 X1.9030 Y5.8325
G01 X1.9268 Y5.8265
G01 X1.9498 Y5.8183
G01 X1.9719 Y5.8078
G01 X1.9929 Y5.7953
G01 X2.0125 Y5.7807
G01 X2.0307 Y5.7643
G01 X2.0471 Y5.7461
G01 X2.0617 Y5.7265
G01 X2.0742 Y5.7055
G01 X2.0847 Y5.6834
G01 X2.0929 Y5.6604
G01 X2.0989 Y5.6366
G01 X2.1025 Y5.6124
G01 X2.1037 Y5.5880
G01 X2.1025 Y5.5636
G01 X2.0989 Y5.5394
G01 X2.0929 Y5.5156
G01 X2.0847 Y5.4926
G01 X2.0742 Y5.4705
G01 X2.0617 Y5.4495
G01 X2.0471 Y5.4299
G01 X2.0307 Y5.4117
G01 X2.0125 Y5.3953
G01 X1.9929 Y5.3807
G01 X1.9719 Y5.3682
G01 X1.9498 Y5.3577
G01 X1.9268 Y5.3495
G01 X1.9030 Y5.3435
G01 X1.8788 Y5.3399
G01 X1.8544 Y5.3387
G01 X1.8300 Y5.3399
G01 X1.8062 Y5.3435
G01 X1.7818 Y5.3495
G01 X1.7590 Y5.3577
G01 X1.7369 Y5.3682
G01 X1.7159 Y5.3807
G01 X1.6963 Y5.3953
G01 X1.6781 Y5.4117
G01 X1.6617 Y5.4299
G01 X1.6471 Y5.4495
G01 X1.6346 Y5.4705
G01 X1.6241 Y5.4926
G01 X1.6159 Y5.5156
G01 X1.6099 Y5.5394
G01 X1.6063 Y5.5636
G01 X1.6051 Y5.5880
G00 Z1.0000
G00 X1.6051 Y8.1280
G01 F400.00
G01 Z0.0000
G01 F1000.00
G01 X1.2046 Y8.1280
G00 Z1.0000
G00 X1.6051 Y8.1280
G01 F400.00
G01 Z0.0000
G01 F1000.00
G01 X1.6063 Y8.1524
G01 X1.6099 Y8.1766
G01 X1.6159 Y8.2004
G01 X1.6241 Y8.2234
G01 X1.6346 Y8.2455
G01 X1.6471 Y8.2665
G01 X1.6617 Y8.2861
G01 X1.6781 Y8.3043
G01 X1.6963 Y8.3207
G01 X1.7159 Y8.3353
G01 X1.7369 Y8.3478
G01 X1.7590 Y8.3583
G01 X1.7820 Y8.3665
G01 X1.8058 Y8.3725
G01 X1.8300 Y8.3761
G01 X1.8544 Y8.3773
G01 X1.8788 Y8.3761
G01 X1.9030 Y8.3725
G01 X1.9268 Y8.3665
G01 X1.9498 Y8.3583
G01 X1.9719 Y8.3478
G01 X1.9929 Y8.3353
G01 X2.0125 Y8.3207
G01 X2.0307 Y8.3043
G01 X2.0471 Y8.2861
G01 X2.0617 Y8.2665
G01 X2.0742 Y8.2455
G01 X2.0847 Y8.2234
G01 X2.0929 Y8.2004
G01 X2.0989 Y8.1766
G01 X2.1025 Y8.1524
G01 X2.1037 Y8.1280
G01 X2.1025 Y8.1036
G01 X2.0989 Y8.0794
G01 X2.0929 Y8.0556
G01 X2.0847 Y8.0326
G01 X2.0742 Y8.0105
G01 X2.0617 Y7.9895
G01 X2.0471 Y7.9699
G01 X2.0307 Y7.9517
G01 X2.0125 Y7.9353
G01 X1.9929 Y7.9207
G01 X1.9719 Y7.9082
G01 X1.9498 Y7.8977
G01 X1.9268 Y7.8895
G01 X1.9030 Y7.8835
G01 X1.8788 Y7.8799
G01 X1.8544 Y7.8787
G01 X1.8300 Y7.8799
G01 X1.8062 Y7.8835
G01 X1.7818 Y7.8895
G01 X1.7590 Y7.8977
G01 X1.7369 Y7.9082
G01 X1.7159 Y7.9207
G01 X1.6963 Y7.9353
G01 X1.6781 Y7.9517
G01 X1.6617 Y7.9699
G01 X1.6471 Y7.9895
G01 X1.6346 Y8.0105
G01 X1.6241 Y8.0326
G01 X1.6159 Y8.0556
G01 X1.6099 Y8.0794
G01 X1.6063 Y8.1036
G01 X1.6051 Y8.1280
G00 Z1.0000
G00 X1.2046 Y8.1280
G01 F400.00
G01 Z0.0000
G01 F1000.00
G01 X1.2078 Y8.1917
G01 X1.2171 Y8.2548
G01 X1.2326 Y8.3166
G01 X1.2541 Y8.3767
G01 X1.2814 Y8.4343
G01 X1.3141 Y8.4890
G01 X1.3521 Y8.5402
G01 X1.3950 Y8.5874
G01 X1.4422 Y8.6303
G01 X1.4934 Y8.6683
G01 X1.5481 Y8.7010
G01 X1.6057 Y8.7283
G01 X1.6658 Y8.7498
G01 X1.7276 Y8.7653
G01 X1.7907 Y8.7746
G01 X1.8544 Y8.7778
G01 X1.9181 Y8.7746
G01 X1.9812 Y8.7653
G01 X2.0430 Y8.7498
G01 X2.1031 Y8.7283
G01 X2.1607 Y8.7010
G01 X2.2154 Y8.6683
G01 X2.2666 Y8.6303
G01 X2.3138 Y8.5874
G01 X2.3567 Y8.5402
G01 X2.3947 Y8.4890
G01 X2.4274 Y8.4343
G01 X2.4547 Y8.3767
G01 X2.4762 Y8.3166
G01 X2.4917 Y8.2548
G01 X2.5010 Y8.1917
G01 X2.5042 Y8.1280
G01 X2.5010 Y8.0643
G01 X2.4917 Y8.0012
G01 X2.4762 Y7.9394
G01 X2.4547 Y7.8793
G01 X2.4274 Y7.8217
G01 X2.3947 Y7.7670
G01 X2.3567 Y7.7158
G01 X2.3138 Y7.6686
G01 X2.2666 Y7.6257
G01 X2.2154 Y7.5877
G01 X2.1607 Y7.5550
G01 X2.1031 Y7.5277
G01 X2.0430 Y7.5062
G01 X1.9812 Y7.4907
G01 X1.9181 Y7.4814
G01 X1.8544 Y7.4782
G01 X1.7907 Y7.4814
G01 X1.7282 Y7.4906
G01 X1.6657 Y7.5062
G01 X1.6057 Y7.5277
G01 X1.5481 Y7.5550
G01 X1.4934 Y7.5877
G01 X1.4422 Y7.6257
G01 X1.3950 Y7.6686
G01 X1.3521 Y7.7158
G01 X1.3141 Y7.7670
G01 X1.2814 Y7.8217
G01 X1.2541 Y7.8793
G01 X1.2326 Y7.9394
G01 X1.2171 Y8.0012
G01 X1.2078 Y8.0643
G01 X1.2046 Y8.1280
G00 Z1.0000
G00 X1.2046 Y10.6680
G01 F400.00
G01 Z0.0000
G01 F1000.00
G01 X1.2078 Y10.7317
G01 X1.2171 Y10.7948
G01 X1.2326 Y10.8566
G01 X1.2541 Y10.9167
G01 X1.2814 Y10.9743
G01 X1.3141 Y11.0290
G01 X1.3521 Y11.0802
G01 X1.3950 Y11.1274
G01 X1.4422 Y11.1703
G01 X1.4934 Y11.2083
G01 X1.5481 Y11.2410
G01 X1.6057 Y11.2683
G01 X1.6658 Y11.2898
G01 X1.7276 Y11.3053
G01 X1.7907 Y11.3146
G01 X1.8544 Y11.3178
G01 X1.9181 Y11.3146
G01 X1.9812 Y11.3053
G01 X2.0430 Y11.2898
G01 X2.1031 Y11.2683
G01 X2.1607 Y11.2410
G01 X2.2154 Y11.2083
G01 X2.2666 Y11.1703
G01 X2.3138 Y11.1274
G01 X2.3567 Y11.0802
G01 X2.3947 Y11.0290
G01 X2.4274 Y10.9743
G01 X2.4547 Y10.9167
G01 X2.4762 Y10.8566
G01 X2.4917 Y10.7948
G01 X2.5010 Y10.7317
G01 X2.5042 Y10.6680
G01 X2.5010 Y10.6043
G01 X2.4917 Y10.5412
G01 X2.4762 Y10.4794
G01 X2.4547 Y10.4193
G01 X2.4274 Y10.3617
G01 X2.3947 Y10.3070
G01 X2.3567 Y10.2558
G01 X2.3138 Y10.2086
G01 X2.2666 Y10.1657
G01 X2.2154 Y10.1277
G01 X2.1607 Y10.0950
G01 X2.1031 Y10.0677
G01 X2.0430 Y10.0462
G01 X1.9812 Y10.0307
G01 X1.9181 Y10.0214
G01 X1.8544 Y10.0182
G01 X1.7907 Y10.0214
G01 X1.7288 Y10.0306
G01 X1.6656 Y10.0463
G01 X1.6057 Y10.0677
G01 X1.5481 Y10.0950
G01 X1.4934 Y10.1277
G01 X1.4422 Y10.1657
G01 X1.3950 Y10.2086
G01 X1.3521 Y10.2558
G01 X1.3141 Y10.3070
G01 X1.2814 Y10.3617
G01 X1.2541 Y10.4193
G01 X1.2326 Y10.4794
G01 X1.2171 Y10.5412
G01 X1.2078 Y10.6043
G01 X1.2046 Y10.6680
G00 Z1.0000
G00 X1.2046 Y10.6680
G01 F400.00
G01 Z0.0000
G01 F1000.00
G01 X1.6051 Y10.6680
G00 Z1.0000
G00 X1.6051 Y10.6680
G01 F400.00
G01 Z0.0000
G01 F1000.00
G01 X1.6063 Y10.6924
G01 X1.6099 Y10.7166
G01 X1.6159 Y10.7404
G01 X1.6241 Y10.7634
G01 X1.6346 Y10.7855
G01 X1.6471 Y10.8065
G01 X1.6617 Y10.8261
G01 X1.6781 Y10.8443
G01 X1.6963 Y10.8607
G01 X1.7159 Y10.8753
G01 X1.7369 Y10.8878
G01 X1.7590 Y10.8983
G01 X1.7820 Y10.9065
G01 X1.8058 Y10.9125
G01 X1.8300 Y10.9161
G01 X1.8544 Y10.9173
G01 X1.8788 Y10.9161
G01 X1.9030 Y10.9125
G01 X1.9268 Y10.9065
G01 X1.9498 Y10.8983
G01 X1.9719 Y10.8878
G01 X1.9929 Y10.8753
G01 X2.0125 Y10.8607
G01 X2.0307 Y10.8443
G01 X2.0471 Y10.8261
G01 X2.0617 Y10.8065
G01 X2.0742 Y10.7855
G01 X2.0847 Y10.7634
G01 X2.0929 Y10.7404
G01 X2.0989 Y10.7166
G01 X2.1025 Y10.6924
G01 X2.1037 Y10.6680
G01 X2.1025 Y10.6436
G01 X2.0989 Y10.6194
G01 X2.0929 Y10.5956
G01 X2.0847 Y10.5726
G01 X2.0742 Y10.5505
G01 X2.0617 Y10.5295
G01 X2.0471 Y10.5099
G01 X2.0307 Y10.4917
G01 X2.0125 Y10.4753
G01 X1.9929 Y10.4607
G01 X1.9719 Y10.4482
G01 X1.9498 Y10.4377
G01 X1.9268 Y10.4295
G01 X1.9030 Y10.4235
G01 X1.8788 Y10.4199
G01 X1.8544 Y10.4187
G01 X1.8300 Y10.4199
G01 X1.8066 Y10.4234
G01 X1.7816 Y10.4296
G01 X1.7590 Y10.4377
G01 X1.7369 Y10.4482
G01 X1.7159 Y10.4607
G01 X1.6963 Y10.4753
G01 X1.6781 Y10.4917
G01 X1.6617 Y10.5099
G01 X1.6471 Y10.5295
G01 X1.6346 Y10.5505
G01 X1.6241 Y10.5726
G01 X1.6159 Y10.5956
G01 X1.6099 Y10.6194
G01 X1.6063 Y10.6436
G01 X1.6051 Y10.6680
G00 Z1.0000
G00 X1.6051 Y13.2080
G01 F400.00
G01 Z0.0000
G01 F1000.00
G01 X1.6063 Y13.2324
G01 X1.6099 Y13.2566
G01 X1.6159 Y13.2804
G01 X1.6241 Y13.3034
G01 X1.6346 Y13.3255
G01 X1.6471 Y13.3465
G01 X1.6617 Y13.3661
G01 X1.6781 Y13.3843
G01 X1.6963 Y13.4007
G01 X1.7159 Y13.4153
G01 X1.7369 Y13.4278
G01 X1.7590 Y13.4383
G01 X1.7820 Y13.4465
G01 X1.8058 Y13.4525
G01 X1.8300 Y13.4561
G01 X1.8544 Y13.4573
G01 X1.8788 Y13.4561
G01 X1.9030 Y13.4525
G01 X1.9268 Y13.4465
G01 X1.9498 Y13.4383
G01 X1.9719 Y13.4278
G01 X1.9929 Y13.4153
G01 X2.0125 Y13.4007
G01 X2.0307 Y13.3843
G01 X2.0471 Y13.3661
G01 X2.0617 Y13.3465
G01 X2.0742 Y13.3255
G01 X2.0847 Y13.3034
G01 X2.0929 Y13.2804
G01 X2.0989 Y13.2566
G01 X2.1025 Y13.2324
G01 X2.1037 Y13.2080
G01 X2.1025 Y13.1836
G01 X2.0989 Y13.1594
G01 X2.0929 Y13.1356
G01 X2.0847 Y13.1126
G01 X2.0742 Y13.0905
G01 X2.0617 Y13.0695
G01 X2.0471 Y13.0499
G01 X2.0307 Y13.0317
G01 X2.0125 Y13.0153
G01 X1.9929 Y13.0007
G01 X1.9719 Y12.9882
G01 X1.9498 Y12.9777
G01 X1.9268 Y12.9695
G01 X1.9030 Y12.9635
G01 X1.8788 Y12.9599
G01 X1.8544 Y12.9587
G01 X1.8300 Y12.9599
G01 X1.8062 Y12.9635
G01 X1.7818 Y12.9695
G01 X1.7590 Y12.9777
G01 X1.7369 Y12.9882
G01 X1.7159 Y13.0007
G01 X1.6963 Y13.0153
G01 X1.6781 Y13.0317
G01 X1.6617 Y13.0499
G01 X1.6471 Y13.0695
G01 X1.6346 Y13.0905
G01 X1.6241 Y13.1126
G01 X1.6159 Y13.1356
G01 X1.6099 Y13.1594
G01 X1.6063 Y13.1836
G01 X1.6051 Y13.2080
G00 Z1.0000
G00 X1.6051 Y13.2080
G01 F400.00
G01 Z0.0000
G01 F1000.00
G01 X1.2046 Y13.2080
G00 Z1.0000
G00 X1.2046 Y13.2080
G01 F400.00
G01 Z0.0000
G01 F1000.00
G01 X1.2078 Y13.2717
G01 X1.2171 Y13.3348
G01 X1.2326 Y13.3966
G01 X1.2541 Y13.4567
G01 X1.2814 Y13.5143
G01 X1.3141 Y13.5690
G01 X1.3521 Y13.6202
G01 X1.3950 Y13.6674
G01 X1.4422 Y13.7103
G01 X1.4934 Y13.7483
G01 X1.5481 Y13.7810
G01 X1.6057 Y13.8083
G01 X1.6658 Y13.8298
G01 X1.7276 Y13.8453
G01 X1.7907 Y13.8546
G01 X1.8544 Y13.8578
G01 X1.9181 Y13.8546
G01 X1.9812 Y13.8453
G01 X2.0430 Y13.8298
G01 X2.1031 Y13.8083
G01 X2.1607 Y13.7810
G01 X2.2154 Y13.7483
G01 X2.2666 Y13.7103
G01 X2.3138 Y13.6674
G01 X2.3567 Y13.6202
G01 X2.3947 Y13.5690
G01 X2.4274 Y13.5143
G01 X2.4547 Y13.4567
G01 X2.4762 Y13.3966
G01 X2.4917 Y13.3348
G01 X2.5010 Y13.2717
G01 X2.5042 Y13.2080
G01 X2.5010 Y13.1443
G01 X2.4917 Y13.0812
G01 X2.4762 Y13.0194
G01 X2.4547 Y12.9593
G01 X2.4274 Y12.9017
G01 X2.3947 Y12.8470
G01 X2.3567 Y12.7958
G01 X2.3138 Y12.7486
G01 X2.2666 Y12.7057
G01 X2.2154 Y12.6677
G01 X2.1607 Y12.6350
G01 X2.1031 Y12.6077
G01 X2.0430 Y12.5862
G01 X1.9812 Y12.5707
G01 X1.9181 Y12.5614
G01 X1.8544 Y12.5582
G01 X1.7907 Y12.5614
G01 X1.7282 Y12.5706
G01 X1.6657 Y12.5862
G01 X1.6057 Y12.6077
G01 X1.5481 Y12.6350
G01 X1.4934 Y12.6677
G01 X1.4422 Y12.7057
G01 X1.3950 Y12.7486
G01 X1.3521 Y12.7958
G01 X1.3141 Y12.8470
G01 X1.2814 Y12.9017
G01 X1.2541 Y12.9593
G01 X1.2326 Y13.0194
G01 X1.2171 Y13.0812
G01 X1.2078 Y13.1443
G01 X1.2046 Y13.2080
G00 Z1.0000
G00 X1.2046 Y15.7480
G01 F400.00
G01 Z0.0000
G01 F1000.00
G01 X1.2078 Y15.8117
G01 X1.2171 Y15.8748
G01 X1.2326 Y15.9366
G01 X1.2541 Y15.9967
G01 X1.2814 Y16.0543
G01 X1.3141 Y16.1090
G01 X1.3521 Y16.1602
G01 X1.3950 Y16.2074
G01 X1.4422 Y16.2503
G01 X1.4934 Y16.2883
G01 X1.5481 Y16.3210
G01 X1.6057 Y16.3483
G01 X1.6658 Y16.3698
G01 X1.7276 Y16.3853
G01 X1.7907 Y16.3946
G01 X1.8544 Y16.3978
G01 X1.9181 Y16.3946
G01 X1.9812 Y16.3853
G01 X2.0430 Y16.3698
G01 X2.1031 Y16.3483
G01 X2.1607 Y16.3210
G01 X2.2154 Y16.2883
G01 X2.2666 Y16.2503
G01 X2.3138 Y16.2074
G01 X2.3567 Y16.1602
G01 X2.3947 Y16.1090
G01 X2.4274 Y16.0543
G01 X2.4547 Y15.9967
G01 X2.4762 Y15.9366
G01 X2.4917 Y15.8748
G01 X2.5010 Y15.8117
G01 X2.5042 Y15.7480
G01 X2.5010 Y15.6843
G01 X2.4917 Y15.6212
G01 X2.4762 Y15.5594
G01 X2.4547 Y15.4993
G01 X2.4274 Y15.4417
G01 X2.3947 Y15.3870
G01 X2.3567 Y15.3358
G01 X2.3138 Y15.2886
G01 X2.2666 Y15.2457
G01 X2.2154 Y15.2077
G01 X2.1607 Y15.1750
G01 X2.1031 Y15.1477
G01 X2.0430 Y15.1262
G01 X1.9812 Y15.1107
G01 X1.9181 Y15.1014
G01 X1.8544 Y15.0982
G01 X1.7907 Y15.1014
G01 X1.7282 Y15.1106
G01 X1.6657 Y15.1262
G01 X1.6057 Y15.1477
G01 X1.5481 Y15.1750
G01 X1.4934 Y15.2077
G01 X1.4422 Y15.2457
G01 X1.3950 Y15.2886
G01 X1.3521 Y15.3358
G01 X1.3141 Y15.3870
G01 X1.2814 Y15.4417
G01 X1.2541 Y15.4993
G01 X1.2326 Y15.5594
G01 X1.2171 Y15.6212
G01 X1.2078 Y15.6843
G01 X1.2046 Y15.7480
G00 Z1.0000
G00 X1.2046 Y15.7480
G01 F400.00
G01 Z0.0000
G01 F1000.00
G01 X1.6051 Y15.7480
G00 Z1.0000
G00 X1.6051 Y15.7480
G01 F400.00
G01 Z0.0000
G01 F1000.00
G01 X1.6063 Y15.7724
G01 X1.6099 Y15.7966
G01 X1.6159 Y15.8204
G01 X1.6241 Y15.8434
G01 X1.6346 Y15.8655
G01 X1.6471 Y15.8865
G01 X1.6617 Y15.9061
G01 X1.6781 Y15.9243
G01 X1.6963 Y15.9407
G01 X1.7159 Y15.9553
G01 X1.7369 Y15.9678
G01 X1.7590 Y15.9783
G01 X1.7820 Y15.9865
G01 X1.8058 Y15.9925
G01 X1.8300 Y15.9961
G01 X1.8544 Y15.9973
G01 X1.8788 Y15.9961
G01 X1.9030 Y15.9925
G01 X1.9268 Y15.9865
G01 X1.9498 Y15.9783
G01 X1.9719 Y15.9678
G01 X1.9929 Y15.9553
G01 X2.0125 Y15.9407
G01 X2.0307 Y15.9243
G01 X2.0471 Y15.9061
G01 X2.0617 Y15.8865
G01 X2.0742 Y15.8655
G01 X2.0847 Y15.8434
G01 X2.0929 Y15.8204
G01 X2.0989 Y15.7966
G01 X2.1025 Y15.7724
G01 X2.1037 Y15.7480
G01 X2.1025 Y15.7236
G01 X2.0989 Y15.6994
G01 X2.0929 Y15.6756
G01 X2.0847 Y15.6526
G01 X2.0742 Y15.6305
G01 X2.0617 Y15.6095
G01 X2.0471 Y15.5899
G01 X2.0307 Y15.5717
G01 X2.0125 Y15.5553
G01 X1.9929 Y15.5407
G01 X1.9719 Y15.5282
G01 X1.9498 Y15.5177
G01 X1.9268 Y15.5095
G01 X1.9030 Y15.5035
G01 X1.8788 Y15.4999
G01 X1.8544 Y15.4987
G01 X1.8300 Y15.4999
G01 X1.8062 Y15.5035
G01 X1.7818 Y15.5095
G01 X1.7590 Y15.5177
G01 X1.7369 Y15.5282
G01 X1.7159 Y15.5407
G01 X1.6963 Y15.5553
G01 X1.6781 Y15.5717
G01 X1.6617 Y15.5899
G01 X1.6471 Y15.6095
G01 X1.6346 Y15.6305
G01 X1.6241 Y15.6526
G01 X1.6159 Y15.6756
G01 X1.6099 Y15.6994
G01 X1.6063 Y15.7236
G01 X1.6051 Y15.7480
G00 Z1.0000
G00 X1.6051 Y18.2880
G01 F400.00
G01 Z0.0000
G01 F1000.00
G01 X1.2046 Y18.2880
G00 Z1.0000
G00 X1.6051 Y18.2880
G01 F400.00
G01 Z0.0000
G01 F1000.00
G01 X1.6063 Y18.3124
G01 X1.6099 Y18.3366
G01 X1.6159 Y18.3604
G01 X1.6241 Y18.3834
G01 X1.6346 Y18.4055
G01 X1.6471 Y18.4265
G01 X1.6617 Y18.4461
G01 X1.6781 Y18.4643
G01 X1.6963 Y18.4807
G01 X1.7159 Y18.4953
G01 X1.7369 Y18.5078
G01 X1.7590 Y18.5183
G01 X1.7820 Y18.5265
G01 X1.8058 Y18.5325
G01 X1.8300 Y18.5361
G01 X1.8544 Y18.5373
G01 X1.8788 Y18.5361
G01 X1.9030 Y18.5325
G01 X1.9268 Y18.5265
G01 X1.9498 Y18.5183
G01 X1.9719 Y18.5078
G01 X1.9929 Y18.4953
G01 X2.0125 Y18.4807
G01 X2.0307 Y18.4643
G01 X2.0471 Y18.4461
G01 X2.0617 Y18.4265
G01 X2.0742 Y18.4055
G01 X2.0847 Y18.3834
G01 X2.0929 Y18.3604
G01 X2.0989 Y18.3366
G01 X2.1025 Y18.3124
G01 X2.1037 Y18.2880
G01 X2.1025 Y18.2636
G01 X2.0989 Y18.2394
G01 X2.0929 Y18.2156
G01 X2.0847 Y18.1926
G01 X2.0742 Y18.1705
G01 X2.0617 Y18.1495
G01 X2.0471 Y18.1299
G01 X2.0307 Y18.1117
G01 X2.0125 Y18.0953
G01 X1.9929 Y18.0807
G01 X1.9719 Y18.0682
G01 X1.9498 Y18.0577
G01 X1.9268 Y18.0495
G01 X1.9030 Y18.0435
G01 X1.8788 Y18.0399
G01 X1.8544 Y18.0387
G01 X1.8300 Y18.0399
G01 X1.8066 Y18.0434
G01 X1.7816 Y18.0496
G01 X1.7590 Y18.0577
G01 X1.7369 Y18.0682
G01 X1.7159 Y18.0807
G01 X1.6963 Y18.0953
G01 X1.6781 Y18.1117
G01 X1.6617 Y18.1299
G01 X1.6471 Y18.1495
G01 X1.6346 Y18.1705
G01 X1.6241 Y18.1926
G01 X1.6159 Y18.2156
G01 X1.6099 Y18.2394
G01 X1.6063 Y18.2636
G01 X1.6051 Y18.2880
G00 Z1.0000
G00 X1.2046 Y18.2880
G01 F400.00
G01 Z0.0000
G01 F1000.00
G01 X1.2078 Y18.3517
G01 X1.2171 Y18.4148
G01 X1.2326 Y18.4766
G01 X1.2541 Y18.5367
G01 X1.2814 Y18.5943
G01 X1.3141 Y18.6490
G01 X1.3521 Y18.7002
G01 X1.3950 Y18.7474
G01 X1.4422 Y18.7903
G01 X1.4934 Y18.8283
G01 X1.5481 Y18.8610
G01 X1.6057 Y18.8883
G01 X1.6658 Y18.9098
G01 X1.7276 Y18.9253
G01 X1.7907 Y18.9346
G01 X1.8544 Y18.9378
G01 X1.9181 Y18.9346
G01 X1.9812 Y18.9253
G01 X2.0430 Y18.9098
G01 X2.1031 Y18.8883
G01 X2.1607 Y18.8610
G01 X2.2154 Y18.8283
G01 X2.2666 Y18.7903
G01 X2.3138 Y18.7474
G01 X2.3567 Y18.7002
G01 X2.3947 Y18.6490
G01 X2.4274 Y18.5943
G01 X2.4547 Y18.5367
G01 X2.4762 Y18.4766
G01 X2.4917 Y18.4148
G01 X2.5010 Y18.3517
G01 X2.5042 Y18.2880
G01 X2.5010 Y18.2243
G01 X2.4917 Y18.1612
G01 X2.4762 Y18.0994
G01 X2.4547 Y18.0393
G01 X2.4274 Y17.9817
G01 X2.3947 Y17.9270
G01 X2.3567 Y17.8758
G01 X2.3138 Y17.8286
G01 X2.2666 Y17.7857
G01 X2.2154 Y17.7477
G01 X2.1607 Y17.7150
G01 X2.1031 Y17.6877
G01 X2.0430 Y17.6662
G01 X1.9812 Y17.6507
G01 X1.9181 Y17.6414
G01 X1.8544 Y17.6382
G01 X1.7907 Y17.6414
G01 X1.7288 Y17.6506
G01 X1.6656 Y17.6663
G01 X1.6057 Y17.6877
G01 X1.5481 Y17.7150
G01 X1.4934 Y17.7477
G01 X1.4422 Y17.7857
G01 X1.3950 Y17.8286
G01 X1.3521 Y17.8758
G01 X1.3141 Y17.9270
G01 X1.2814 Y17.9817
G01 X1.2541 Y18.0393
G01 X1.2326 Y18.0994
G01 X1.2171 Y18.1612
G01 X1.2078 Y18.2243
G01 X1.2046 Y18.2880
G00 Z1.0000
G00 X1.2046 Y20.8280
G01 F400.00
G01 Z0.0000
G01 F1000.00
G01 X1.6051 Y20.8280
G00 Z1.0000
G00 X1.6051 Y20.8280
G01 F400.00
G01 Z0.0000
G01 F1000.00
G01 X1.6063 Y20.8524
G01 X1.6099 Y20.8766
G01 X1.6159 Y20.9004
G01 X1.6241 Y20.9234
G01 X1.6346 Y20.9455
G01 X1.6471 Y20.9665
G01 X1.6617 Y20.9861
G01 X1.6781 Y21.0043
G01 X1.6963 Y21.0207
G01 X1.7159 Y21.0353
G01 X1.7369 Y21.0478
G01 X1.7590 Y21.0583
G01 X1.7820 Y21.0665
G01 X1.8058 Y21.0725
G01 X1.8300 Y21.0761
G01 X1.8544 Y21.0773
G01 X1.8788 Y21.0761
G01 X1.9030 Y21.0725
G01 X1.9268 Y21.0665
G01 X1.9498 Y21.0583
G01 X1.9719 Y21.0478
G01 X1.9929 Y21.0353
G01 X2.0125 Y21.0207
G01 X2.0307 Y21.0043
G01 X2.0471 Y20.9861
G01 X2.0617 Y20.9665
G01 X2.0742 Y20.9455
G01 X2.0847 Y20.9234
G01 X2.0929 Y20.9004
G01 X2.0989 Y20.8766
G01 X2.1025 Y20.8524
G01 X2.1037 Y20.8280
G01 X2.1025 Y20.8036
G01 X2.0989 Y20.7794
G01 X2.0929 Y20.7556
G01 X2.0847 Y20.7326
G01 X2.0742 Y20.7105
G01 X2.0617 Y20.6895
G01 X2.0471 Y20.6699
G01 X2.0307 Y20.6517
G01 X2.0125 Y20.6353
G01 X1.9929 Y20.6207
G01 X1.9719 Y20.6082
G01 X1.9498 Y20.5977
G01 X1.9268 Y20.5895
G01 X1.9030 Y20.5835
G01 X1.8788 Y20.5799
G01 X1.8544 Y20.5787
G01 X1.8300 Y20.5799
G01 X1.8062 Y20.5835
G01 X1.7818 Y20.5895
G01 X1.7590 Y20.5977
G01 X1.7369 Y20.6082
G01 X1.7159 Y20.6207
G01 X1.6963 Y20.6353
G01 X1.6781 Y20.6517
G01 X1.6617 Y20.6699
G01 X1.6471 Y20.6895
G01 X1.6346 Y20.7105
G01 X1.6241 Y20.7326
G01 X1.6159 Y20.7556
G01 X1.6099 Y20.7794
G01 X1.6063 Y20.8036
G01 X1.6051 Y20.8280
G00 Z1.0000
G00 X1.2046 Y20.8280
G01 F400.00
G01 Z0.0000
G01 F1000.00
G01 X1.2078 Y20.8917
G01 X1.2171 Y20.9548
G01 X1.2326 Y21.0166
G01 X1.2541 Y21.0767
G01 X1.2814 Y21.1343
G01 X1.3141 Y21.1890
G01 X1.3521 Y21.2402
G01 X1.3950 Y21.2874
G01 X1.4422 Y21.3303
G01 X1.4934 Y21.3683
G01 X1.5481 Y21.4010
G01 X1.6057 Y21.4283
G01 X1.6658 Y21.4498
G01 X1.7276 Y21.4653
G01 X1.7907 Y21.4746
G01 X1.8544 Y21.4778
G01 X1.9181 Y21.4746
G01 X1.9812 Y21.4653
G01 X2.0430 Y21.4498
G01 X2.1031 Y21.4283
G01 X2.1607 Y21.4010
G01 X2.2154 Y21.3683
G01 X2.2666 Y21.3303
G01 X2.3138 Y21.2874
G01 X2.3567 Y21.2402
G01 X2.3947 Y21.1890
G01 X2.4274 Y21.1343
G01 X2.4547 Y21.0767
G01 X2.4762 Y21.0166
G01 X2.4917 Y20.9548
G01 X2.5010 Y20.8917
G01 X2.5042 Y20.8280
G01 X2.5010 Y20.7643
G01 X2.4917 Y20.7012
G01 X2.4762 Y20.6394
G01 X2.4547 Y20.5793
G01 X2.4274 Y20.5217
G01 X2.3947 Y20.4670
G01 X2.3567 Y20.4158
G01 X2.3138 Y20.3686
G01 X2.2666 Y20.3257
G01 X2.2154 Y20.2877
G01 X2.1607 Y20.2550
G01 X2.1031 Y20.2277
G01 X2.0430 Y20.2062
G01 X1.9812 Y20.1907
G01 X1.9181 Y20.1814
G01 X1.8544 Y20.1782
G01 X1.7907 Y20.1814
G01 X1.7282 Y20.1906
G01 X1.6657 Y20.2062
G01 X1.6057 Y20.2277
G01 X1.5481 Y20.2550
G01 X1.4934 Y20.2877
G01 X1.4422 Y20.3257
G01 X1.3950 Y20.3686
G01 X1.3521 Y20.4158
G01 X1.3141 Y20.4670
G01 X1.2814 Y20.5217
G01 X1.2541 Y20.5793
G01 X1.2326 Y20.6394
G01 X1.2171 Y20.7012
G01 X1.2078 Y20.7643
G01 X1.2046 Y20.8280
G00 Z1.0000
G00 X1.2046 Y23.3680
G01 F400.00
G01 Z0.0000
G01 F1000.00
G01 X1.2078 Y23.4317
G01 X1.2171 Y23.4948
G01 X1.2326 Y23.5566
G01 X1.2541 Y23.6167
G01 X1.2814 Y23.6743
G01 X1.3141 Y23.7290
G01 X1.3521 Y23.7802
G01 X1.3950 Y23.8274
G01 X1.4422 Y23.8703
G01 X1.4934 Y23.9083
G01 X1.5481 Y23.9410
G01 X1.6057 Y23.9683
G01 X1.6658 Y23.9898
G01 X1.7276 Y24.0053
G01 X1.7907 Y24.0146
G01 X1.8544 Y24.0178
G01 X1.9181 Y24.0146
G01 X1.9812 Y24.0053
G01 X2.0430 Y23.9898
G01 X2.1031 Y23.9683
G01 X2.1607 Y23.9410
G01 X2.2154 Y23.9083
G01 X2.2666 Y23.8703
G01 X2.3138 Y23.8274
G01 X2.3567 Y23.7802
G01 X2.3947 Y23.7290
G01 X2.4274 Y23.6743
G01 X2.4547 Y23.6167
G01 X2.4762 Y23.5566
G01 X2.4917 Y23.4948
G01 X2.5010 Y23.4317
G01 X2.5042 Y23.3680
G01 X2.5010 Y23.3043
G01 X2.4917 Y23.2412
G01 X2.4762 Y23.1794
G01 X2.4547 Y23.1193
G01 X2.4274 Y23.0617
G01 X2.3947 Y23.0070
G01 X2.3567 Y22.9558
G01 X2.3138 Y22.9086
G01 X2.2666 Y22.8657
G01 X2.2154 Y22.8277
G01 X2.1607 Y22.7950
G01 X2.1031 Y22.7677
G01 X2.0430 Y22.7462
G01 X1.9812 Y22.7307
G01 X1.9181 Y22.7214
G01 X1.8544 Y22.7182
G01 X1.7907 Y22.7214
G01 X1.7282 Y22.7306
G01 X1.6657 Y22.7462
G01 X1.6057 Y22.7677
G01 X1.5481 Y22.7950
G01 X1.4934 Y22.8277
G01 X1.4422 Y22.8657
G01 X1.3950 Y22.9086
G01 X1.3521 Y22.9558
G01 X1.3141 Y23.0070
G01 X1.2814 Y23.0617
G01 X1.2541 Y23.1193
G01 X1.2326 Y23.1794
G01 X1.2171 Y23.2412
G01 X1.2078 Y23.3043
G01 X1.2046 Y23.3680
G00 Z1.0000
G00 X1.2046 Y23.3680
G01 F400.00
G01 Z0.0000
G01 F1000.00
G01 X1.6051 Y23.3680
G00 Z1.0000
G00 X1.6051 Y23.3680
G01 F400.00
G01 Z0.0000
G01 F1000.00
G01 X1.6063 Y23.3924
G01 X1.6099 Y23.4166
G01 X1.6159 Y23.4404
G01 X1.6241 Y23.4634
G01 X1.6346 Y23.4855
G01 X1.6471 Y23.5065
G01 X1.6617 Y23.5261
G01 X1.6781 Y23.5443
G01 X1.6963 Y23.5607
G01 X1.7159 Y23.5753
G01 X1.7369 Y23.5878
G01 X1.7590 Y23.5983
G01 X1.7820 Y23.6065
G01 X1.8058 Y23.6125
G01 X1.8300 Y23.6161
G01 X1.8544 Y23.6173
G01 X1.8788 Y23.6161
G01 X1.9030 Y23.6125
G01 X1.9268 Y23.6065
G01 X1.9498 Y23.5983
G01 X1.9719 Y23.5878
G01 X1.9929 Y23.5753
G01 X2.0125 Y23.5607
G01 X2.0307 Y23.5443
G01 X2.0471 Y23.5261
G01 X2.0617 Y23.5065
G01 X2.0742 Y23.4855
G01 X2.0847 Y23.4634
G01 X2.0929 Y23.4404
G01 X2.0989 Y23.4166
G01 X2.1025 Y23.3924
G01 X2.1037 Y23.3680
G01 X2.1025 Y23.3436
G01 X2.0989 Y23.3194
G01 X2.0929 Y23.2956
G01 X2.0847 Y23.2726
G01 X2.0742 Y23.2505
G01 X2.0617 Y23.2295
G01 X2.0471 Y23.2099
G01 X2.0307 Y23.1917
G01 X2.0125 Y23.1753
G01 X1.9929 Y23.1607
G01 X1.9719 Y23.1482
G01 X1.9498 Y23.1377
G01 X1.9268 Y23.1295
G01 X1.9030 Y23.1235
G01 X1.8788 Y23.1199
G01 X1.8544 Y23.1187
G01 X1.8300 Y23.1199
G01 X1.8062 Y23.1235
G01 X1.7818 Y23.1295
G01 X1.7590 Y23.1377
G01 X1.7369 Y23.1482
G01 X1.7159 Y23.1607
G01 X1.6963 Y23.1753
G01 X1.6781 Y23.1917
G01 X1.6617 Y23.2099
G01 X1.6471 Y23.2295
G01 X1.6346 Y23.2505
G01 X1.6241 Y23.2726
G01 X1.6159 Y23.2956
G01 X1.6099 Y23.3194
G01 X1.6063 Y23.3436
G01 X1.6051 Y23.3680
G00 Z1.0000
G00 X1.6051 Y25.9080
G01 F400.00
G01 Z0.0000
G01 F1000.00
G01 X1.2046 Y25.9080
G00 Z1.0000
G00 X1.6051 Y25.9080
G01 F400.00
G01 Z0.0000
G01 F1000.00
G01 X1.6063 Y25.9324
G01 X1.6099 Y25.9566
G01 X1.6159 Y25.9804
G01 X1.6241 Y26.0034
G01 X1.6346 Y26.0255
G01 X1.6471 Y26.0465
G01 X1.6617 Y26.0661
G01 X1.6781 Y26.0843
G01 X1.6963 Y26.1007
G01 X1.7159 Y26.1153
G01 X1.7369 Y26.1278
G01 X1.7590 Y26.1383
G01 X1.7820 Y26.1465
G01 X1.8058 Y26.1525
G01 X1.8300 Y26.1561
G01 X1.8544 Y26.1573
G01 X1.8788 Y26.1561
G01 X1.9030 Y26.1525
G01 X1.9268 Y26.1465
G01 X1.9498 Y26.1383
G01 X1.9719 Y26.1278
G01 X1.9929 Y26.1153
G01 X2.0125 Y26.1007
G01 X2.0307 Y26.0843
G01 X2.0471 Y26.0661
G01 X2.0617 Y26.0465
G01 X2.0742 Y26.0255
G01 X2.0847 Y26.0034
G01 X2.0929 Y25.9804
G01 X2.0989 Y25.9566
G01 X2.1025 Y25.9324
G01 X2.1037 Y25.9080
G01 X2.1025 Y25.8836
G01 X2.0989 Y25.8594
G01 X2.0929 Y25.8356
G01 X2.0847 Y25.8126
G01 X2.0742 Y25.7905
G01 X2.0617 Y25.7695
G01 X2.0471 Y25.7499
G01 X2.0307 Y25.7317
G01 X2.0125 Y25.7153
G01 X1.9929 Y25.7007
G01 X1.9719 Y25.6882
G01 X1.9498 Y25.6777
G01 X1.9268 Y25.6695
G01 X1.9030 Y25.6635
G01 X1.8788 Y25.6599
G01 X1.8544 Y25.6587
G01 X1.8300 Y25.6599
G01 X1.8066 Y25.6634
G01 X1.7816 Y25.6696
G01 X1.7590 Y25.6777
G01 X1.7369 Y25.6882
G01 X1.7159 Y25.7007
G01 X1.6963 Y25.7153
G01 X1.6781 Y25.7317
G01 X1.6617 Y25.7499
G01 X1.6471 Y25.7695
G01 X1.6346 Y25.7905
G01 X1.6241 Y25.8126
G01 X1.6159 Y25.8356
G01 X1.6099 Y25.8594
G01 X1.6063 Y25.8836
G01 X1.6051 Y25.9080
G00 Z1.0000
G00 X1.2046 Y25.9080
G01 F400.00
G01 Z0.0000
G01 F1000.00
G01 X1.2078 Y25.9717
G01 X1.2171 Y26.0348
G01 X1.2326 Y26.0966
G01 X1.2541 Y26.1567
G01 X1.2814 Y26.2143
G01 X1.3141 Y26.2690
G01 X1.3521 Y26.3202
G01 X1.3950 Y26.3674
G01 X1.4422 Y26.4103
G01 X1.4934 Y26.4483
G01 X1.5481 Y26.4810
G01 X1.6057 Y26.5083
G01 X1.6658 Y26.5298
G01 X1.7276 Y26.5453
G01 X1.7907 Y26.5546
G01 X1.8544 Y26.5578
G01 X1.9181 Y26.5546
G01 X1.9812 Y26.5453
G01 X2.0430 Y26.5298
G01 X2.1031 Y26.5083
G01 X2.1607 Y26.4810
G01 X2.2154 Y26.4483
G01 X2.2666 Y26.4103
G01 X2.3138 Y26.3674
G01 X2.3567 Y26.3202
G01 X2.3947 Y26.2690
G01 X2.4274 Y26.2143
G01 X2.4547 Y26.1567
G01 X2.4762 Y26.0966
G01 X2.4917 Y26.0348
G01 X2.5010 Y25.9717
G01 X2.5042 Y25.9080
G01 X2.5010 Y25.8443
G01 X2.4917 Y25.7812
G01 X2.4762 Y25.7194
G01 X2.4547 Y25.6593
G01 X2.4274 Y25.6017
G01 X2.3947 Y25.5470
G01 X2.3567 Y25.4958
G01 X2.3138 Y25.4486
G01 X2.2666 Y25.4057
G01 X2.2154 Y25.3677
G01 X2.1607 Y25.3350
G01 X2.1031 Y25.3077
G01 X2.0430 Y25.2862
G01 X1.9812 Y25.2707
G01 X1.9181 Y25.2614
G01 X1.8544 Y25.2582
G01 X1.7907 Y25.2614
G01 X1.7288 Y25.2706
G01 X1.6656 Y25.2863
G01 X1.6057 Y25.3077
G01 X1.5481 Y25.3350
G01 X1.4934 Y25.3677
G01 X1.4422 Y25.4057
G01 X1.3950 Y25.4486
G01 X1.3521 Y25.4958
G01 X1.3141 Y25.5470
G01 X1.2814 Y25.6017
G01 X1.2541 Y25.6593
G01 X1.2326 Y25.7194
G01 X1.2171 Y25.7812
G01 X1.2078 Y25.8443
G01 X1.2046 Y25.9080
G00 Z1.0000
G00 X1.2046 Y28.4480
G01 F400.00
G01 Z0.0000
G01 F1000.00
G01 X1.2078 Y28.5117
G01 X1.2171 Y28.5748
G01 X1.2326 Y28.6366
G01 X1.2541 Y28.6967
G01 X1.2814 Y28.7543
G01 X1.3141 Y28.8090
G01 X1.3521 Y28.8602
G01 X1.3950 Y28.9074
G01 X1.4422 Y28.9503
G01 X1.4934 Y28.9883
G01 X1.5481 Y29.0210
G01 X1.6057 Y29.0483
G01 X1.6658 Y29.0698
G01 X1.7276 Y29.0853
G01 X1.7907 Y29.0946
G01 X1.8544 Y29.0978
G01 X1.9181 Y29.0946
G01 X1.9812 Y29.0853
G01 X2.0430 Y29.0698
G01 X2.1031 Y29.0483
G01 X2.1607 Y29.0210
G01 X2.2154 Y28.9883
G01 X2.2666 Y28.9503
G01 X2.3138 Y28.9074
G01 X2.3567 Y28.8602
G01 X2.3947 Y28.8090
G01 X2.4274 Y28.7543
G01 X2.4547 Y28.6967
G01 X2.4762 Y28.6366
G01 X2.4917 Y28.5748
G01 X2.5010 Y28.5117
G01 X2.5042 Y28.4480
G01 X2.5010 Y28.3843
G01 X2.4917 Y28.3212
G01 X2.4762 Y28.2594
G01 X2.4547 Y28.1993
G01 X2.4274 Y28.1417
G01 X2.3947 Y28.0870
G01 X2.3567 Y28.0358
G01 X2.3138 Y27.9886
G01 X2.2666 Y27.9457
G01 X2.2154 Y27.9077
G01 X2.1607 Y27.8750
G01 X2.1031 Y27.8477
G01 X2.0430 Y27.8262
G01 X1.9812 Y27.8107
G01 X1.9181 Y27.8014
G01 X1.8544 Y27.7982
G01 X1.7907 Y27.8014
G01 X1.7282 Y27.8106
G01 X1.6657 Y27.8262
G01 X1.6057 Y27.8477
G01 X1.5481 Y27.8750
G01 X1.4934 Y27.9077
G01 X1.4422 Y27.9457
G01 X1.3950 Y27.9886
G01 X1.3521 Y28.0358
G01 X1.3141 Y28.0870
G01 X1.2814 Y28.1417
G01 X1.2541 Y28.1993
G01 X1.2326 Y28.2594
G01 X1.2171 Y28.3212
G01 X1.2078 Y28.3843
G01 X1.2046 Y28.4480
G00 Z1.0000
G00 X1.2046 Y28.4480
G01 F400.00
G01 Z0.0000
G01 F1000.00
G01 X1.6051 Y28.4480
G00 Z1.0000
G00 X1.6051 Y28.4480
G01 F400.00
G01 Z0.0000
G01 F1000.00
G01 X1.6063 Y28.4724
G01 X1.6099 Y28.4966
G01 X1.6159 Y28.5204
G01 X1.6241 Y28.5434
G01 X1.6346 Y28.5655
G01 X1.6471 Y28.5865
G01 X1.6617 Y28.6061
G01 X1.6781 Y28.6243
G01 X1.6963 Y28.6407
G01 X1.7159 Y28.6553
G01 X1.7369 Y28.6678
G01 X1.7590 Y28.6783
G01 X1.7820 Y28.6865
G01 X1.8058 Y28.6925
G01 X1.8300 Y28.6961
G01 X1.8544 Y28.6973
G01 X1.8788 Y28.6961
G01 X1.9030 Y28.6925
G01 X1.9268 Y28.6865
G01 X1.9498 Y28.6783
G01 X1.9719 Y28.6678
G01 X1.9929 Y28.6553
G01 X2.0125 Y28.6407
G01 X2.0307 Y28.6243
G01 X2.0471 Y28.6061
G01 X2.0617 Y28.5865
G01 X2.0742 Y28.5655
G01 X2.0847 Y28.5434
G01 X2.0929 Y28.5204
G01 X2.0989 Y28.4966
G01 X2.1025 Y28.4724
G01 X2.1037 Y28.4480
G01 X2.1025 Y28.4236
G01 X2.0989 Y28.3994
G01 X2.0929 Y28.3756
G01 X2.0847 Y28.3526
G01 X2.0742 Y28.3305
G01 X2.0617 Y28.3095
G01 X2.0471 Y28.2899
G01 X2.0307 Y28.2717
G01 X2.0125 Y28.2553
G01 X1.9929 Y28.2407
G01 X1.9719 Y28.2282
G01 X1.9498 Y28.2177
G01 X1.9268 Y28.2095
G01 X1.9030 Y28.2035
G01 X1.8788 Y28.1999
G01 X1.8544 Y28.1987
G01 X1.8300 Y28.1999
G01 X1.8062 Y28.2035
G01 X1.7818 Y28.2095
G01 X1.7590 Y28.2177
G01 X1.7369 Y28.2282
G01 X1.7159 Y28.2407
G01 X1.6963 Y28.2553
G01 X1.6781 Y28.2717
G01 X1.6617 Y28.2899
G01 X1.6471 Y28.3095
G01 X1.6346 Y28.3305
G01 X1.6241 Y28.3526
G01 X1.6159 Y28.3756
G01 X1.6099 Y28.3994
G01 X1.6063 Y28.4236
G01 X1.6051 Y28.4480
G00 Z1.0000
G00 X1.6051 Y30.9880
G01 F400.00
G01 Z0.0000
G01 F1000.00
G01 X1.2046 Y30.9880
G00 Z1.0000
G00 X1.6051 Y30.9880
G01 F400.00
G01 Z0.0000
G01 F1000.00
G01 X1.6063 Y31.0124
G01 X1.6099 Y31.0366
G01 X1.6159 Y31.0604
G01 X1.6241 Y31.0834
G01 X1.6346 Y31.1055
G01 X1.6471 Y31.1265
G01 X1.6617 Y31.1461
G01 X1.6781 Y31.1643
G01 X1.6963 Y31.1807
G01 X1.7159 Y31.1953
G01 X1.7369 Y31.2078
G01 X1.7590 Y31.2183
G01 X1.7820 Y31.2265
G01 X1.8058 Y31.2325
G01 X1.8300 Y31.2361
G01 X1.8544 Y31.2373
G01 X1.8788 Y31.2361
G01 X1.9030 Y31.2325
G01 X1.9268 Y31.2265
G01 X1.9498 Y31.2183
G01 X1.9719 Y31.2078
G01 X1.9929 Y31.1953
G01 X2.0125 Y31.1807
G01 X2.0307 Y31.1643
G01 X2.0471 Y31.1461
G01 X2.0617 Y31.1265
G01 X2.0742 Y31.1055
G01 X2.0847 Y31.0834
G01 X2.0929 Y31.0604
G01 X2.0989 Y31.0366
G01 X2.1025 Y31.0124
G01 X2.1037 Y30.9880
G01 X2.1025 Y30.9636
G01 X2.0989 Y30.9394
G01 X2.0929 Y30.9156
G01 X2.0847 Y30.8926
G01 X2.0742 Y30.8705
G01 X2.0617 Y30.8495
G01 X2.0471 Y30.8299
G01 X2.0307 Y30.8117
G01 X2.0125 Y30.7953
G01 X1.9929 Y30.7807
G01 X1.9719 Y30.7682
G01 X1.9498 Y30.7577
G01 X1.9268 Y30.7495
G01 X1.9030 Y30.7435
G01 X1.8788 Y30.7399
G01 X1.8544 Y30.7387
G01 X1.8300 Y30.7399
G01 X1.8062 Y30.7435
G01 X1.7818 Y30.7495
G01 X1.7590 Y30.7577
G01 X1.7369 Y30.7682
G01 X1.7159 Y30.7807
G01 X1.6963 Y30.7953
G01 X1.6781 Y30.8117
G01 X1.6617 Y30.8299
G01 X1.6471 Y30.8495
G01 X1.6346 Y30.8705
G01 X1.6241 Y30.8926
G01 X1.6159 Y30.9156
G01 X1.6099 Y30.9394
G01 X1.6063 Y30.9636
G01 X1.6051 Y30.9880
G00 Z1.0000
G00 X1.2046 Y30.9880
G01 F400.00
G01 Z0.0000
G01 F1000.00
G01 X1.2078 Y31.0517
G01 X1.2171 Y31.1148
G01 X1.2326 Y31.1766
G01 X1.2541 Y31.2367
G01 X1.2814 Y31.2943
G01 X1.3141 Y31.3490
G01 X1.3521 Y31.4002
G01 X1.3950 Y31.4474
G01 X1.4422 Y31.4903
G01 X1.4934 Y31.5283
G01 X1.5481 Y31.5610
G01 X1.6057 Y31.5883
G01 X1.6658 Y31.6098
G01 X1.7276 Y31.6253
G01 X1.7907 Y31.6346
G01 X1.8544 Y31.6378
G01 X1.9181 Y31.6346
G01 X1.9812 Y31.6253
G01 X2.0430 Y31.6098
G01 X2.1031 Y31.5883
G01 X2.1607 Y31.5610
G01 X2.2154 Y31.5283
G01 X2.2666 Y31.4903
G01 X2.3138 Y31.4474
G01 X2.3567 Y31.4002
G01 X2.3947 Y31.3490
G01 X2.4274 Y31.2943
G01 X2.4547 Y31.2367
G01 X2.4762 Y31.1766
G01 X2.4917 Y31.1148
G01 X2.5010 Y31.0517
G01 X2.5042 Y30.9880
G01 X2.5010 Y30.9243
G01 X2.4917 Y30.8612
G01 X2.4762 Y30.7994
G01 X2.4547 Y30.7393
G01 X2.4274 Y30.6817
G01 X2.3947 Y30.6270
G01 X2.3567 Y30.5758
G01 X2.3138 Y30.5286
G01 X2.2666 Y30.4857
G01 X2.2154 Y30.4477
G01 X2.1607 Y30.4150
G01 X2.1031 Y30.3877
G01 X2.0430 Y30.3662
G01 X1.9812 Y30.3507
G01 X1.9181 Y30.3414
G01 X1.8544 Y30.3382
G01 X1.7907 Y30.3414
G01 X1.7282 Y30.3506
G01 X1.6657 Y30.3662
G01 X1.6057 Y30.3877
G01 X1.5481 Y30.4150
G01 X1.4934 Y30.4477
G01 X1.4422 Y30.4857
G01 X1.3950 Y30.5286
G01 X1.3521 Y30.5758
G01 X1.3141 Y30.6270
G01 X1.2814 Y30.6817
G01 X1.2541 Y30.7393
G01 X1.2326 Y30.7994
G01 X1.2171 Y30.8612
G01 X1.2078 Y30.9243
G01 X1.2046 Y30.9880
G00 Z1.0000
G00 X1.2046 Y33.5280
G01 F400.00
G01 Z0.0000
G01 F1000.00
G01 X1.2078 Y33.5917
G01 X1.2171 Y33.6548
G01 X1.2326 Y33.7166
G01 X1.2541 Y33.7767
G01 X1.2814 Y33.8343
G01 X1.3141 Y33.8890
G01 X1.3521 Y33.9402
G01 X1.3950 Y33.9874
G01 X1.4422 Y34.0303
G01 X1.4934 Y34.0683
G01 X1.5481 Y34.1010
G01 X1.6057 Y34.1283
G01 X1.6658 Y34.1498
G01 X1.7276 Y34.1653
G01 X1.7907 Y34.1746
G01 X1.8544 Y34.1778
G01 X1.9181 Y34.1746
G01 X1.9812 Y34.1653
G01 X2.0430 Y34.1498
G01 X2.1031 Y34.1283
G01 X2.1607 Y34.1010
G01 X2.2154 Y34.0683
G01 X2.2666 Y34.0303
G01 X2.3138 Y33.9874
G01 X2.3567 Y33.9402
G01 X2.3947 Y33.8890
G01 X2.4274 Y33.8343
G01 X2.4547 Y33.7767
G01 X2.4762 Y33.7166
G01 X2.4917 Y33.6548
G01 X2.5010 Y33.5917
G01 X2.5042 Y33.5280
G01 X2.5010 Y33.4643
G01 X2.4917 Y33.4012
G01 X2.4762 Y33.3394
G01 X2.4547 Y33.2793
G01 X2.4274 Y33.2217
G01 X2.3947 Y33.1670
G01 X2.3567 Y33.1158
G01 X2.3138 Y33.0686
G01 X2.2666 Y33.0257
G01 X2.2154 Y32.9877
G01 X2.1607 Y32.9550
G01 X2.1031 Y32.9277
G01 X2.0430 Y32.9062
G01 X1.9812 Y32.8907
G01 X1.9181 Y32.8814
G01 X1.8544 Y32.8782
G01 X1.7907 Y32.8814
G01 X1.7288 Y32.8906
G01 X1.6656 Y32.9063
G01 X1.6057 Y32.9277
G01 X1.5481 Y32.9550
G01 X1.4934 Y32.9877
G01 X1.4422 Y33.0257
G01 X1.3950 Y33.0686
G01 X1.3521 Y33.1158
G01 X1.3141 Y33.1670
G01 X1.2814 Y33.2217
G01 X1.2541 Y33.2793
G01 X1.2326 Y33.3394
G01 X1.2171 Y33.4012
G01 X1.2078 Y33.4643
G01 X1.2046 Y33.5280
G00 Z1.0000
G00 X1.2046 Y33.5280
G01 F400.00
G01 Z0.0000
G01 F1000.00
G01 X1.6051 Y33.5280
G00 Z1.0000
G00 X1.6051 Y33.5280
G01 F400.00
G01 Z0.0000
G01 F1000.00
G01 X1.6063 Y33.5524
G01 X1.6099 Y33.5766
G01 X1.6159 Y33.6004
G01 X1.6241 Y33.6234
G01 X1.6346 Y33.6455
G01 X1.6471 Y33.6665
G01 X1.6617 Y33.6861
G01 X1.6781 Y33.7043
G01 X1.6963 Y33.7207
G01 X1.7159 Y33.7353
G01 X1.7369 Y33.7478
G01 X1.7590 Y33.7583
G01 X1.7820 Y33.7665
G01 X1.8058 Y33.7725
G01 X1.8300 Y33.7761
G01 X1.8544 Y33.7773
G01 X1.8788 Y33.7761
G01 X1.9030 Y33.7725
G01 X1.9268 Y33.7665
G01 X1.9498 Y33.7583
G01 X1.9719 Y33.7478
G01 X1.9929 Y33.7353
G01 X2.0125 Y33.7207
G01 X2.0307 Y33.7043
G01 X2.0471 Y33.6861
G01 X2.0617 Y33.6665
G01 X2.0742 Y33.6455
G01 X2.0847 Y33.6234
G01 X2.0929 Y33.6004
G01 X2.0989 Y33.5766
G01 X2.1025 Y33.5524
G01 X2.1037 Y33.5280
G01 X2.1025 Y33.5036
G01 X2.0989 Y33.4794
G01 X2.0929 Y33.4556
G01 X2.0847 Y33.4326
G01 X2.0742 Y33.4105
G01 X2.0617 Y33.3895
G01 X2.0471 Y33.3699
G01 X2.0307 Y33.3517
G01 X2.0125 Y33.3353
G01 X1.9929 Y33.3207
G01 X1.9719 Y33.3082
G01 X1.9498 Y33.2977
G01 X1.9268 Y33.2895
G01 X1.9030 Y33.2835
G01 X1.8788 Y33.2799
G01 X1.8544 Y33.2787
G01 X1.8300 Y33.2799
G01 X1.8066 Y33.2834
G01 X1.7816 Y33.2896
G01 X1.7590 Y33.2977
G01 X1.7369 Y33.3082
G01 X1.7159 Y33.3207
G01 X1.6963 Y33.3353
G01 X1.6781 Y33.3517
G01 X1.6617 Y33.3699
G01 X1.6471 Y33.3895
G01 X1.6346 Y33.4105
G01 X1.6241 Y33.4326
G01 X1.6159 Y33.4556
G01 X1.6099 Y33.4794
G01 X1.6063 Y33.5036
G01 X1.6051 Y33.5280
G00 Z1.0000
G00 X1.6051 Y36.0680
G01 F400.00
G01 Z0.0000
G01 F1000.00
G01 X1.6063 Y36.0924
G01 X1.6099 Y36.1166
G01 X1.6159 Y36.1404
G01 X1.6241 Y36.1634
G01 X1.6346 Y36.1855
G01 X1.6471 Y36.2065
G01 X1.6617 Y36.2261
G01 X1.6781 Y36.2443
G01 X1.6963 Y36.2607
G01 X1.7159 Y36.2753
G01 X1.7369 Y36.2878
G01 X1.7590 Y36.2983
G01 X1.7820 Y36.3065
G01 X1.8058 Y36.3125
G01 X1.8300 Y36.3161
G01 X1.8544 Y36.3173
G01 X1.8788 Y36.3161
G01 X1.9030 Y36.3125
G01 X1.9268 Y36.3065
G01 X1.9498 Y36.2983
G01 X1.9719 Y36.2878
G01 X1.9929 Y36.2753
G01 X2.0125 Y36.2607
G01 X2.0307 Y36.2443
G01 X2.0471 Y36.2261
G01 X2.0617 Y36.2065
G01 X2.0742 Y36.1855
G01 X2.0847 Y36.1634
G01 X2.0929 Y36.1404
G01 X2.0989 Y36.1166
G01 X2.1025 Y36.0924
G01 X2.1037 Y36.0680
G01 X2.1025 Y36.0436
G01 X2.0989 Y36.0194
G01 X2.0929 Y35.9956
G01 X2.0847 Y35.9726
G01 X2.0742 Y35.9505
G01 X2.0617 Y35.9295
G01 X2.0471 Y35.9099
G01 X2.0307 Y35.8917
G01 X2.0125 Y35.8753
G01 X1.9929 Y35.8607
G01 X1.9719 Y35.8482
G01 X1.9498 Y35.8377
G01 X1.9268 Y35.8295
G01 X1.9030 Y35.8235
G01 X1.8788 Y35.8199
G01 X1.8544 Y35.8187
G01 X1.8300 Y35.8199
G01 X1.8062 Y35.8235
G01 X1.7818 Y35.8295
G01 X1.7590 Y35.8377
G01 X1.7369 Y35.8482
G01 X1.7159 Y35.8607
G01 X1.6963 Y35.8753
G01 X1.6781 Y35.8917
G01 X1.6617 Y35.9099
G01 X1.6471 Y35.9295
G01 X1.6346 Y35.9505
G01 X1.6241 Y35.9726
G01 X1.6159 Y35.9956
G01 X1.6099 Y36.0194
G01 X1.6063 Y36.0436
G01 X1.6051 Y36.0680
G00 Z1.0000
G00 X1.6051 Y36.0680
G01 F400.00
G01 Z0.0000
G01 F1000.00
G01 X1.2046 Y36.0680
G00 Z1.0000
G00 X1.2046 Y36.0680
G01 F400.00
G01 Z0.0000
G01 F1000.00
G01 X1.2078 Y36.1317
G01 X1.2171 Y36.1948
G01 X1.2326 Y36.2566
G01 X1.2541 Y36.3167
G01 X1.2814 Y36.3743
G01 X1.3141 Y36.4290
G01 X1.3521 Y36.4802
G01 X1.3950 Y36.5274
G01 X1.4422 Y36.5703
G01 X1.4934 Y36.6083
G01 X1.5481 Y36.6410
G01 X1.6057 Y36.6683
G01 X1.6658 Y36.6898
G01 X1.7276 Y36.7053
G01 X1.7907 Y36.7146
G01 X1.8544 Y36.7178
G01 X1.9181 Y36.7146
G01 X1.9812 Y36.7053
G01 X2.0430 Y36.6898
G01 X2.1031 Y36.6683
G01 X2.1607 Y36.6410
G01 X2.2154 Y36.6083
G01 X2.2666 Y36.5703
G01 X2.3138 Y36.5274
G01 X2.3567 Y36.4802
G01 X2.3947 Y36.4290
G01 X2.4274 Y36.3743
G01 X2.4547 Y36.3167
G01 X2.4762 Y36.2566
G01 X2.4917 Y36.1948
G01 X2.5010 Y36.1317
G01 X2.5042 Y36.0680
G01 X2.5010 Y36.0043
G01 X2.4917 Y35.9412
G01 X2.4762 Y35.8794
G01 X2.4547 Y35.8193
G01 X2.4274 Y35.7617
G01 X2.3947 Y35.7070
G01 X2.3567 Y35.6558
G01 X2.3138 Y35.6086
G01 X2.2666 Y35.5657
G01 X2.2154 Y35.5277
G01 X2.1607 Y35.4950
G01 X2.1031 Y35.4677
G01 X2.0430 Y35.4462
G01 X1.9812 Y35.4307
G01 X1.9181 Y35.4214
G01 X1.8544 Y35.4182
G01 X1.7907 Y35.4214
G01 X1.7282 Y35.4306
G01 X1.6657 Y35.4462
G01 X1.6057 Y35.4677
G01 X1.5481 Y35.4950
G01 X1.4934 Y35.5277
G01 X1.4422 Y35.5657
G01 X1.3950 Y35.6086
G01 X1.3521 Y35.6558
G01 X1.3141 Y35.7070
G01 X1.2814 Y35.7617
G01 X1.2541 Y35.8193
G01 X1.2326 Y35.8794
G01 X1.2171 Y35.9412
G01 X1.2078 Y36.0043
G01 X1.2046 Y36.0680
G00 Z1.0000
G00 X1.2046 Y38.6080
G01 F400.00
G01 Z0.0000
G01 F1000.00
G01 X1.2078 Y38.6717
G01 X1.2171 Y38.7348
G01 X1.2326 Y38.7966
G01 X1.2541 Y38.8567
G01 X1.2814 Y38.9143
G01 X1.3141 Y38.9690
G01 X1.3521 Y39.0202
G01 X1.3950 Y39.0674
G01 X1.4422 Y39.1103
G01 X1.4934 Y39.1483
G01 X1.5481 Y39.1810
G01 X1.6057 Y39.2083
G01 X1.6658 Y39.2298
G01 X1.7276 Y39.2453
G01 X1.7907 Y39.2546
G01 X1.8544 Y39.2578
G01 X1.9181 Y39.2546
G01 X1.9812 Y39.2453
G01 X2.0430 Y39.2298
G01 X2.1031 Y39.2083
G01 X2.1607 Y39.1810
G01 X2.2154 Y39.1483
G01 X2.2666 Y39.1103
G01 X2.3138 Y39.0674
G01 X2.3567 Y39.0202
G01 X2.3947 Y38.9690
G01 X2.4274 Y38.9143
G01 X2.4547 Y38.8567
G01 X2.4762 Y38.7966
G01 X2.4917 Y38.7348
G01 X2.5010 Y38.6717
G01 X2.5042 Y38.6080
G01 X2.5010 Y38.5443
G01 X2.4917 Y38.4812
G01 X2.4762 Y38.4194
G01 X2.4547 Y38.3593
G01 X2.4274 Y38.3017
G01 X2.3947 Y38.2470
G01 X2.3567 Y38.1958
G01 X2.3138 Y38.1486
G01 X2.2666 Y38.1057
G01 X2.2154 Y38.0677
G01 X2.1607 Y38.0350
G01 X2.1031 Y38.0077
G01 X2.0430 Y37.9862
G01 X1.9812 Y37.9707
G01 X1.9181 Y37.9614
G01 X1.8544 Y37.9582
G01 X1.7907 Y37.9614
G01 X1.7282 Y37.9706
G01 X1.6657 Y37.9862
G01 X1.6057 Y38.0077
G01 X1.5481 Y38.0350
G01 X1.4934 Y38.0677
G01 X1.4422 Y38.1057
G01 X1.3950 Y38.1486
G01 X1.3521 Y38.1958
G01 X1.3141 Y38.2470
G01 X1.2814 Y38.3017
G01 X1.2541 Y38.3593
G01 X1.2326 Y38.4194
G01 X1.2171 Y38.4812
G01 X1.2078 Y38.5443
G01 X1.2046 Y38.6080
G00 Z1.0000
G00 X1.2046 Y38.6080
G01 F400.00
G01 Z0.0000
G01 F1000.00
G01 X1.6051 Y38.6080
G00 Z1.0000
G00 X1.6051 Y38.6080
G01 F400.00
G01 Z0.0000
G01 F1000.00
G01 X1.6063 Y38.6324
G01 X1.6099 Y38.6566
G01 X1.6159 Y38.6804
G01 X1.6241 Y38.7034
G01 X1.6346 Y38.7255
G01 X1.6471 Y38.7465
G01 X1.6617 Y38.7661
G01 X1.6781 Y38.7843
G01 X1.6963 Y38.8007
G01 X1.7159 Y38.8153
G01 X1.7369 Y38.8278
G01 X1.7590 Y38.8383
G01 X1.7820 Y38.8465
G01 X1.8058 Y38.8525
G01 X1.8300 Y38.8561
G01 X1.8544 Y38.8573
G01 X1.8788 Y38.8561
G01 X1.9030 Y38.8525
G01 X1.9268 Y38.8465
G01 X1.9498 Y38.8383
G01 X1.9719 Y38.8278
G01 X1.9929 Y38.8153
G01 X2.0125 Y38.8007
G01 X2.0307 Y38.7843
G01 X2.0471 Y38.7661
G01 X2.0617 Y38.7465
G01 X2.0742 Y38.7255
G01 X2.0847 Y38.7034
G01 X2.0929 Y38.6804
G01 X2.0989 Y38.6566
G01 X2.1025 Y38.6324
G01 X2.1037 Y38.6080
G01 X2.1025 Y38.5836
G01 X2.0989 Y38.5594
G01 X2.0929 Y38.5356
G01 X2.0847 Y38.5126
G01 X2.0742 Y38.4905
G01 X2.0617 Y38.4695
G01 X2.0471 Y38.4499
G01 X2.0307 Y38.4317
G01 X2.0125 Y38.4153
G01 X1.9929 Y38.4007
G01 X1.9719 Y38.3882
G01 X1.9498 Y38.3777
G01 X1.9268 Y38.3695
G01 X1.9030 Y38.3635
G01 X1.8788 Y38.3599
G01 X1.8544 Y38.3587
G01 X1.8300 Y38.3599
G01 X1.8062 Y38.3635
G01 X1.7818 Y38.3695
G01 X1.7590 Y38.3777
G01 X1.7369 Y38.3882
G01 X1.7159 Y38.4007
G01 X1.6963 Y38.4153
G01 X1.6781 Y38.4317
G01 X1.6617 Y38.4499
G01 X1.6471 Y38.4695
G01 X1.6346 Y38.4905
G01 X1.6241 Y38.5126
G01 X1.6159 Y38.5356
G01 X1.6099 Y38.5594
G01 X1.6063 Y38.5836
G01 X1.6051 Y38.6080
G00 Z1.0000
G00 X1.6051 Y41.1480
G01 F400.00
G01 Z0.0000
G01 F1000.00
G01 X1.2046 Y41.1480
G00 Z1.0000
G00 X1.6051 Y41.1480
G01 F400.00
G01 Z0.0000
G01 F1000.00
G01 X1.6063 Y41.1724
G01 X1.6099 Y41.1966
G01 X1.6159 Y41.2204
G01 X1.6241 Y41.2434
G01 X1.6346 Y41.2655
G01 X1.6471 Y41.2865
G01 X1.6617 Y41.3061
G01 X1.6781 Y41.3243
G01 X1.6963 Y41.3407
G01 X1.7159 Y41.3553
G01 X1.7369 Y41.3678
G01 X1.7590 Y41.3783
G01 X1.7820 Y41.3865
G01 X1.8058 Y41.3925
G01 X1.8300 Y41.3961
G01 X1.8544 Y41.3973
G01 X1.8788 Y41.3961
G01 X1.9030 Y41.3925
G01 X1.9268 Y41.3865
G01 X1.9498 Y41.3783
G01 X1.9719 Y41.3678
G01 X1.9929 Y41.3553
G01 X2.0125 Y41.3407
G01 X2.0307 Y41.3243
G01 X2.0471 Y41.3061
G01 X2.0617 Y41.2865
G01 X2.0742 Y41.2655
G01 X2.0847 Y41.2434
G01 X2.0929 Y41.2204
G01 X2.0989 Y41.1966
G01 X2.1025 Y41.1724
G01 X2.1037 Y41.1480
G01 X2.1025 Y41.1236
G01 X2.0989 Y41.0994
G01 X2.0929 Y41.0756
G01 X2.0847 Y41.0526
G01 X2.0742 Y41.0305
G01 X2.0617 Y41.0095
G01 X2.0471 Y40.9899
G01 X2.0307 Y40.9717
G01 X2.0125 Y40.9553
G01 X1.9929 Y40.9407
G01 X1.9719 Y40.9282
G01 X1.9498 Y40.9177
G01 X1.9268 Y40.9095
G01 X1.9030 Y40.9035
G01 X1.8788 Y40.8999
G01 X1.8544 Y40.8987
G01 X1.8300 Y40.8999
G01 X1.8062 Y40.9035
G01 X1.7818 Y40.9095
G01 X1.7590 Y40.9177
G01 X1.7369 Y40.9282
G01 X1.7159 Y40.9407
G01 X1.6963 Y40.9553
G01 X1.6781 Y40.9717
G01 X1.6617 Y40.9899
G01 X1.6471 Y41.0095
G01 X1.6346 Y41.0305
G01 X1.6241 Y41.0526
G01 X1.6159 Y41.0756
G01 X1.6099 Y41.0994
G01 X1.6063 Y41.1236
G01 X1.6051 Y41.1480
G00 Z1.0000
G00 X1.2046 Y41.1480
G01 F400.00
G01 Z0.0000
G01 F1000.00
G01 X1.2078 Y41.2117
G01 X1.2171 Y41.2748
G01 X1.2326 Y41.3366
G01 X1.2541 Y41.3967
G01 X1.2814 Y41.4543
G01 X1.3141 Y41.5090
G01 X1.3521 Y41.5602
G01 X1.3950 Y41.6074
G01 X1.4422 Y41.6503
G01 X1.4934 Y41.6883
G01 X1.5481 Y41.7210
G01 X1.6057 Y41.7483
G01 X1.6658 Y41.7698
G01 X1.7276 Y41.7853
G01 X1.7907 Y41.7946
G01 X1.8544 Y41.7978
G01 X1.9181 Y41.7946
G01 X1.9812 Y41.7853
G01 X2.0430 Y41.7698
G01 X2.1031 Y41.7483
G01 X2.1607 Y41.7210
G01 X2.2154 Y41.6883
G01 X2.2666 Y41.6503
G01 X2.3138 Y41.6074
G01 X2.3567 Y41.5602
G01 X2.3947 Y41.5090
G01 X2.4274 Y41.4543
G01 X2.4547 Y41.3967
G01 X2.4762 Y41.3366
G01 X2.4917 Y41.2748
G01 X2.5010 Y41.2117
G01 X2.5042 Y41.1480
G01 X2.5010 Y41.0843
G01 X2.4917 Y41.0212
G01 X2.4762 Y40.9594
G01 X2.4547 Y40.8993
G01 X2.4274 Y40.8417
G01 X2.3947 Y40.7870
G01 X2.3567 Y40.7358
G01 X2.3138 Y40.6886
G01 X2.2666 Y40.6457
G01 X2.2154 Y40.6077
G01 X2.1607 Y40.5750
G01 X2.1031 Y40.5477
G01 X2.0430 Y40.5262
G01 X1.9812 Y40.5107
G01 X1.9181 Y40.5014
G01 X1.8544 Y40.4982
G01 X1.7907 Y40.5014
G01 X1.7282 Y40.5106
G01 X1.6657 Y40.5262
G01 X1.6057 Y40.5477
G01 X1.5481 Y40.5750
G01 X1.4934 Y40.6077
G01 X1.4422 Y40.6457
G01 X1.3950 Y40.6886
G01 X1.3521 Y40.7358
G01 X1.3141 Y40.7870
G01 X1.2814 Y40.8417
G01 X1.2541 Y40.8993
G01 X1.2326 Y40.9594
G01 X1.2171 Y41.0212
G01 X1.2078 Y41.0843
G01 X1.2046 Y41.1480
G00 Z1.0000
G00 X1.2046 Y43.6880
G01 F400.00
G01 Z0.0000
G01 F1000.00
G01 X1.2078 Y43.7517
G01 X1.2171 Y43.8148
G01 X1.2326 Y43.8766
G01 X1.2541 Y43.9367
G01 X1.2814 Y43.9943
G01 X1.3141 Y44.0490
G01 X1.3521 Y44.1002
G01 X1.3950 Y44.1474
G01 X1.4422 Y44.1903
G01 X1.4934 Y44.2283
G01 X1.5481 Y44.2610
G01 X1.6057 Y44.2883
G01 X1.6658 Y44.3098
G01 X1.7276 Y44.3253
G01 X1.7907 Y44.3346
G01 X1.8544 Y44.3378
G01 X1.9181 Y44.3346
G01 X1.9812 Y44.3253
G01 X2.0430 Y44.3098
G01 X2.1031 Y44.2883
G01 X2.1607 Y44.2610
G01 X2.2154 Y44.2283
G01 X2.2666 Y44.1903
G01 X2.3138 Y44.1474
G01 X2.3567 Y44.1002
G01 X2.3947 Y44.0490
G01 X2.4274 Y43.9943
G01 X2.4547 Y43.9367
G01 X2.4762 Y43.8766
G01 X2.4917 Y43.8148
G01 X2.5010 Y43.7517
G01 X2.5042 Y43.6880
G01 X2.5010 Y43.6243
G01 X2.4917 Y43.5612
G01 X2.4762 Y43.4994
G01 X2.4547 Y43.4393
G01 X2.4274 Y43.3817
G01 X2.3947 Y43.3270
G01 X2.3567 Y43.2758
G01 X2.3138 Y43.2286
G01 X2.2666 Y43.1857
G01 X2.2154 Y43.1477
G01 X2.1607 Y43.1150
G01 X2.1031 Y43.0877
G01 X2.0430 Y43.0662
G01 X1.9812 Y43.0507
G01 X1.9181 Y43.0414
G01 X1.8544 Y43.0382
G01 X1.7907 Y43.0414
G01 X1.7282 Y43.0506
G01 X1.6657 Y43.0662
G01 X1.6057 Y43.0877
G01 X1.5481 Y43.1150
G01 X1.4934 Y43.1477
G01 X1.4422 Y43.1857
G01 X1.3950 Y43.2286
G01 X1.3521 Y43.2758
G01 X1.3141 Y43.3270
G01 X1.2814 Y43.3817
G01 X1.2541 Y43.4393
G01 X1.2326 Y43.4994
G01 X1.2171 Y43.5612
G01 X1.2078 Y43.6243
G01 X1.2046 Y43.6880
G00 Z1.0000
G00 X1.2046 Y43.6880
G01 F400.00
G01 Z0.0000
G01 F1000.00
G01 X1.6051 Y43.6880
G00 Z1.0000
G00 X1.6051 Y43.6880
G01 F400.00
G01 Z0.0000
G01 F1000.00
G01 X1.6063 Y43.7124
G01 X1.6099 Y43.7366
G01 X1.6159 Y43.7604
G01 X1.6241 Y43.7834
G01 X1.6346 Y43.8055
G01 X1.6471 Y43.8265
G01 X1.6617 Y43.8461
G01 X1.6781 Y43.8643
G01 X1.6963 Y43.8807
G01 X1.7159 Y43.8953
G01 X1.7369 Y43.9078
G01 X1.7590 Y43.9183
G01 X1.7820 Y43.9265
G01 X1.8058 Y43.9325
G01 X1.8300 Y43.9361
G01 X1.8544 Y43.9373
G01 X1.8788 Y43.9361
G01 X1.9030 Y43.9325
G01 X1.9268 Y43.9265
G01 X1.9498 Y43.9183
G01 X1.9719 Y43.9078
G01 X1.9929 Y43.8953
G01 X2.0125 Y43.8807
G01 X2.0307 Y43.8643
G01 X2.0471 Y43.8461
G01 X2.0617 Y43.8265
G01 X2.0742 Y43.8055
G01 X2.0847 Y43.7834
G01 X2.0929 Y43.7604
G01 X2.0989 Y43.7366
G01 X2.1025 Y43.7124
G01 X2.1037 Y43.6880
G01 X2.1025 Y43.6636
G01 X2.0989 Y43.6394
G01 X2.0929 Y43.6156
G01 X2.0847 Y43.5926
G01 X2.0742 Y43.5705
G01 X2.0617 Y43.5495
G01 X2.0471 Y43.5299
G01 X2.0307 Y43.5117
G01 X2.0125 Y43.4953
G01 X1.9929 Y43.4807
G01 X1.9719 Y43.4682
G01 X1.9498 Y43.4577
G01 X1.9268 Y43.4495
G01 X1.9030 Y43.4435
G01 X1.8788 Y43.4399
G01 X1.8544 Y43.4387
G01 X1.8300 Y43.4399
G01 X1.8062 Y43.4435
G01 X1.7818 Y43.4495
G01 X1.7590 Y43.4577
G01 X1.7369 Y43.4682
G01 X1.7159 Y43.4807
G01 X1.6963 Y43.4953
G01 X1.6781 Y43.5117
G01 X1.6617 Y43.5299
G01 X1.6471 Y43.5495
G01 X1.6346 Y43.5705
G01 X1.6241 Y43.5926
G01 X1.6159 Y43.6156
G01 X1.6099 Y43.6394
G01 X1.6063 Y43.6636
G01 X1.6051 Y43.6880
G00 Z1.0000
G00 X1.6051 Y46.2280
G01 F400.00
G01 Z0.0000
G01 F1000.00
G01 X1.2046 Y46.2280
G00 Z1.0000
G00 X1.6051 Y46.2280
G01 F400.00
G01 Z0.0000
G01 F1000.00
G01 X1.6063 Y46.2524
G01 X1.6099 Y46.2766
G01 X1.6159 Y46.3004
G01 X1.6241 Y46.3234
G01 X1.6346 Y46.3455
G01 X1.6471 Y46.3665
G01 X1.6617 Y46.3861
G01 X1.6781 Y46.4043
G01 X1.6963 Y46.4207
G01 X1.7159 Y46.4353
G01 X1.7369 Y46.4478
G01 X1.7590 Y46.4583
G01 X1.7820 Y46.4665
G01 X1.8058 Y46.4725
G01 X1.8300 Y46.4761
G01 X1.8544 Y46.4773
G01 X1.8788 Y46.4761
G01 X1.9030 Y46.4725
G01 X1.9268 Y46.4665
G01 X1.9498 Y46.4583
G01 X1.9719 Y46.4478
G01 X1.9929 Y46.4353
G01 X2.0125 Y46.4207
G01 X2.0307 Y46.4043
G01 X2.0471 Y46.3861
G01 X2.0617 Y46.3665
G01 X2.0742 Y46.3455
G01 X2.0847 Y46.3234
G01 X2.0929 Y46.3004
G01 X2.0989 Y46.2766
G01 X2.1025 Y46.2524
G01 X2.1037 Y46.2280
G01 X2.1025 Y46.2036
G01 X2.0989 Y46.1794
G01 X2.0929 Y46.1556
G01 X2.0847 Y46.1326
G01 X2.0742 Y46.1105
G01 X2.0617 Y46.0895
G01 X2.0471 Y46.0699
G01 X2.0307 Y46.0517
G01 X2.0125 Y46.0353
G01 X1.9929 Y46.0207
G01 X1.9719 Y46.0082
G01 X1.9498 Y45.9977
G01 X1.9268 Y45.9895
G01 X1.9030 Y45.9835
G01 X1.8788 Y45.9799
G01 X1.8544 Y45.9787
G01 X1.8300 Y45.9799
G01 X1.8062 Y45.9835
G01 X1.7818 Y45.9895
G01 X1.7590 Y45.9977
G01 X1.7369 Y46.0082
G01 X1.7159 Y46.0207
G01 X1.6963 Y46.0353
G01 X1.6781 Y46.0517
G01 X1.6617 Y46.0699
G01 X1.6471 Y46.0895
G01 X1.6346 Y46.1105
G01 X1.6241 Y46.1326
G01 X1.6159 Y46.1556
G01 X1.6099 Y46.1794
G01 X1.6063 Y46.2036
G01 X1.6051 Y46.2280
G00 Z1.0000
G00 X1.2046 Y46.2280
G01 F400.00
G01 Z0.0000
G01 F1000.00
G01 X1.2078 Y46.2917
G01 X1.2171 Y46.3548
G01 X1.2326 Y46.4166
G01 X1.2541 Y46.4767
G01 X1.2814 Y46.5343
G01 X1.3141 Y46.5890
G01 X1.3521 Y46.6402
G01 X1.3950 Y46.6874
G01 X1.4422 Y46.7303
G01 X1.4934 Y46.7683
G01 X1.5481 Y46.8010
G01 X1.6057 Y46.8283
G01 X1.6658 Y46.8498
G01 X1.7276 Y46.8653
G01 X1.7907 Y46.8746
G01 X1.8544 Y46.8778
G01 X1.9181 Y46.8746
G01 X1.9812 Y46.8653
G01 X2.0430 Y46.8498
G01 X2.1031 Y46.8283
G01 X2.1607 Y46.8010
G01 X2.2154 Y46.7683
G01 X2.2666 Y46.7303
G01 X2.3138 Y46.6874
G01 X2.3567 Y46.6402
G01 X2.3947 Y46.5890
G01 X2.4274 Y46.5343
G01 X2.4547 Y46.4767
G01 X2.4762 Y46.4166
G01 X2.4917 Y46.3548
G01 X2.5010 Y46.2917
G01 X2.5042 Y46.2280
G01 X2.5010 Y46.1643
G01 X2.4917 Y46.1012
G01 X2.4762 Y46.0394
G01 X2.4547 Y45.9793
G01 X2.4274 Y45.9217
G01 X2.3947 Y45.8670
G01 X2.3567 Y45.8158
G01 X2.3138 Y45.7686
G01 X2.2666 Y45.7257
G01 X2.2154 Y45.6877
G01 X2.1607 Y45.6550
G01 X2.1031 Y45.6277
G01 X2.0430 Y45.6062
G01 X1.9812 Y45.5907
G01 X1.9181 Y45.5814
G01 X1.8544 Y45.5782
G01 X1.7907 Y45.5814
G01 X1.7282 Y45.5906
G01 X1.6657 Y45.6062
G01 X1.6057 Y45.6277
G01 X1.5481 Y45.6550
G01 X1.4934 Y45.6877
G01 X1.4422 Y45.7257
G01 X1.3950 Y45.7686
G01 X1.3521 Y45.8158
G01 X1.3141 Y45.8670
G01 X1.2814 Y45.9217
G01 X1.2541 Y45.9793
G01 X1.2326 Y46.0394
G01 X1.2171 Y46.1012
G01 X1.2078 Y46.1643
G01 X1.2046 Y46.2280
G00 Z1.0000
G00 X1.2046 Y48.7680
G01 F400.00
G01 Z0.0000
G01 F1000.00
G01 X1.6051 Y48.7680
G00 Z1.0000
G00 X1.6051 Y48.7680
G01 F400.00
G01 Z0.0000
G01 F1000.00
G01 X1.6063 Y48.7924
G01 X1.6099 Y48.8166
G01 X1.6159 Y48.8404
G01 X1.6241 Y48.8634
G01 X1.6346 Y48.8855
G01 X1.6471 Y48.9065
G01 X1.6617 Y48.9261
G01 X1.6781 Y48.9443
G01 X1.6963 Y48.9607
G01 X1.7159 Y48.9753
G01 X1.7369 Y48.9878
G01 X1.7590 Y48.9983
G01 X1.7820 Y49.0065
G01 X1.8058 Y49.0125
G01 X1.8300 Y49.0161
G01 X1.8544 Y49.0173
G01 X1.8788 Y49.0161
G01 X1.9030 Y49.0125
G01 X1.9268 Y49.0065
G01 X1.9498 Y48.9983
G01 X1.9719 Y48.9878
G01 X1.9929 Y48.9753
G01 X2.0125 Y48.9607
G01 X2.0307 Y48.9443
G01 X2.0471 Y48.9261
G01 X2.0617 Y48.9065
G01 X2.0742 Y48.8855
G01 X2.0847 Y48.8634
G01 X2.0929 Y48.8404
G01 X2.0989 Y48.8166
G01 X2.1025 Y48.7924
G01 X2.1037 Y48.7680
G01 X2.1025 Y48.7436
G01 X2.0989 Y48.7194
G01 X2.0929 Y48.6956
G01 X2.0847 Y48.6726
G01 X2.0742 Y48.6505
G01 X2.0617 Y48.6295
G01 X2.0471 Y48.6099
G01 X2.0307 Y48.5917
G01 X2.0125 Y48.5753
G01 X1.9929 Y48.5607
G01 X1.9719 Y48.5482
G01 X1.9498 Y48.5377
G01 X1.9268 Y48.5295
G01 X1.9030 Y48.5235
G01 X1.8788 Y48.5199
G01 X1.8544 Y48.5187
G01 X1.8300 Y48.5199
G01 X1.8066 Y48.5234
G01 X1.7816 Y48.5296
G01 X1.7590 Y48.5377
G01 X1.7369 Y48.5482
G01 X1.7159 Y48.5607
G01 X1.6963 Y48.5753
G01 X1.6781 Y48.5917
G01 X1.6617 Y48.6099
G01 X1.6471 Y48.6295
G01 X1.6346 Y48.6505
G01 X1.6241 Y48.6726
G01 X1.6159 Y48.6956
G01 X1.6099 Y48.7194
G01 X1.6063 Y48.7436
G01 X1.6051 Y48.7680
G00 Z1.0000
G00 X1.2046 Y48.7680
G01 F400.00
G01 Z0.0000
G01 F1000.00
G01 X1.2078 Y48.8317
G01 X1.2171 Y48.8948
G01 X1.2326 Y48.9566
G01 X1.2541 Y49.0167
G01 X1.2814 Y49.0743
G01 X1.3141 Y49.1290
G01 X1.3521 Y49.1802
G01 X1.3950 Y49.2274
G01 X1.4422 Y49.2703
G01 X1.4934 Y49.3083
G01 X1.5481 Y49.3410
G01 X1.6057 Y49.3683
G01 X1.6658 Y49.3898
G01 X1.7276 Y49.4053
G01 X1.7907 Y49.4146
G01 X1.8544 Y49.4178
G01 X1.9181 Y49.4146
G01 X1.9812 Y49.4053
G01 X2.0430 Y49.3898
G01 X2.1031 Y49.3683
G01 X2.1607 Y49.3410
G01 X2.2154 Y49.3083
G01 X2.2666 Y49.2703
G01 X2.3138 Y49.2274
G01 X2.3567 Y49.1802
G01 X2.3947 Y49.1290
G01 X2.4274 Y49.0743
G01 X2.4547 Y49.0167
G01 X2.4762 Y48.9566
G01 X2.4917 Y48.8948
G01 X2.5010 Y48.8317
G01 X2.5042 Y48.7680
G01 X2.5010 Y48.7043
G01 X2.4917 Y48.6412
G01 X2.4762 Y48.5794
G01 X2.4547 Y48.5193
G01 X2.4274 Y48.4617
G01 X2.3947 Y48.4070
G01 X2.3567 Y48.3558
G01 X2.3138 Y48.3086
G01 X2.2666 Y48.2657
G01 X2.2154 Y48.2277
G01 X2.1607 Y48.1950
G01 X2.1031 Y48.1677
G01 X2.0430 Y48.1462
G01 X1.9812 Y48.1307
G01 X1.9181 Y48.1214
G01 X1.8544 Y48.1182
G01 X1.7907 Y48.1214
G01 X1.7288 Y48.1306
G01 X1.6656 Y48.1463
G01 X1.6057 Y48.1677
G01 X1.5481 Y48.1950
G01 X1.4934 Y48.2277
G01 X1.4422 Y48.2657
G01 X1.3950 Y48.3086
G01 X1.3521 Y48.3558
G01 X1.3141 Y48.4070
G01 X1.2814 Y48.4617
G01 X1.2541 Y48.5193
G01 X1.2326 Y48.5794
G01 X1.2171 Y48.6412
G01 X1.2078 Y48.7043
G01 X1.2046 Y48.7680
G00 Z1.0000
G00 X1.2046 Y51.3080
G01 F400.00
G01 Z0.0000
G01 F1000.00
G01 X1.2078 Y51.3717
G01 X1.2171 Y51.4348
G01 X1.2326 Y51.4966
G01 X1.2541 Y51.5567
G01 X1.2814 Y51.6143
G01 X1.3141 Y51.6690
G01 X1.3521 Y51.7202
G01 X1.3950 Y51.7674
G01 X1.4422 Y51.8103
G01 X1.4934 Y51.8483
G01 X1.5481 Y51.8810
G01 X1.6057 Y51.9083
G01 X1.6658 Y51.9298
G01 X1.7276 Y51.9453
G01 X1.7907 Y51.9546
G01 X1.8544 Y51.9578
G01 X1.9181 Y51.9546
G01 X1.9812 Y51.9453
G01 X2.0430 Y51.9298
G01 X2.1031 Y51.9083
G01 X2.1607 Y51.8810
G01 X2.2154 Y51.8483
G01 X2.2666 Y51.8103
G01 X2.3138 Y51.7674
G01 X2.3567 Y51.7202
G01 X2.3947 Y51.6690
G01 X2.4274 Y51.6143
G01 X2.4547 Y51.5567
G01 X2.4762 Y51.4966
G01 X2.4917 Y51.4348
G01 X2.5010 Y51.3717
G01 X2.5042 Y51.3080
G01 X2.5010 Y51.2443
G01 X2.4917 Y51.1812
G01 X2.4762 Y51.1194
G01 X2.4547 Y51.0593
G01 X2.4274 Y51.0017
G01 X2.3947 Y50.9470
G01 X2.3567 Y50.8958
G01 X2.3138 Y50.8486
G01 X2.2666 Y50.8057
G01 X2.2154 Y50.7677
G01 X2.1607 Y50.7350
G01 X2.1031 Y50.7077
G01 X2.0430 Y50.6862
G01 X1.9812 Y50.6707
G01 X1.9181 Y50.6614
G01 X1.8544 Y50.6582
G01 X1.7907 Y50.6614
G01 X1.7288 Y50.6706
G01 X1.6656 Y50.6863
G01 X1.6057 Y50.7077
G01 X1.5481 Y50.7350
G01 X1.4934 Y50.7677
G01 X1.4422 Y50.8057
G01 X1.3950 Y50.8486
G01 X1.3521 Y50.8958
G01 X1.3141 Y50.9470
G01 X1.2814 Y51.0017
G01 X1.2541 Y51.0593
G01 X1.2326 Y51.1194
G01 X1.2171 Y51.1812
G01 X1.2078 Y51.2443
G01 X1.2046 Y51.3080
G00 Z1.0000
G00 X1.2046 Y51.3080
G01 F400.00
G01 Z0.0000
G01 F1000.00
G01 X1.6051 Y51.3080
G00 Z1.0000
G00 X1.6051 Y51.3080
G01 F400.00
G01 Z0.0000
G01 F1000.00
G01 X1.6063 Y51.3324
G01 X1.6099 Y51.3566
G01 X1.6159 Y51.3804
G01 X1.6241 Y51.4034
G01 X1.6346 Y51.4255
G01 X1.6471 Y51.4465
G01 X1.6617 Y51.4661
G01 X1.6781 Y51.4843
G01 X1.6963 Y51.5007
G01 X1.7159 Y51.5153
G01 X1.7369 Y51.5278
G01 X1.7590 Y51.5383
G01 X1.7820 Y51.5465
G01 X1.8058 Y51.5525
G01 X1.8300 Y51.5561
G01 X1.8544 Y51.5573
G01 X1.8788 Y51.5561
G01 X1.9030 Y51.5525
G01 X1.9268 Y51.5465
G01 X1.9498 Y51.5383
G01 X1.9719 Y51.5278
G01 X1.9929 Y51.5153
G01 X2.0125 Y51.5007
G01 X2.0307 Y51.4843
G01 X2.0471 Y51.4661
G01 X2.0617 Y51.4465
G01 X2.0742 Y51.4255
G01 X2.0847 Y51.4034
G01 X2.0929 Y51.3804
G01 X2.0989 Y51.3566
G01 X2.1025 Y51.3324
G01 X2.1037 Y51.3080
G01 X2.1025 Y51.2836
G01 X2.0989 Y51.2594
G01 X2.0929 Y51.2356
G01 X2.0847 Y51.2126
G01 X2.0742 Y51.1905
G01 X2.0617 Y51.1695
G01 X2.0471 Y51.1499
G01 X2.0307 Y51.1317
G01 X2.0125 Y51.1153
G01 X1.9929 Y51.1007
G01 X1.9719 Y51.0882
G01 X1.9498 Y51.0777
G01 X1.9268 Y51.0695
G01 X1.9030 Y51.0635
G01 X1.8788 Y51.0599
G01 X1.8544 Y51.0587
G01 X1.8300 Y51.0599
G01 X1.8066 Y51.0634
G01 X1.7816 Y51.0696
G01 X1.7590 Y51.0777
G01 X1.7369 Y51.0882
G01 X1.7159 Y51.1007
G01 X1.6963 Y51.1153
G01 X1.6781 Y51.1317
G01 X1.6617 Y51.1499
G01 X1.6471 Y51.1695
G01 X1.6346 Y51.1905
G01 X1.6241 Y51.2126
G01 X1.6159 Y51.2356
G01 X1.6099 Y51.2594
G01 X1.6063 Y51.2836
G01 X1.6051 Y51.3080
G00 Z1.0000
G00 X1.6051 Y53.8480
G01 F400.00
G01 Z0.0000
G01 F1000.00
G01 X1.6063 Y53.8724
G01 X1.6099 Y53.8966
G01 X1.6159 Y53.9204
G01 X1.6241 Y53.9434
G01 X1.6346 Y53.9655
G01 X1.6471 Y53.9865
G01 X1.6617 Y54.0061
G01 X1.6781 Y54.0243
G01 X1.6963 Y54.0407
G01 X1.7159 Y54.0553
G01 X1.7369 Y54.0678
G01 X1.7590 Y54.0783
G01 X1.7820 Y54.0865
G01 X1.8058 Y54.0925
G01 X1.8300 Y54.0961
G01 X1.8544 Y54.0973
G01 X1.8788 Y54.0961
G01 X1.9030 Y54.0925
G01 X1.9268 Y54.0865
G01 X1.9498 Y54.0783
G01 X1.9719 Y54.0678
G01 X1.9929 Y54.0553
G01 X2.0125 Y54.0407
G01 X2.0307 Y54.0243
G01 X2.0471 Y54.0061
G01 X2.0617 Y53.9865
G01 X2.0742 Y53.9655
G01 X2.0847 Y53.9434
G01 X2.0929 Y53.9204
G01 X2.0989 Y53.8966
G01 X2.1025 Y53.8724
G01 X2.1037 Y53.8480
G01 X2.1025 Y53.8236
G01 X2.0989 Y53.7994
G01 X2.0929 Y53.7756
G01 X2.0847 Y53.7526
G01 X2.0742 Y53.7305
G01 X2.0617 Y53.7095
G01 X2.0471 Y53.6899
G01 X2.0307 Y53.6717
G01 X2.0125 Y53.6553
G01 X1.9929 Y53.6407
G01 X1.9719 Y53.6282
G01 X1.9498 Y53.6177
G01 X1.9268 Y53.6095
G01 X1.9030 Y53.6035
G01 X1.8788 Y53.5999
G01 X1.8544 Y53.5987
G01 X1.8300 Y53.5999
G01 X1.8062 Y53.6035
G01 X1.7818 Y53.6095
G01 X1.7590 Y53.6177
G01 X1.7369 Y53.6282
G01 X1.7159 Y53.6407
G01 X1.6963 Y53.6553
G01 X1.6781 Y53.6717
G01 X1.6617 Y53.6899
G01 X1.6471 Y53.7095
G01 X1.6346 Y53.7305
G01 X1.6241 Y53.7526
G01 X1.6159 Y53.7756
G01 X1.6099 Y53.7994
G01 X1.6063 Y53.8236
G01 X1.6051 Y53.8480
G00 Z1.0000
G00 X1.6051 Y53.8480
G01 F400.00
G01 Z0.0000
G01 F1000.00
G01 X1.2046 Y53.8480
G00 Z1.0000
G00 X1.2046 Y53.8480
G01 F400.00
G01 Z0.0000
G01 F1000.00
G01 X1.2078 Y53.9117
G01 X1.2171 Y53.9748
G01 X1.2326 Y54.0366
G01 X1.2541 Y54.0967
G01 X1.2814 Y54.1543
G01 X1.3141 Y54.2090
G01 X1.3521 Y54.2602
G01 X1.3950 Y54.3074
G01 X1.4422 Y54.3503
G01 X1.4934 Y54.3883
G01 X1.5481 Y54.4210
G01 X1.6057 Y54.4483
G01 X1.6658 Y54.4698
G01 X1.7276 Y54.4853
G01 X1.7907 Y54.4946
G01 X1.8544 Y54.4978
G01 X1.9181 Y54.4946
G01 X1.9812 Y54.4853
G01 X2.0430 Y54.4698
G01 X2.1031 Y54.4483
G01 X2.1607 Y54.4210
G01 X2.2154 Y54.3883
G01 X2.2666 Y54.3503
G01 X2.3138 Y54.3074
G01 X2.3567 Y54.2602
G01 X2.3947 Y54.2090
G01 X2.4274 Y54.1543
G01 X2.4547 Y54.0967
G01 X2.4762 Y54.0366
G01 X2.4917 Y53.9748
G01 X2.5010 Y53.9117
G01 X2.5042 Y53.8480
G01 X2.5010 Y53.7843
G01 X2.4917 Y53.7212
G01 X2.4762 Y53.6594
G01 X2.4547 Y53.5993
G01 X2.4274 Y53.5417
G01 X2.3947 Y53.4870
G01 X2.3567 Y53.4358
G01 X2.3138 Y53.3886
G01 X2.2666 Y53.3457
G01 X2.2154 Y53.3077
G01 X2.1607 Y53.2750
G01 X2.1031 Y53.2477
G01 X2.0430 Y53.2262
G01 X1.9812 Y53.2107
G01 X1.9181 Y53.2014
G01 X1.8544 Y53.1982
G01 X1.7907 Y53.2014
G01 X1.7282 Y53.2106
G01 X1.6657 Y53.2262
G01 X1.6057 Y53.2477
G01 X1.5481 Y53.2750
G01 X1.4934 Y53.3077
G01 X1.4422 Y53.3457
G01 X1.3950 Y53.3886
G01 X1.3521 Y53.4358
G01 X1.3141 Y53.4870
G01 X1.2814 Y53.5417
G01 X1.2541 Y53.5993
G01 X1.2326 Y53.6594
G01 X1.2171 Y53.7212
G01 X1.2078 Y53.7843
G01 X1.2046 Y53.8480
G00 Z1.0000
G00 X1.2046 Y56.3880
G01 F400.00
G01 Z0.0000
G01 F1000.00
G01 X1.2078 Y56.4517
G01 X1.2171 Y56.5148
G01 X1.2326 Y56.5766
G01 X1.2541 Y56.6367
G01 X1.2814 Y56.6943
G01 X1.3141 Y56.7490
G01 X1.3521 Y56.8002
G01 X1.3950 Y56.8474
G01 X1.4422 Y56.8903
G01 X1.4934 Y56.9283
G01 X1.5481 Y56.9610
G01 X1.6057 Y56.9883
G01 X1.6658 Y57.0098
G01 X1.7276 Y57.0253
G01 X1.7907 Y57.0346
G01 X1.8544 Y57.0378
G01 X1.9181 Y57.0346
G01 X1.9812 Y57.0253
G01 X2.0430 Y57.0098
G01 X2.1031 Y56.9883
G01 X2.1607 Y56.9610
G01 X2.2154 Y56.9283
G01 X2.2666 Y56.8903
G01 X2.3138 Y56.8474
G01 X2.3567 Y56.8002
G01 X2.3947 Y56.7490
G01 X2.4274 Y56.6943
G01 X2.4547 Y56.6367
G01 X2.4762 Y56.5766
G01 X2.4917 Y56.5148
G01 X2.5010 Y56.4517
G01 X2.5042 Y56.3880
G01 X2.5010 Y56.3243
G01 X2.4917 Y56.2612
G01 X2.4762 Y56.1994
G01 X2.4547 Y56.1393
G01 X2.4274 Y56.0817
G01 X2.3947 Y56.0270
G01 X2.3567 Y55.9758
G01 X2.3138 Y55.9286
G01 X2.2666 Y55.8857
G01 X2.2154 Y55.8477
G01 X2.1607 Y55.8150
G01 X2.1031 Y55.7877
G01 X2.0430 Y55.7662
G01 X1.9812 Y55.7507
G01 X1.9181 Y55.7414
G01 X1.8544 Y55.7382
G01 X1.7907 Y55.7414
G01 X1.7282 Y55.7506
G01 X1.6657 Y55.7662
G01 X1.6057 Y55.7877
G01 X1.5481 Y55.8150
G01 X1.4934 Y55.8477
G01 X1.4422 Y55.8857
G01 X1.3950 Y55.9286
G01 X1.3521 Y55.9758
G01 X1.3141 Y56.0270
G01 X1.2814 Y56.0817
G01 X1.2541 Y56.1393
G01 X1.2326 Y56.1994
G01 X1.2171 Y56.2612
G01 X1.2078 Y56.3243
G01 X1.2046 Y56.3880
G00 Z1.0000
G00 X1.2046 Y56.3880
G01 F400.00
G01 Z0.0000
G01 F1000.00
G01 X1.6051 Y56.3880
G00 Z1.0000
G00 X1.6051 Y56.3880
G01 F400.00
G01 Z0.0000
G01 F1000.00
G01 X1.6063 Y56.4124
G01 X1.6099 Y56.4366
G01 X1.6159 Y56.4604
G01 X1.6241 Y56.4834
G01 X1.6346 Y56.5055
G01 X1.6471 Y56.5265
G01 X1.6617 Y56.5461
G01 X1.6781 Y56.5643
G01 X1.6963 Y56.5807
G01 X1.7159 Y56.5953
G01 X1.7369 Y56.6078
G01 X1.7590 Y56.6183
G01 X1.7820 Y56.6265
G01 X1.8058 Y56.6325
G01 X1.8300 Y56.6361
G01 X1.8544 Y56.6373
G01 X1.8788 Y56.6361
G01 X1.9030 Y56.6325
G01 X1.9268 Y56.6265
G01 X1.9498 Y56.6183
G01 X1.9719 Y56.6078
G01 X1.9929 Y56.5953
G01 X2.0125 Y56.5807
G01 X2.0307 Y56.5643
G01 X2.0471 Y56.5461
G01 X2.0617 Y56.5265
G01 X2.0742 Y56.5055
G01 X2.0847 Y56.4834
G01 X2.0929 Y56.4604
G01 X2.0989 Y56.4366
G01 X2.1025 Y56.4124
G01 X2.1037 Y56.3880
G01 X2.1025 Y56.3636
G01 X2.0989 Y56.3394
G01 X2.0929 Y56.3156
G01 X2.0847 Y56.2926
G01 X2.0742 Y56.2705
G01 X2.0617 Y56.2495
G01 X2.0471 Y56.2299
G01 X2.0307 Y56.2117
G01 X2.0125 Y56.1953
G01 X1.9929 Y56.1807
G01 X1.9719 Y56.1682
G01 X1.9498 Y56.1577
G01 X1.9268 Y56.1495
G01 X1.9030 Y56.1435
G01 X1.8788 Y56.1399
G01 X1.8544 Y56.1387
G01 X1.8300 Y56.1399
G01 X1.8062 Y56.1435
G01 X1.7818 Y56.1495
G01 X1.7590 Y56.1577
G01 X1.7369 Y56.1682
G01 X1.7159 Y56.1807
G01 X1.6963 Y56.1953
G01 X1.6781 Y56.2117
G01 X1.6617 Y56.2299
G01 X1.6471 Y56.2495
G01 X1.6346 Y56.2705
G01 X1.6241 Y56.2926
G01 X1.6159 Y56.3156
G01 X1.6099 Y56.3394
G01 X1.6063 Y56.3636
G01 X1.6051 Y56.3880
G00 Z1.0000
G00 X1.6051 Y58.9280
G01 F400.00
G01 Z0.0000
G01 F1000.00
G01 X1.6063 Y58.9524
G01 X1.6099 Y58.9766
G01 X1.6159 Y59.0004
G01 X1.6241 Y59.0234
G01 X1.6346 Y59.0455
G01 X1.6471 Y59.0665
G01 X1.6617 Y59.0861
G01 X1.6781 Y59.1043
G01 X1.6963 Y59.1207
G01 X1.7159 Y59.1353
G01 X1.7369 Y59.1478
G01 X1.7590 Y59.1583
G01 X1.7820 Y59.1665
G01 X1.8058 Y59.1725
G01 X1.8300 Y59.1761
G01 X1.8544 Y59.1773
G01 X1.8788 Y59.1761
G01 X1.9030 Y59.1725
G01 X1.9268 Y59.1665
G01 X1.9498 Y59.1583
G01 X1.9719 Y59.1478
G01 X1.9929 Y59.1353
G01 X2.0125 Y59.1207
G01 X2.0307 Y59.1043
G01 X2.0471 Y59.0861
G01 X2.0617 Y59.0665
G01 X2.0742 Y59.0455
G01 X2.0847 Y59.0234
G01 X2.0929 Y59.0004
G01 X2.0989 Y58.9766
G01 X2.1025 Y58.9524
G01 X2.1037 Y58.9280
G01 X2.1025 Y58.9036
G01 X2.0989 Y58.8794
G01 X2.0929 Y58.8556
G01 X2.0847 Y58.8326
G01 X2.0742 Y58.8105
G01 X2.0617 Y58.7895
G01 X2.0471 Y58.7699
G01 X2.0307 Y58.7517
G01 X2.0125 Y58.7353
G01 X1.9929 Y58.7207
G01 X1.9719 Y58.7082
G01 X1.9498 Y58.6977
G01 X1.9268 Y58.6895
G01 X1.9030 Y58.6835
G01 X1.8788 Y58.6799
G01 X1.8544 Y58.6787
G01 X1.8300 Y58.6799
G01 X1.8066 Y58.6834
G01 X1.7816 Y58.6896
G01 X1.7590 Y58.6977
G01 X1.7369 Y58.7082
G01 X1.7159 Y58.7207
G01 X1.6963 Y58.7353
G01 X1.6781 Y58.7517
G01 X1.6617 Y58.7699
G01 X1.6471 Y58.7895
G01 X1.6346 Y58.8105
G01 X1.6241 Y58.8326
G01 X1.6159 Y58.8556
G01 X1.6099 Y58.8794
G01 X1.6063 Y58.9036
G01 X1.6051 Y58.9280
G00 Z1.0000
G00 X1.6051 Y58.9280
G01 F400.00
G01 Z0.0000
G01 F1000.00
G01 X1.2046 Y58.9280
G00 Z1.0000
G00 X1.2046 Y58.9280
G01 F400.00
G01 Z0.0000
G01 F1000.00
G01 X1.2078 Y58.9917
G01 X1.2171 Y59.0548
G01 X1.2326 Y59.1166
G01 X1.2541 Y59.1767
G01 X1.2814 Y59.2343
G01 X1.3141 Y59.2890
G01 X1.3521 Y59.3402
G01 X1.3950 Y59.3874
G01 X1.4422 Y59.4303
G01 X1.4934 Y59.4683
G01 X1.5481 Y59.5010
G01 X1.6057 Y59.5283
G01 X1.6658 Y59.5498
G01 X1.7276 Y59.5653
G01 X1.7907 Y59.5746
G01 X1.8544 Y59.5778
G01 X1.9181 Y59.5746
G01 X1.9812 Y59.5653
G01 X2.0430 Y59.5498
G01 X2.1031 Y59.5283
G01 X2.1607 Y59.5010
G01 X2.2154 Y59.4683
G01 X2.2666 Y59.4303
G01 X2.3138 Y59.3874
G01 X2.3567 Y59.3402
G01 X2.3947 Y59.2890
G01 X2.4274 Y59.2343
G01 X2.4547 Y59.1767
G01 X2.4762 Y59.1166
G01 X2.4917 Y59.0548
G01 X2.5010 Y58.9917
G01 X2.5042 Y58.9280
G01 X2.5010 Y58.8643
G01 X2.4917 Y58.8012
G01 X2.4762 Y58.7394
G01 X2.4547 Y58.6793
G01 X2.4274 Y58.6217
G01 X2.3947 Y58.5670
G01 X2.3567 Y58.5158
G01 X2.3138 Y58.4686
G01 X2.2666 Y58.4257
G01 X2.2154 Y58.3877
G01 X2.1607 Y58.3550
G01 X2.1031 Y58.3277
G01 X2.0430 Y58.3062
G01 X1.9812 Y58.2907
G01 X1.9181 Y58.2814
G01 X1.8544 Y58.2782
G01 X1.7907 Y58.2814
G01 X1.7288 Y58.2906
G01 X1.6656 Y58.3063
G01 X1.6057 Y58.3277
G01 X1.5481 Y58.3550
G01 X1.4934 Y58.3877
G01 X1.4422 Y58.4257
G01 X1.3950 Y58.4686
G01 X1.3521 Y58.5158
G01 X1.3141 Y58.5670
G01 X1.2814 Y58.6217
G01 X1.2541 Y58.6793
G01 X1.2326 Y58.7394
G01 X1.2171 Y58.8012
G01 X1.2078 Y58.8643
G01 X1.2046 Y58.9280
G00 Z1.0000
G00 X1.2046 Y61.4680
G01 F400.00
G01 Z0.0000
G01 F1000.00
G01 X1.2078 Y61.5317
G01 X1.2171 Y61.5948
G01 X1.2326 Y61.6566
G01 X1.2541 Y61.7167
G01 X1.2814 Y61.7743
G01 X1.3141 Y61.8290
G01 X1.3521 Y61.8802
G01 X1.3950 Y61.9274
G01 X1.4422 Y61.9703
G01 X1.4934 Y62.0083
G01 X1.5481 Y62.0410
G01 X1.6057 Y62.0683
G01 X1.6658 Y62.0898
G01 X1.7276 Y62.1053
G01 X1.7907 Y62.1146
G01 X1.8544 Y62.1178
G01 X1.9181 Y62.1146
G01 X1.9812 Y62.1053
G01 X2.0430 Y62.0898
G01 X2.1031 Y62.0683
G01 X2.1607 Y62.0410
G01 X2.2154 Y62.0083
G01 X2.2666 Y61.9703
G01 X2.3138 Y61.9274
G01 X2.3567 Y61.8802
G01 X2.3947 Y61.8290
G01 X2.4274 Y61.7743
G01 X2.4547 Y61.7167
G01 X2.4762 Y61.6566
G01 X2.4917 Y61.5948
G01 X2.5010 Y61.5317
G01 X2.5042 Y61.4680
G01 X2.5010 Y61.4043
G01 X2.4917 Y61.3412
G01 X2.4762 Y61.2794
G01 X2.4547 Y61.2193
G01 X2.4274 Y61.1617
G01 X2.3947 Y61.1070
G01 X2.3567 Y61.0558
G01 X2.3138 Y61.0086
G01 X2.2666 Y60.9657
G01 X2.2154 Y60.9277
G01 X2.1607 Y60.8950
G01 X2.1031 Y60.8677
G01 X2.0430 Y60.8462
G01 X1.9812 Y60.8307
G01 X1.9181 Y60.8214
G01 X1.8544 Y60.8182
G01 X1.7907 Y60.8214
G01 X1.7282 Y60.8306
G01 X1.6657 Y60.8462
G01 X1.6057 Y60.8677
G01 X1.5481 Y60.8950
G01 X1.4934 Y60.9277
G01 X1.4422 Y60.9657
G01 X1.3950 Y61.0086
G01 X1.3521 Y61.0558
G01 X1.3141 Y61.1070
G01 X1.2814 Y61.1617
G01 X1.2541 Y61.2193
G01 X1.2326 Y61.2794
G01 X1.2171 Y61.3412
G01 X1.2078 Y61.4043
G01 X1.2046 Y61.4680
G00 Z1.0000
G00 X1.2046 Y61.4680
G01 F400.00
G01 Z0.0000
G01 F1000.00
G01 X1.6051 Y61.4680
G00 Z1.0000
G00 X1.6051 Y61.4680
G01 F400.00
G01 Z0.0000
G01 F1000.00
G01 X1.6063 Y61.4924
G01 X1.6099 Y61.5166
G01 X1.6159 Y61.5404
G01 X1.6241 Y61.5634
G01 X1.6346 Y61.5855
G01 X1.6471 Y61.6065
G01 X1.6617 Y61.6261
G01 X1.6781 Y61.6443
G01 X1.6963 Y61.6607
G01 X1.7159 Y61.6753
G01 X1.7369 Y61.6878
G01 X1.7590 Y61.6983
G01 X1.7820 Y61.7065
G01 X1.8058 Y61.7125
G01 X1.8300 Y61.7161
G01 X1.8544 Y61.7173
G01 X1.8788 Y61.7161
G01 X1.9030 Y61.7125
G01 X1.9268 Y61.7065
G01 X1.9498 Y61.6983
G01 X1.9719 Y61.6878
G01 X1.9929 Y61.6753
G01 X2.0125 Y61.6607
G01 X2.0307 Y61.6443
G01 X2.0471 Y61.6261
G01 X2.0617 Y61.6065
G01 X2.0742 Y61.5855
G01 X2.0847 Y61.5634
G01 X2.0929 Y61.5404
G01 X2.0989 Y61.5166
G01 X2.1025 Y61.4924
G01 X2.1037 Y61.4680
G01 X2.1025 Y61.4436
G01 X2.0989 Y61.4194
G01 X2.0929 Y61.3956
G01 X2.0847 Y61.3726
G01 X2.0742 Y61.3505
G01 X2.0617 Y61.3295
G01 X2.0471 Y61.3099
G01 X2.0307 Y61.2917
G01 X2.0125 Y61.2753
G01 X1.9929 Y61.2607
G01 X1.9719 Y61.2482
G01 X1.9498 Y61.2377
G01 X1.9268 Y61.2295
G01 X1.9030 Y61.2235
G01 X1.8788 Y61.2199
G01 X1.8544 Y61.2187
G01 X1.8300 Y61.2199
G01 X1.8062 Y61.2235
G01 X1.7818 Y61.2295
G01 X1.7590 Y61.2377
G01 X1.7369 Y61.2482
G01 X1.7159 Y61.2607
G01 X1.6963 Y61.2753
G01 X1.6781 Y61.2917
G01 X1.6617 Y61.3099
G01 X1.6471 Y61.3295
G01 X1.6346 Y61.3505
G01 X1.6241 Y61.3726
G01 X1.6159 Y61.3956
G01 X1.6099 Y61.4194
G01 X1.6063 Y61.4436
G01 X1.6051 Y61.4680
G00 Z1.0000
G00 X1.6051 Y64.0080
G01 F400.00
G01 Z0.0000
G01 F1000.00
G01 X1.2046 Y64.0080
G00 Z1.0000
G00 X1.6051 Y64.0080
G01 F400.00
G01 Z0.0000
G01 F1000.00
G01 X1.6063 Y64.0324
G01 X1.6099 Y64.0566
G01 X1.6159 Y64.0804
G01 X1.6241 Y64.1034
G01 X1.6346 Y64.1255
G01 X1.6471 Y64.1465
G01 X1.6617 Y64.1661
G01 X1.6781 Y64.1843
G01 X1.6963 Y64.2007
G01 X1.7159 Y64.2153
G01 X1.7369 Y64.2278
G01 X1.7590 Y64.2383
G01 X1.7820 Y64.2465
G01 X1.8058 Y64.2525
G01 X1.8300 Y64.2561
G01 X1.8544 Y64.2573
G01 X1.8788 Y64.2561
G01 X1.9030 Y64.2525
G01 X1.9268 Y64.2465
G01 X1.9498 Y64.2383
G01 X1.9719 Y64.2278
G01 X1.9929 Y64.2153
G01 X2.0125 Y64.2007
G01 X2.0307 Y64.1843
G01 X2.0471 Y64.1661
G01 X2.0617 Y64.1465
G01 X2.0742 Y64.1255
G01 X2.0847 Y64.1034
G01 X2.0929 Y64.0804
G01 X2.0989 Y64.0566
G01 X2.1025 Y64.0324
G01 X2.1037 Y64.0080
G01 X2.1025 Y63.9836
G01 X2.0989 Y63.9594
G01 X2.0929 Y63.9356
G01 X2.0847 Y63.9126
G01 X2.0742 Y63.8905
G01 X2.0617 Y63.8695
G01 X2.0471 Y63.8499
G01 X2.0307 Y63.8317
G01 X2.0125 Y63.8153
G01 X1.9929 Y63.8007
G01 X1.9719 Y63.7882
G01 X1.9498 Y63.7777
G01 X1.9268 Y63.7695
G01 X1.9030 Y63.7635
G01 X1.8788 Y63.7599
G01 X1.8544 Y63.7587
G01 X1.8300 Y63.7599
G01 X1.8062 Y63.7635
G01 X1.7818 Y63.7695
G01 X1.7590 Y63.7777
G01 X1.7369 Y63.7882
G01 X1.7159 Y63.8007
G01 X1.6963 Y63.8153
G01 X1.6781 Y63.8317
G01 X1.6617 Y63.8499
G01 X1.6471 Y63.8695
G01 X1.6346 Y63.8905
G01 X1.6241 Y63.9126
G01 X1.6159 Y63.9356
G01 X1.6099 Y63.9594
G01 X1.6063 Y63.9836
G01 X1.6051 Y64.0080
G00 Z1.0000
G00 X1.2046 Y64.0080
G01 F400.00
G01 Z0.0000
G01 F1000.00
G01 X1.2078 Y64.0717
G01 X1.2171 Y64.1348
G01 X1.2326 Y64.1966
G01 X1.2541 Y64.2567
G01 X1.2814 Y64.3143
G01 X1.3141 Y64.3690
G01 X1.3521 Y64.4202
G01 X1.3950 Y64.4674
G01 X1.4422 Y64.5103
G01 X1.4934 Y64.5483
G01 X1.5481 Y64.5810
G01 X1.6057 Y64.6083
G01 X1.6658 Y64.6298
G01 X1.7276 Y64.6453
G01 X1.7907 Y64.6546
G01 X1.8544 Y64.6578
G01 X1.9181 Y64.6546
G01 X1.9812 Y64.6453
G01 X2.0430 Y64.6298
G01 X2.1031 Y64.6083
G01 X2.1607 Y64.5810
G01 X2.2154 Y64.5483
G01 X2.2666 Y64.5103
G01 X2.3138 Y64.4674
G01 X2.3567 Y64.4202
G01 X2.3947 Y64.3690
G01 X2.4274 Y64.3143
G01 X2.4547 Y64.2567
G01 X2.4762 Y64.1966
G01 X2.4917 Y64.1348
G01 X2.5010 Y64.0717
G01 X2.5042 Y64.0080
G01 X2.5010 Y63.9443
G01 X2.4917 Y63.8812
G01 X2.4762 Y63.8194
G01 X2.4547 Y63.7593
G01 X2.4274 Y63.7017
G01 X2.3947 Y63.6470
G01 X2.3567 Y63.5958
G01 X2.3138 Y63.5486
G01 X2.2666 Y63.5057
G01 X2.2154 Y63.4677
G01 X2.1607 Y63.4350
G01 X2.1031 Y63.4077
G01 X2.0430 Y63.3862
G01 X1.9812 Y63.3707
G01 X1.9181 Y63.3614
G01 X1.8544 Y63.3582
G01 X1.7907 Y63.3614
G01 X1.7282 Y63.3706
G01 X1.6657 Y63.3862
G01 X1.6057 Y63.4077
G01 X1.5481 Y63.4350
G01 X1.4934 Y63.4677
G01 X1.4422 Y63.5057
G01 X1.3950 Y63.5486
G01 X1.3521 Y63.5958
G01 X1.3141 Y63.6470
G01 X1.2814 Y63.7017
G01 X1.2541 Y63.7593
G01 X1.2326 Y63.8194
G01 X1.2171 Y63.8812
G01 X1.2078 Y63.9443
G01 X1.2046 Y64.0080
G00 Z1.0000
G00 X1.2046 Y66.5480
G01 F400.00
G01 Z0.0000
G01 F1000.00
G01 X1.2078 Y66.6117
G01 X1.2171 Y66.6748
G01 X1.2326 Y66.7366
G01 X1.2541 Y66.7967
G01 X1.2814 Y66.8543
G01 X1.3141 Y66.9090
G01 X1.3521 Y66.9602
G01 X1.3950 Y67.0074
G01 X1.4422 Y67.0503
G01 X1.4934 Y67.0883
G01 X1.5481 Y67.1210
G01 X1.6057 Y67.1483
G01 X1.6658 Y67.1698
G01 X1.7276 Y67.1853
G01 X1.7907 Y67.1946
G01 X1.8544 Y67.1978
G01 X1.9181 Y67.1946
G01 X1.9812 Y67.1853
G01 X2.0430 Y67.1698
G01 X2.1031 Y67.1483
G01 X2.1607 Y67.1210
G01 X2.2154 Y67.0883
G01 X2.2666 Y67.0503
G01 X2.3138 Y67.0074
G01 X2.3567 Y66.9602
G01 X2.3947 Y66.9090
G01 X2.4274 Y66.8543
G01 X2.4547 Y66.7967
G01 X2.4762 Y66.7366
G01 X2.4917 Y66.6748
G01 X2.5010 Y66.6117
G01 X2.5042 Y66.5480
G01 X2.5010 Y66.4843
G01 X2.4917 Y66.4212
G01 X2.4762 Y66.3594
G01 X2.4547 Y66.2993
G01 X2.4274 Y66.2417
G01 X2.3947 Y66.1870
G01 X2.3567 Y66.1358
G01 X2.3138 Y66.0886
G01 X2.2666 Y66.0457
G01 X2.2154 Y66.0077
G01 X2.1607 Y65.9750
G01 X2.1031 Y65.9477
G01 X2.0430 Y65.9262
G01 X1.9812 Y65.9107
G01 X1.9181 Y65.9014
G01 X1.8544 Y65.8982
G01 X1.7907 Y65.9014
G01 X1.7288 Y65.9106
G01 X1.6656 Y65.9263
G01 X1.6057 Y65.9477
G01 X1.5481 Y65.9750
G01 X1.4934 Y66.0077
G01 X1.4422 Y66.0457
G01 X1.3950 Y66.0886
G01 X1.3521 Y66.1358
G01 X1.3141 Y66.1870
G01 X1.2814 Y66.2417
G01 X1.2541 Y66.2993
G01 X1.2326 Y66.3594
G01 X1.2171 Y66.4212
G01 X1.2078 Y66.4843
G01 X1.2046 Y66.5480
G00 Z1.0000
G00 X1.2046 Y66.5480
G01 F400.00
G01 Z0.0000
G01 F1000.00
G01 X1.6051 Y66.5480
G00 Z1.0000
G00 X1.6051 Y66.5480
G01 F400.00
G01 Z0.0000
G01 F1000.00
G01 X1.6063 Y66.5724
G01 X1.6099 Y66.5966
G01 X1.6159 Y66.6204
G01 X1.6241 Y66.6434
G01 X1.6346 Y66.6655
G01 X1.6471 Y66.6865
G01 X1.6617 Y66.7061
G01 X1.6781 Y66.7243
G01 X1.6963 Y66.7407
G01 X1.7159 Y66.7553
G01 X1.7369 Y66.7678
G01 X1.7590 Y66.7783
G01 X1.7820 Y66.7865
G01 X1.8058 Y66.7925
G01 X1.8300 Y66.7961
G01 X1.8544 Y66.7973
G01 X1.8788 Y66.7961
G01 X1.9030 Y66.7925
G01 X1.9268 Y66.7865
G01 X1.9498 Y66.7783
G01 X1.9719 Y66.7678
G01 X1.9929 Y66.7553
G01 X2.0125 Y66.7407
G01 X2.0307 Y66.7243
G01 X2.0471 Y66.7061
G01 X2.0617 Y66.6865
G01 X2.0742 Y66.6655
G01 X2.0847 Y66.6434
G01 X2.0929 Y66.6204
G01 X2.0989 Y66.5966
G01 X2.1025 Y66.5724
G01 X2.1037 Y66.5480
G01 X2.1025 Y66.5236
G01 X2.0989 Y66.4994
G01 X2.0929 Y66.4756
G01 X2.0847 Y66.4526
G01 X2.0742 Y66.4305
G01 X2.0617 Y66.4095
G01 X2.0471 Y66.3899
G01 X2.0307 Y66.3717
G01 X2.0125 Y66.3553
G01 X1.9929 Y66.3407
G01 X1.9719 Y66.3282
G01 X1.9498 Y66.3177
G01 X1.9268 Y66.3095
G01 X1.9030 Y66.3035
G01 X1.8788 Y66.2999
G01 X1.8544 Y66.2987
G01 X1.8300 Y66.2999
G01 X1.8066 Y66.3034
G01 X1.7816 Y66.3096
G01 X1.7590 Y66.3177
G01 X1.7369 Y66.3282
G01 X1.7159 Y66.3407
G01 X1.6963 Y66.3553
G01 X1.6781 Y66.3717
G01 X1.6617 Y66.3899
G01 X1.6471 Y66.4095
G01 X1.6346 Y66.4305
G01 X1.6241 Y66.4526
G01 X1.6159 Y66.4756
G01 X1.6099 Y66.4994
G01 X1.6063 Y66.5236
G01 X1.6051 Y66.5480
G00 Z1.0000
G00 X1.6051 Y69.0880
G01 F400.00
G01 Z0.0000
G01 F1000.00
G01 X1.2046 Y69.0880
G00 Z1.0000
G00 X1.6051 Y69.0880
G01 F400.00
G01 Z0.0000
G01 F1000.00
G01 X1.6063 Y69.1124
G01 X1.6099 Y69.1366
G01 X1.6159 Y69.1604
G01 X1.6241 Y69.1834
G01 X1.6346 Y69.2055
G01 X1.6471 Y69.2265
G01 X1.6617 Y69.2461
G01 X1.6781 Y69.2643
G01 X1.6963 Y69.2807
G01 X1.7159 Y69.2953
G01 X1.7369 Y69.3078
G01 X1.7590 Y69.3183
G01 X1.7820 Y69.3265
G01 X1.8058 Y69.3325
G01 X1.8300 Y69.3361
G01 X1.8544 Y69.3373
G01 X1.8788 Y69.3361
G01 X1.9030 Y69.3325
G01 X1.9268 Y69.3265
G01 X1.9498 Y69.3183
G01 X1.9719 Y69.3078
G01 X1.9929 Y69.2953
G01 X2.0125 Y69.2807
G01 X2.0307 Y69.2643
G01 X2.0471 Y69.2461
G01 X2.0617 Y69.2265
G01 X2.0742 Y69.2055
G01 X2.0847 Y69.1834
G01 X2.0929 Y69.1604
G01 X2.0989 Y69.1366
G01 X2.1025 Y69.1124
G01 X2.1037 Y69.0880
G01 X2.1025 Y69.0636
G01 X2.0989 Y69.0394
G01 X2.0929 Y69.0156
G01 X2.0847 Y68.9926
G01 X2.0742 Y68.9705
G01 X2.0617 Y68.9495
G01 X2.0471 Y68.9299
G01 X2.0307 Y68.9117
G01 X2.0125 Y68.8953
G01 X1.9929 Y68.8807
G01 X1.9719 Y68.8682
G01 X1.9498 Y68.8577
G01 X1.9268 Y68.8495
G01 X1.9030 Y68.8435
G01 X1.8788 Y68.8399
G01 X1.8544 Y68.8387
G01 X1.8300 Y68.8399
G01 X1.8062 Y68.8435
G01 X1.7818 Y68.8495
G01 X1.7590 Y68.8577
G01 X1.7369 Y68.8682
G01 X1.7159 Y68.8807
G01 X1.6963 Y68.8953
G01 X1.6781 Y68.9117
G01 X1.6617 Y68.9299
G01 X1.6471 Y68.9495
G01 X1.6346 Y68.9705
G01 X1.6241 Y68.9926
G01 X1.6159 Y69.0156
G01 X1.6099 Y69.0394
G01 X1.6063 Y69.0636
G01 X1.6051 Y69.0880
G00 Z1.0000
G00 X1.2046 Y69.0880
G01 F400.00
G01 Z0.0000
G01 F1000.00
G01 X1.2078 Y69.1517
G01 X1.2171 Y69.2148
G01 X1.2326 Y69.2766
G01 X1.2541 Y69.3367
G01 X1.2814 Y69.3943
G01 X1.3141 Y69.4490
G01 X1.3521 Y69.5002
G01 X1.3950 Y69.5474
G01 X1.4422 Y69.5903
G01 X1.4934 Y69.6283
G01 X1.5481 Y69.6610
G01 X1.6057 Y69.6883
G01 X1.6658 Y69.7098
G01 X1.7276 Y69.7253
G01 X1.7907 Y69.7346
G01 X1.8544 Y69.7378
G01 X1.9181 Y69.7346
G01 X1.9812 Y69.7253
G01 X2.0430 Y69.7098
G01 X2.1031 Y69.6883
G01 X2.1607 Y69.6610
G01 X2.2154 Y69.6283
G01 X2.2666 Y69.5903
G01 X2.3138 Y69.5474
G01 X2.3567 Y69.5002
G01 X2.3947 Y69.4490
G01 X2.4274 Y69.3943
G01 X2.4547 Y69.3367
G01 X2.4762 Y69.2766
G01 X2.4917 Y69.2148
G01 X2.5010 Y69.1517
G01 X2.5042 Y69.0880
G01 X2.5010 Y69.0243
G01 X2.4917 Y68.9612
G01 X2.4762 Y68.8994
G01 X2.4547 Y68.8393
G01 X2.4274 Y68.7817
G01 X2.3947 Y68.7270
G01 X2.3567 Y68.6758
G01 X2.3138 Y68.6286
G01 X2.2666 Y68.5857
G01 X2.2154 Y68.5477
G01 X2.1607 Y68.5150
G01 X2.1031 Y68.4877
G01 X2.0430 Y68.4662
G01 X1.9812 Y68.4507
G01 X1.9181 Y68.4414
G01 X1.8544 Y68.4382
G01 X1.7907 Y68.4414
G01 X1.7282 Y68.4506
G01 X1.6657 Y68.4662
G01 X1.6057 Y68.4877
G01 X1.5481 Y68.5150
G01 X1.4934 Y68.5477
G01 X1.4422 Y68.5857
G01 X1.3950 Y68.6286
G01 X1.3521 Y68.6758
G01 X1.3141 Y68.7270
G01 X1.2814 Y68.7817
G01 X1.2541 Y68.8393
G01 X1.2326 Y68.8994
G01 X1.2171 Y68.9612
G01 X1.2078 Y69.0243
G01 X1.2046 Y69.0880
G00 Z1.0000
G00 X1.2046 Y71.6280
G01 F400.00
G01 Z0.0000
G01 F1000.00
G01 X1.2078 Y71.6917
G01 X1.2171 Y71.7548
G01 X1.2326 Y71.8166
G01 X1.2541 Y71.8767
G01 X1.2814 Y71.9343
G01 X1.3141 Y71.9890
G01 X1.3521 Y72.0402
G01 X1.3950 Y72.0874
G01 X1.4422 Y72.1303
G01 X1.4934 Y72.1683
G01 X1.5481 Y72.2010
G01 X1.6057 Y72.2283
G01 X1.6658 Y72.2498
G01 X1.7276 Y72.2653
G01 X1.7907 Y72.2746
G01 X1.8544 Y72.2778
G01 X1.9181 Y72.2746
G01 X1.9812 Y72.2653
G01 X2.0430 Y72.2498
G01 X2.1031 Y72.2283
G01 X2.1607 Y72.2010
G01 X2.2154 Y72.1683
G01 X2.2666 Y72.1303
G01 X2.3138 Y72.0874
G01 X2.3567 Y72.0402
G01 X2.3947 Y71.9890
G01 X2.4274 Y71.9343
G01 X2.4547 Y71.8767
G01 X2.4762 Y71.8166
G01 X2.4917 Y71.7548
G01 X2.5010 Y71.6917
G01 X2.5042 Y71.6280
G01 X2.5010 Y71.5643
G01 X2.4917 Y71.5012
G01 X2.4762 Y71.4394
G01 X2.4547 Y71.3793
G01 X2.4274 Y71.3217
G01 X2.3947 Y71.2670
G01 X2.3567 Y71.2158
G01 X2.3138 Y71.1686
G01 X2.2666 Y71.1257
G01 X2.2154 Y71.0877
G01 X2.1607 Y71.0550
G01 X2.1031 Y71.0277
G01 X2.0430 Y71.0062
G01 X1.9812 Y70.9907
G01 X1.9181 Y70.9814
G01 X1.8544 Y70.9782
G01 X1.7907 Y70.9814
G01 X1.7282 Y70.9906
G01 X1.6657 Y71.0062
G01 X1.6057 Y71.0277
G01 X1.5481 Y71.0550
G01 X1.4934 Y71.0877
G01 X1.4422 Y71.1257
G01 X1.3950 Y71.1686
G01 X1.3521 Y71.2158
G01 X1.3141 Y71.2670
G01 X1.2814 Y71.3217
G01 X1.2541 Y71.3793
G01 X1.2326 Y71.4394
G01 X1.2171 Y71.5012
G01 X1.2078 Y71.5643
G01 X1.2046 Y71.6280
G00 Z1.0000
G00 X1.2046 Y71.6280
G01 F400.00
G01 Z0.0000
G01 F1000.00
G01 X1.6051 Y71.6280
G00 Z1.0000
G00 X1.6051 Y71.6280
G01 F400.00
G01 Z0.0000
G01 F1000.00
G01 X1.6063 Y71.6524
G01 X1.6099 Y71.6766
G01 X1.6159 Y71.7004
G01 X1.6241 Y71.7234
G01 X1.6346 Y71.7455
G01 X1.6471 Y71.7665
G01 X1.6617 Y71.7861
G01 X1.6781 Y71.8043
G01 X1.6963 Y71.8207
G01 X1.7159 Y71.8353
G01 X1.7369 Y71.8478
G01 X1.7590 Y71.8583
G01 X1.7820 Y71.8665
G01 X1.8058 Y71.8725
G01 X1.8300 Y71.8761
G01 X1.8544 Y71.8773
G01 X1.8788 Y71.8761
G01 X1.9030 Y71.8725
G01 X1.9268 Y71.8665
G01 X1.9498 Y71.8583
G01 X1.9719 Y71.8478
G01 X1.9929 Y71.8353
G01 X2.0125 Y71.8207
G01 X2.0307 Y71.8043
G01 X2.0471 Y71.7861
G01 X2.0617 Y71.7665
G01 X2.0742 Y71.7455
G01 X2.0847 Y71.7234
G01 X2.0929 Y71.7004
G01 X2.0989 Y71.6766
G01 X2.1025 Y71.6524
G01 X2.1037 Y71.6280
G01 X2.1025 Y71.6036
G01 X2.0989 Y71.5794
G01 X2.0929 Y71.5556
G01 X2.0847 Y71.5326
G01 X2.0742 Y71.5105
G01 X2.0617 Y71.4895
G01 X2.0471 Y71.4699
G01 X2.0307 Y71.4517
G01 X2.0125 Y71.4353
G01 X1.9929 Y71.4207
G01 X1.9719 Y71.4082
G01 X1.9498 Y71.3977
G01 X1.9268 Y71.3895
G01 X1.9030 Y71.3835
G01 X1.8788 Y71.3799
G01 X1.8544 Y71.3787
G01 X1.8300 Y71.3799
G01 X1.8062 Y71.3835
G01 X1.7818 Y71.3895
G01 X1.7590 Y71.3977
G01 X1.7369 Y71.4082
G01 X1.7159 Y71.4207
G01 X1.6963 Y71.4353
G01 X1.6781 Y71.4517
G01 X1.6617 Y71.4699
G01 X1.6471 Y71.4895
G01 X1.6346 Y71.5105
G01 X1.6241 Y71.5326
G01 X1.6159 Y71.5556
G01 X1.6099 Y71.5794
G01 X1.6063 Y71.6036
G01 X1.6051 Y71.6280
G00 Z1.0000
G00 X6.7368 Y71.7804
G01 F400.00
G01 Z0.0000
G01 F1000.00
G01 X7.1373 Y71.7804
G00 Z1.0000
G00 X7.1373 Y71.7804
G01 F400.00
G01 Z0.0000
G01 F1000.00
G01 X7.1385 Y71.8048
G01 X7.1421 Y71.8290
G01 X7.1481 Y71.8528
G01 X7.1563 Y71.8758
G01 X7.1668 Y71.8979
G01 X7.1793 Y71.9189
G01 X7.1939 Y71.9385
G01 X7.2103 Y71.9567
G01 X7.2285 Y71.9731
G01 X7.2481 Y71.9877
G01 X7.2691 Y72.0002
G01 X7.2912 Y72.0107
G01 X7.3142 Y72.0189
G01 X7.3380 Y72.0249
G01 X7.3622 Y72.0285
G01 X7.3866 Y72.0297
G01 X7.4110 Y72.0285
G01 X7.4352 Y72.0249
G01 X7.4590 Y72.0189
G01 X7.4820 Y72.0107
G01 X7.5041 Y72.0002
G01 X7.5251 Y71.9877
G01 X7.5447 Y71.9731
G01 X7.5629 Y71.9567
G01 X7.5793 Y71.9385
G01 X7.5939 Y71.9189
G01 X7.6064 Y71.8979
G01 X7.6169 Y71.8758
G01 X7.6251 Y71.8528
G01 X7.6311 Y71.8290
G01 X7.6347 Y71.8048
G01 X7.6359 Y71.7804
G01 X7.6347 Y71.7560
G01 X7.6311 Y71.7318
G01 X7.6251 Y71.7080
G01 X7.6169 Y71.6850
G01 X7.6064 Y71.6629
G01 X7.5939 Y71.6419
G01 X7.5793 Y71.6223
G01 X7.5629 Y71.6041
G01 X7.5447 Y71.5877
G01 X7.5251 Y71.5731
G01 X7.5041 Y71.5606
G01 X7.4820 Y71.5501
G01 X7.4590 Y71.5419
G01 X7.4352 Y71.5359
G01 X7.4110 Y71.5323
G01 X7.3866 Y71.5311
G01 X7.3622 Y71.5323
G01 X7.3384 Y71.5359
G01 X7.3140 Y71.5419
G01 X7.2912 Y71.5501
G01 X7.2691 Y71.5606
G01 X7.2481 Y71.5731
G01 X7.2285 Y71.5877
G01 X7.2103 Y71.6041
G01 X7.1939 Y71.6223
G01 X7.1793 Y71.6419
G01 X7.1668 Y71.6629
G01 X7.1563 Y71.6850
G01 X7.1481 Y71.7080
G01 X7.1421 Y71.7318
G01 X7.1385 Y71.7560
G01 X7.1373 Y71.7804
G00 Z1.0000
G00 X6.7368 Y71.7804
G01 F400.00
G01 Z0.0000
G01 F1000.00
G01 X6.7400 Y71.8441
G01 X6.7493 Y71.9072
G01 X6.7648 Y71.9690
G01 X6.7863 Y72.0291
G01 X6.8136 Y72.0867
G01 X6.8463 Y72.1414
G01 X6.8843 Y72.1926
G01 X6.9272 Y72.2398
G01 X6.9744 Y72.2827
G01 X7.0256 Y72.3207
G01 X7.0803 Y72.3534
G01 X7.1379 Y72.3807
G01 X7.1980 Y72.4022
G01 X7.2598 Y72.4177
G01 X7.3229 Y72.4270
G01 X7.3866 Y72.4302
G01 X7.4503 Y72.4270
G01 X7.5134 Y72.4177
G01 X7.5752 Y72.4022
G01 X7.6353 Y72.3807
G01 X7.6929 Y72.3534
G01 X7.7476 Y72.3207
G01 X7.7988 Y72.2827
G01 X7.8460 Y72.2398
G01 X7.8889 Y72.1926
G01 X7.9269 Y72.1414
G01 X7.9596 Y72.0867
G01 X7.9869 Y72.0291
G01 X8.0084 Y71.9690
G01 X8.0239 Y71.9072
G01 X8.0332 Y71.8441
G01 X8.0364 Y71.7804
G01 X8.0332 Y71.7167
G01 X8.0239 Y71.6536
G01 X8.0084 Y71.5918
G01 X7.9869 Y71.5317
G01 X7.9596 Y71.4741
G01 X7.9269 Y71.4194
G01 X7.8889 Y71.3682
G01 X7.8460 Y71.3210
G01 X7.7988 Y71.2781
G01 X7.7476 Y71.2401
G01 X7.6929 Y71.2074
G01 X7.6353 Y71.1801
G01 X7.5752 Y71.1586
G01 X7.5134 Y71.1431
G01 X7.4503 Y71.1338
G01 X7.3866 Y71.1306
G01 X7.3229 Y71.1338
G01 X7.2604 Y71.1430
G01 X7.1979 Y71.1586
G01 X7.1379 Y71.1801
G01 X7.0803 Y71.2074
G01 X7.0256 Y71.2401
G01 X6.9744 Y71.2781
G01 X6.9272 Y71.3210
G01 X6.8843 Y71.3682
G01 X6.8463 Y71.4194
G01 X6.8136 Y71.4741
G01 X6.7863 Y71.5317
G01 X6.7648 Y71.5918
G01 X6.7493 Y71.6536
G01 X6.7400 Y71.7167
G01 X6.7368 Y71.7804
G00 Z1.0000
G00 X9.2766 Y72.4304
G01 F400.00
G01 Z0.0000
G01 F1000.00
G01 X10.5766 Y72.4304
G01 X10.5766 Y71.1304
G01 X9.2766 Y71.1304
G01 X9.2766 Y72.4304
G00 Z1.0000
G00 X9.2766 Y72.4304
G01 F400.00
G01 Z0.0000
G01 F1000.00
G01 X9.6766 Y72.0304
G00 Z1.0000
G00 X9.6766 Y72.0304
G01 F400.00
G01 Z0.0000
G01 F1000.00
G01 X10.1766 Y72.0304
G01 X10.1766 Y71.5304
G01 X9.6766 Y71.5304
G01 X9.6766 Y72.0304
G00 Z1.0000
G00 X14.7757 Y69.0930
G01 F400.00
G01 Z0.0000
G01 F1000.00
G01 X15.1762 Y69.0930
G00 Z1.0000
G00 X15.1762 Y69.0930
G01 F400.00
G01 Z0.0000
G01 F1000.00
G01 X15.1772 Y69.1125
G01 X15.1801 Y69.1319
G01 X15.1848 Y69.1508
G01 X15.1914 Y69.1693
G01 X15.1998 Y69.1869
G01 X15.2098 Y69.2037
G01 X15.2215 Y69.2194
G01 X15.2346 Y69.2339
G01 X15.2491 Y69.2470
G01 X15.2648 Y69.2587
G01 X15.2816 Y69.2687
G01 X15.2992 Y69.2771
G01 X15.3177 Y69.2837
G01 X15.3366 Y69.2884
G01 X15.3560 Y69.2913
G01 X15.3755 Y69.2923
G01 X15.3950 Y69.2913
G01 X15.4144 Y69.2884
G01 X15.4333 Y69.2837
G01 X15.4518 Y69.2771
G01 X15.4694 Y69.2687
G01 X15.4862 Y69.2587
G01 X15.5019 Y69.2470
G01 X15.5164 Y69.2339
G01 X15.5295 Y69.2194
G01 X15.5412 Y69.2037
G01 X15.5512 Y69.1869
G01 X15.5596 Y69.1693
G01 X15.5662 Y69.1508
G01 X15.5709 Y69.1319
G01 X15.5738 Y69.1125
G01 X15.5748 Y69.0930
G01 X15.5738 Y69.0735
G01 X15.5709 Y69.0541
G01 X15.5662 Y69.0352
G01 X15.5596 Y69.0167
G01 X15.5512 Y68.9991
G01 X15.5412 Y68.9823
G01 X15.5295 Y68.9666
G01 X15.5164 Y68.9521
G01 X15.5019 Y68.9390
G01 X15.4862 Y68.9273
G01 X15.4694 Y68.9173
G01 X15.4518 Y68.9089
G01 X15.4333 Y68.9023
G01 X15.4144 Y68.8976
G01 X15.3950 Y68.8947
G01 X15.3755 Y68.8937
G01 X15.3560 Y68.8947
G01 X15.3370 Y68.8975
G01 X15.3174 Y68.9024
G01 X15.2992 Y68.9089
G01 X15.2816 Y68.9173
G01 X15.2648 Y68.9273
G01 X15.2491 Y68.9390
G01 X15.2346 Y68.9521
G01 X15.2215 Y68.9666
G01 X15.2098 Y68.9823
G01 X15.1998 Y68.9991
G01 X15.1914 Y69.0167
G01 X15.1848 Y69.0352
G01 X15.1801 Y69.0541
G01 X15.1772 Y69.0735
G01 X15.1762 Y69.0930
G00 Z1.0000
G00 X14.7757 Y69.0930
G01 F400.00
G01 Z0.0000
G01 F1000.00
G01 X14.7786 Y69.1518
G01 X14.7873 Y69.2100
G01 X14.8016 Y69.2671
G01 X14.8214 Y69.3225
G01 X14.8466 Y69.3757
G01 X14.8768 Y69.4262
G01 X14.9119 Y69.4735
G01 X14.9514 Y69.5171
G01 X14.9950 Y69.5566
G01 X15.0423 Y69.5917
G01 X15.0928 Y69.6219
G01 X15.1460 Y69.6471
G01 X15.2014 Y69.6669
G01 X15.2585 Y69.6812
G01 X15.3167 Y69.6899
G01 X15.3755 Y69.6928
G01 X15.4343 Y69.6899
G01 X15.4925 Y69.6812
G01 X15.5496 Y69.6669
G01 X15.6050 Y69.6471
G01 X15.6582 Y69.6219
G01 X15.7087 Y69.5917
G01 X15.7560 Y69.5566
G01 X15.7996 Y69.5171
G01 X15.8391 Y69.4735
G01 X15.8742 Y69.4262
G01 X15.9044 Y69.3757
G01 X15.9296 Y69.3225
G01 X15.9494 Y69.2671
G01 X15.9637 Y69.2100
G01 X15.9724 Y69.1518
G01 X15.9753 Y69.0930
G01 X15.9724 Y69.0342
G01 X15.9637 Y68.9760
G01 X15.9494 Y68.9189
G01 X15.9296 Y68.8635
G01 X15.9044 Y68.8103
G01 X15.8742 Y68.7598
G01 X15.8391 Y68.7125
G01 X15.7996 Y68.6689
G01 X15.7560 Y68.6294
G01 X15.7087 Y68.5943
G01 X15.6582 Y68.5641
G01 X15.6050 Y68.5389
G01 X15.5496 Y68.5191
G01 X15.4925 Y68.5048
G01 X15.4343 Y68.4961
G01 X15.3755 Y68.4932
G01 X15.3167 Y68.4961
G01 X15.2590 Y68.5047
G01 X15.2013 Y68.5191
G01 X15.1460 Y68.5389
G01 X15.0928 Y68.5641
G01 X15.0423 Y68.5943
G01 X14.9950 Y68.6294
G01 X14.9514 Y68.6689
G01 X14.9119 Y68.7125
G01 X14.8768 Y68.7598
G01 X14.8466 Y68.8103
G01 X14.8214 Y68.8635
G01 X14.8016 Y68.9189
G01 X14.7873 Y68.9760
G01 X14.7786 Y69.0342
G01 X14.7757 Y69.0930
G00 Z1.0000
G00 X14.7757 Y66.5530
G01 F400.00
G01 Z0.0000
G01 F1000.00
G01 X14.7786 Y66.6118
G01 X14.7873 Y66.6700
G01 X14.8016 Y66.7271
G01 X14.8214 Y66.7825
G01 X14.8466 Y66.8357
G01 X14.8768 Y66.8862
G01 X14.9119 Y66.9335
G01 X14.9514 Y66.9771
G01 X14.9950 Y67.0166
G01 X15.0423 Y67.0517
G01 X15.0928 Y67.0819
G01 X15.1460 Y67.1071
G01 X15.2014 Y67.1269
G01 X15.2585 Y67.1412
G01 X15.3167 Y67.1499
G01 X15.3755 Y67.1528
G01 X15.4343 Y67.1499
G01 X15.4925 Y67.1412
G01 X15.5496 Y67.1269
G01 X15.6050 Y67.1071
G01 X15.6582 Y67.0819
G01 X15.7087 Y67.0517
G01 X15.7560 Y67.0166
G01 X15.7996 Y66.9771
G01 X15.8391 Y66.9335
G01 X15.8742 Y66.8862
G01 X15.9044 Y66.8357
G01 X15.9296 Y66.7825
G01 X15.9494 Y66.7271
G01 X15.9637 Y66.6700
G01 X15.9724 Y66.6118
G01 X15.9753 Y66.5530
G01 X15.9724 Y66.4942
G01 X15.9637 Y66.4360
G01 X15.9494 Y66.3789
G01 X15.9296 Y66.3235
G01 X15.9044 Y66.2703
G01 X15.8742 Y66.2198
G01 X15.8391 Y66.1725
G01 X15.7996 Y66.1289
G01 X15.7560 Y66.0894
G01 X15.7087 Y66.0543
G01 X15.6582 Y66.0241
G01 X15.6050 Y65.9989
G01 X15.5496 Y65.9791
G01 X15.4925 Y65.9648
G01 X15.4343 Y65.9561
G01 X15.3755 Y65.9532
G01 X15.3167 Y65.9561
G01 X15.2590 Y65.9647
G01 X15.2013 Y65.9791
G01 X15.1460 Y65.9989
G01 X15.0928 Y66.0241
G01 X15.0423 Y66.0543
G01 X14.9950 Y66.0894
G01 X14.9514 Y66.1289
G01 X14.9119 Y66.1725
G01 X14.8768 Y66.2198
G01 X14.8466 Y66.2703
G01 X14.8214 Y66.3235
G01 X14.8016 Y66.3789
G01 X14.7873 Y66.4360
G01 X14.7786 Y66.4942
G01 X14.7757 Y66.5530
G00 Z1.0000
G00 X14.7757 Y66.5530
G01 F400.00
G01 Z0.0000
G01 F1000.00
G01 X15.1762 Y66.5530
G00 Z1.0000
G00 X15.1762 Y66.5530
G01 F400.00
G01 Z0.0000
G01 F1000.00
G01 X15.1772 Y66.5725
G01 X15.1801 Y66.5919
G01 X15.1848 Y66.6108
G01 X15.1914 Y66.6293
G01 X15.1998 Y66.6469
G01 X15.2098 Y66.6637
G01 X15.2215 Y66.6794
G01 X15.2346 Y66.6939
G01 X15.2491 Y66.7070
G01 X15.2648 Y66.7187
G01 X15.2816 Y66.7287
G01 X15.2992 Y66.7371
G01 X15.3177 Y66.7437
G01 X15.3366 Y66.7484
G01 X15.3560 Y66.7513
G01 X15.3755 Y66.7523
G01 X15.3950 Y66.7513
G01 X15.4144 Y66.7484
G01 X15.4333 Y66.7437
G01 X15.4518 Y66.7371
G01 X15.4694 Y66.7287
G01 X15.4862 Y66.7187
G01 X15.5019 Y66.7070
G01 X15.5164 Y66.6939
G01 X15.5295 Y66.6794
G01 X15.5412 Y66.6637
G01 X15.5512 Y66.6469
G01 X15.5596 Y66.6293
G01 X15.5662 Y66.6108
G01 X15.5709 Y66.5919
G01 X15.5738 Y66.5725
G01 X15.5748 Y66.5530
G01 X15.5738 Y66.5335
G01 X15.5709 Y66.5141
G01 X15.5662 Y66.4952
G01 X15.5596 Y66.4767
G01 X15.5512 Y66.4591
G01 X15.5412 Y66.4423
G01 X15.5295 Y66.4266
G01 X15.5164 Y66.4121
G01 X15.5019 Y66.3990
G01 X15.4862 Y66.3873
G01 X15.4694 Y66.3773
G01 X15.4518 Y66.3689
G01 X15.4333 Y66.3623
G01 X15.4144 Y66.3576
G01 X15.3950 Y66.3547
G01 X15.3755 Y66.3537
G01 X15.3560 Y66.3547
G01 X15.3370 Y66.3575
G01 X15.3174 Y66.3624
G01 X15.2992 Y66.3689
G01 X15.2816 Y66.3773
G01 X15.2648 Y66.3873
G01 X15.2491 Y66.3990
G01 X15.2346 Y66.4121
G01 X15.2215 Y66.4266
G01 X15.2098 Y66.4423
G01 X15.1998 Y66.4591
G01 X15.1914 Y66.4767
G01 X15.1848 Y66.4952
G01 X15.1801 Y66.5141
G01 X15.1772 Y66.5335
G01 X15.1762 Y66.5530
G00 Z1.0000
G00 X22.3957 Y66.5530
G01 F400.00
G01 Z0.0000
G01 F1000.00
G01 X22.7962 Y66.5530
G00 Z1.0000
G00 X22.7962 Y66.5530
G01 F400.00
G01 Z0.0000
G01 F1000.00
G01 X22.7972 Y66.5725
G01 X22.8001 Y66.5919
G01 X22.8048 Y66.6108
G01 X22.8114 Y66.6293
G01 X22.8198 Y66.6469
G01 X22.8298 Y66.6637
G01 X22.8415 Y66.6794
G01 X22.8546 Y66.6939
G01 X22.8691 Y66.7070
G01 X22.8848 Y66.7187
G01 X22.9016 Y66.7287
G01 X22.9192 Y66.7371
G01 X22.9377 Y66.7437
G01 X22.9566 Y66.7484
G01 X22.9760 Y66.7513
G01 X22.9955 Y66.7523
G01 X23.0150 Y66.7513
G01 X23.0344 Y66.7484
G01 X23.0533 Y66.7437
G01 X23.0718 Y66.7371
G01 X23.0894 Y66.7287
G01 X23.1062 Y66.7187
G01 X23.1219 Y66.7070
G01 X23.1364 Y66.6939
G01 X23.1495 Y66.6794
G01 X23.1612 Y66.6637
G01 X23.1712 Y66.6469
G01 X23.1796 Y66.6293
G01 X23.1862 Y66.6108
G01 X23.1909 Y66.5919
G01 X23.1938 Y66.5725
G01 X23.1948 Y66.5530
G01 X23.1938 Y66.5335
G01 X23.1909 Y66.5141
G01 X23.1862 Y66.4952
G01 X23.1796 Y66.4767
G01 X23.1712 Y66.4591
G01 X23.1612 Y66.4423
G01 X23.1495 Y66.4266
G01 X23.1364 Y66.4121
G01 X23.1219 Y66.3990
G01 X23.1062 Y66.3873
G01 X23.0894 Y66.3773
G01 X23.0718 Y66.3689
G01 X23.0533 Y66.3623
G01 X23.0344 Y66.3576
G01 X23.0150 Y66.3547
G01 X22.9955 Y66.3537
G01 X22.9760 Y66.3547
G01 X22.9575 Y66.3574
G01 X22.9372 Y66.3625
G01 X22.9192 Y66.3689
G01 X22.9016 Y66.3773
G01 X22.8848 Y66.3873
G01 X22.8691 Y66.3990
G01 X22.8546 Y66.4121
G01 X22.8415 Y66.4266
G01 X22.8298 Y66.4423
G01 X22.8198 Y66.4591
G01 X22.8114 Y66.4767
G01 X22.8048 Y66.4952
G01 X22.8001 Y66.5141
G01 X22.7972 Y66.5335
G01 X22.7962 Y66.5530
G00 Z1.0000
G00 X22.3957 Y66.5530
G01 F400.00
G01 Z0.0000
G01 F1000.00
G01 X22.3986 Y66.6118
G01 X22.4073 Y66.6700
G01 X22.4216 Y66.7271
G01 X22.4414 Y66.7825
G01 X22.4666 Y66.8357
G01 X22.4968 Y66.8862
G01 X22.5319 Y66.9335
G01 X22.5714 Y66.9771
G01 X22.6150 Y67.0166
G01 X22.6623 Y67.0517
G01 X22.7128 Y67.0819
G01 X22.7660 Y67.1071
G01 X22.8214 Y67.1269
G01 X22.8785 Y67.1412
G01 X22.9367 Y67.1499
G01 X22.9955 Y67.1528
G01 X23.0543 Y67.1499
G01 X23.1125 Y67.1412
G01 X23.1696 Y67.1269
G01 X23.2250 Y67.1071
G01 X23.2782 Y67.0819
G01 X23.3287 Y67.0517
G01 X23.3760 Y67.0166
G01 X23.4196 Y66.9771
G01 X23.4591 Y66.9335
G01 X23.4942 Y66.8862
G01 X23.5244 Y66.8357
G01 X23.5496 Y66.7825
G01 X23.5694 Y66.7271
G01 X23.5837 Y66.6700
G01 X23.5924 Y66.6118
G01 X23.5953 Y66.5530
G01 X23.5924 Y66.4942
G01 X23.5837 Y66.4360
G01 X23.5694 Y66.3789
G01 X23.5496 Y66.3235
G01 X23.5244 Y66.2703
G01 X23.4942 Y66.2198
G01 X23.4591 Y66.1725
G01 X23.4196 Y66.1289
G01 X23.3760 Y66.0894
G01 X23.3287 Y66.0543
G01 X23.2782 Y66.0241
G01 X23.2250 Y65.9989
G01 X23.1696 Y65.9791
G01 X23.1125 Y65.9648
G01 X23.0543 Y65.9561
G01 X22.9955 Y65.9532
G01 X22.9367 Y65.9561
G01 X22.8797 Y65.9646
G01 X22.8212 Y65.9791
G01 X22.7660 Y65.9989
G01 X22.7128 Y66.0241
G01 X22.6623 Y66.0543
G01 X22.6150 Y66.0894
G01 X22.5714 Y66.1289
G01 X22.5319 Y66.1725
G01 X22.4968 Y66.2198
G01 X22.4666 Y66.2703
G01 X22.4414 Y66.3235
G01 X22.4216 Y66.3789
G01 X22.4073 Y66.4360
G01 X22.3986 Y66.4942
G01 X22.3957 Y66.5530
G00 Z1.0000
G00 X22.7955 Y69.2930
G01 F400.00
G01 Z0.0000
G01 F1000.00
G01 X22.3955 Y69.6930
G00 Z1.0000
G00 X22.3955 Y69.6930
G01 F400.00
G01 Z0.0000
G01 F1000.00
G01 X23.5955 Y69.6930
G01 X23.5955 Y68.4930
G01 X22.3956 Y68.4930
G01 X22.3955 Y69.6930
G00 Z1.0000
G00 X22.7955 Y69.2930
G01 F400.00
G01 Z0.0000
G01 F1000.00
G01 X23.1955 Y69.2930
G01 X23.1955 Y68.8930
G01 X22.7955 Y68.8930
G01 X22.7955 Y69.2930
G00 Z1.0000
G00 X36.3580 Y63.3880
G01 F400.00
G01 Z0.0000
G01 F1000.00
G01 X36.7580 Y62.9880
G00 Z1.0000
G00 X36.3580 Y63.3880
G01 F400.00
G01 Z0.0000
G01 F1000.00
G01 X37.6580 Y63.3880
G01 X37.6580 Y62.0880
G01 X36.3580 Y62.0880
G01 X36.3580 Y63.3880
G00 Z1.0000
G00 X36.7580 Y62.9880
G01 F400.00
G01 Z0.0000
G01 F1000.00
G01 X37.2580 Y62.9880
G01 X37.2580 Y62.4880
G01 X36.7580 Y62.4880
G01 X36.7580 Y62.9880
G00 Z1.0000
G00 X36.7587 Y60.1980
G01 F400.00
G01 Z0.0000
G01 F1000.00
G01 X36.3582 Y60.1980
G00 Z1.0000
G00 X36.7587 Y60.1980
G01 F400.00
G01 Z0.0000
G01 F1000.00
G01 X36.7599 Y60.2224
G01 X36.7635 Y60.2466
G01 X36.7695 Y60.2704
G01 X36.7777 Y60.2934
G01 X36.7882 Y60.3155
G01 X36.8007 Y60.3365
G01 X36.8153 Y60.3561
G01 X36.8317 Y60.3743
G01 X36.8499 Y60.3907
G01 X36.8695 Y60.4053
G01 X36.8905 Y60.4178
G01 X36.9126 Y60.4283
G01 X36.9356 Y60.4365
G01 X36.9594 Y60.4425
G01 X36.9836 Y60.4461
G01 X37.0080 Y60.4473
G01 X37.0324 Y60.4461
G01 X37.0566 Y60.4425
G01 X37.0804 Y60.4365
G01 X37.1034 Y60.4283
G01 X37.1255 Y60.4178
G01 X37.1465 Y60.4053
G01 X37.1661 Y60.3907
G01 X37.1843 Y60.3743
G01 X37.2007 Y60.3561
G01 X37.2153 Y60.3365
G01 X37.2278 Y60.3155
G01 X37.2383 Y60.2934
G01 X37.2465 Y60.2704
G01 X37.2525 Y60.2466
G01 X37.2561 Y60.2224
G01 X37.2573 Y60.1980
G01 X37.2561 Y60.1736
G01 X37.2525 Y60.1494
G01 X37.2465 Y60.1256
G01 X37.2383 Y60.1026
G01 X37.2278 Y60.0805
G01 X37.2153 Y60.0595
G01 X37.2007 Y60.0399
G01 X37.1843 Y60.0217
G01 X37.1661 Y60.0053
G01 X37.1465 Y59.9907
G01 X37.1255 Y59.9782
G01 X37.1034 Y59.9677
G01 X37.0804 Y59.9595
G01 X37.0566 Y59.9535
G01 X37.0324 Y59.9499
G01 X37.0080 Y59.9487
G01 X36.9836 Y59.9499
G01 X36.9598 Y59.9535
G01 X36.9354 Y59.9595
G01 X36.9126 Y59.9677
G01 X36.8905 Y59.9782
G01 X36.8695 Y59.9907
G01 X36.8499 Y60.0053
G01 X36.8317 Y60.0217
G01 X36.8153 Y60.0399
G01 X36.8007 Y60.0595
G01 X36.7882 Y60.0805
G01 X36.7777 Y60.1026
G01 X36.7695 Y60.1256
G01 X36.7635 Y60.1494
G01 X36.7599 Y60.1736
G01 X36.7587 Y60.1980
G00 Z1.0000
G00 X36.3582 Y60.1980
G01 F400.00
G01 Z0.0000
G01 F1000.00
G01 X36.3614 Y60.2617
G01 X36.3707 Y60.3248
G01 X36.3862 Y60.3866
G01 X36.4077 Y60.4467
G01 X36.4350 Y60.5043
G01 X36.4677 Y60.5590
G01 X36.5057 Y60.6102
G01 X36.5486 Y60.6574
G01 X36.5958 Y60.7003
G01 X36.6470 Y60.7383
G01 X36.7017 Y60.7710
G01 X36.7593 Y60.7983
G01 X36.8194 Y60.8198
G01 X36.8812 Y60.8353
G01 X36.9443 Y60.8446
G01 X37.0080 Y60.8478
G01 X37.0717 Y60.8446
G01 X37.1348 Y60.8353
G01 X37.1966 Y60.8198
G01 X37.2567 Y60.7983
G01 X37.3143 Y60.7710
G01 X37.3690 Y60.7383
G01 X37.4202 Y60.7003
G01 X37.4674 Y60.6574
G01 X37.5103 Y60.6102
G01 X37.5483 Y60.5590
G01 X37.5810 Y60.5043
G01 X37.6083 Y60.4467
G01 X37.6298 Y60.3866
G01 X37.6453 Y60.3248
G01 X37.6546 Y60.2617
G01 X37.6578 Y60.1980
G01 X37.6546 Y60.1343
G01 X37.6453 Y60.0712
G01 X37.6298 Y60.0094
G01 X37.6083 Y59.9493
G01 X37.5810 Y59.8917
G01 X37.5483 Y59.8370
G01 X37.5103 Y59.7858
G01 X37.4674 Y59.7386
G01 X37.4202 Y59.6957
G01 X37.3690 Y59.6577
G01 X37.3143 Y59.6250
G01 X37.2567 Y59.5977
G01 X37.1966 Y59.5762
G01 X37.1348 Y59.5607
G01 X37.0717 Y59.5514
G01 X37.0080 Y59.5482
G01 X36.9443 Y59.5514
G01 X36.8818 Y59.5606
G01 X36.8193 Y59.5762
G01 X36.7593 Y59.5977
G01 X36.7017 Y59.6250
G01 X36.6470 Y59.6577
G01 X36.5958 Y59.6957
G01 X36.5486 Y59.7386
G01 X36.5057 Y59.7858
G01 X36.4677 Y59.8370
G01 X36.4350 Y59.8917
G01 X36.4077 Y59.9493
G01 X36.3862 Y60.0094
G01 X36.3707 Y60.0712
G01 X36.3614 Y60.1343
G01 X36.3582 Y60.1980
G00 Z1.0000
G00 X36.3582 Y57.6580
G01 F400.00
G01 Z0.0000
G01 F1000.00
G01 X36.3614 Y57.7217
G01 X36.3707 Y57.7848
G01 X36.3862 Y57.8466
G01 X36.4077 Y57.9067
G01 X36.4350 Y57.9643
G01 X36.4677 Y58.0190
G01 X36.5057 Y58.0702
G01 X36.5486 Y58.1174
G01 X36.5958 Y58.1603
G01 X36.6470 Y58.1983
G01 X36.7017 Y58.2310
G01 X36.7593 Y58.2583
G01 X36.8194 Y58.2798
G01 X36.8812 Y58.2953
G01 X36.9443 Y58.3046
G01 X37.0080 Y58.3078
G01 X37.0717 Y58.3046
G01 X37.1348 Y58.2953
G01 X37.1966 Y58.2798
G01 X37.2567 Y58.2583
G01 X37.3143 Y58.2310
G01 X37.3690 Y58.1983
G01 X37.4202 Y58.1603
G01 X37.4674 Y58.1174
G01 X37.5103 Y58.0702
G01 X37.5483 Y58.0190
G01 X37.5810 Y57.9643
G01 X37.6083 Y57.9067
G01 X37.6298 Y57.8466
G01 X37.6453 Y57.7848
G01 X37.6546 Y57.7217
G01 X37.6578 Y57.6580
G01 X37.6546 Y57.5943
G01 X37.6453 Y57.5312
G01 X37.6298 Y57.4694
G01 X37.6083 Y57.4093
G01 X37.5810 Y57.3517
G01 X37.5483 Y57.2970
G01 X37.5103 Y57.2458
G01 X37.4674 Y57.1986
G01 X37.4202 Y57.1557
G01 X37.3690 Y57.1177
G01 X37.3143 Y57.0850
G01 X37.2567 Y57.0577
G01 X37.1966 Y57.0362
G01 X37.1348 Y57.0207
G01 X37.0717 Y57.0114
G01 X37.0080 Y57.0082
G01 X36.9443 Y57.0114
G01 X36.8824 Y57.0206
G01 X36.8192 Y57.0363
G01 X36.7593 Y57.0577
G01 X36.7017 Y57.0850
G01 X36.6470 Y57.1177
G01 X36.5958 Y57.1557
G01 X36.5486 Y57.1986
G01 X36.5057 Y57.2458
G01 X36.4677 Y57.2970
G01 X36.4350 Y57.3517
G01 X36.4077 Y57.4093
G01 X36.3862 Y57.4694
G01 X36.3707 Y57.5312
G01 X36.3614 Y57.5943
G01 X36.3582 Y57.6580
G00 Z1.0000
G00 X36.3582 Y57.6580
G01 F400.00
G01 Z0.0000
G01 F1000.00
G01 X36.7587 Y57.6580
G00 Z1.0000
G00 X36.7587 Y57.6580
G01 F400.00
G01 Z0.0000
G01 F1000.00
G01 X36.7599 Y57.6824
G01 X36.7635 Y57.7066
G01 X36.7695 Y57.7304
G01 X36.7777 Y57.7534
G01 X36.7882 Y57.7755
G01 X36.8007 Y57.7965
G01 X36.8153 Y57.8161
G01 X36.8317 Y57.8343
G01 X36.8499 Y57.8507
G01 X36.8695 Y57.8653
G01 X36.8905 Y57.8778
G01 X36.9126 Y57.8883
G01 X36.9356 Y57.8965
G01 X36.9594 Y57.9025
G01 X36.9836 Y57.9061
G01 X37.0080 Y57.9073
G01 X37.0324 Y57.9061
G01 X37.0566 Y57.9025
G01 X37.0804 Y57.8965
G01 X37.1034 Y57.8883
G01 X37.1255 Y57.8778
G01 X37.1465 Y57.8653
G01 X37.1661 Y57.8507
G01 X37.1843 Y57.8343
G01 X37.2007 Y57.8161
G01 X37.2153 Y57.7965
G01 X37.2278 Y57.7755
G01 X37.2383 Y57.7534
G01 X37.2465 Y57.7304
G01 X37.2525 Y57.7066
G01 X37.2561 Y57.6824
G01 X37.2573 Y57.6580
G01 X37.2561 Y57.6336
G01 X37.2525 Y57.6094
G01 X37.2465 Y57.5856
G01 X37.2383 Y57.5626
G01 X37.2278 Y57.5405
G01 X37.2153 Y57.5195
G01 X37.2007 Y57.4999
G01 X37.1843 Y57.4817
G01 X37.1661 Y57.4653
G01 X37.1465 Y57.4507
G01 X37.1255 Y57.4382
G01 X37.1034 Y57.4277
G01 X37.0804 Y57.4195
G01 X37.0566 Y57.4135
G01 X37.0324 Y57.4099
G01 X37.0080 Y57.4087
G01 X36.9836 Y57.4099
G01 X36.9602 Y57.4134
G01 X36.9352 Y57.4196
G01 X36.9126 Y57.4277
G01 X36.8905 Y57.4382
G01 X36.8695 Y57.4507
G01 X36.8499 Y57.4653
G01 X36.8317 Y57.4817
G01 X36.8153 Y57.4999
G01 X36.8007 Y57.5195
G01 X36.7882 Y57.5405
G01 X36.7777 Y57.5626
G01 X36.7695 Y57.5856
G01 X36.7635 Y57.6094
G01 X36.7599 Y57.6336
G01 X36.7587 Y57.6580
G00 Z1.0000
G00 X36.7587 Y55.1180
G01 F400.00
G01 Z0.0000
G01 F1000.00
G01 X36.7599 Y55.1424
G01 X36.7635 Y55.1666
G01 X36.7695 Y55.1904
G01 X36.7777 Y55.2134
G01 X36.7882 Y55.2355
G01 X36.8007 Y55.2565
G01 X36.8153 Y55.2761
G01 X36.8317 Y55.2943
G01 X36.8499 Y55.3107
G01 X36.8695 Y55.3253
G01 X36.8905 Y55.3378
G01 X36.9126 Y55.3483
G01 X36.9356 Y55.3565
G01 X36.9594 Y55.3625
G01 X36.9836 Y55.3661
G01 X37.0080 Y55.3673
G01 X37.0324 Y55.3661
G01 X37.0566 Y55.3625
G01 X37.0804 Y55.3565
G01 X37.1034 Y55.3483
G01 X37.1255 Y55.3378
G01 X37.1465 Y55.3253
G01 X37.1661 Y55.3107
G01 X37.1843 Y55.2943
G01 X37.2007 Y55.2761
G01 X37.2153 Y55.2565
G01 X37.2278 Y55.2355
G01 X37.2383 Y55.2134
G01 X37.2465 Y55.1904
G01 X37.2525 Y55.1666
G01 X37.2561 Y55.1424
G01 X37.2573 Y55.1180
G01 X37.2561 Y55.0936
