(G-CODE GENERATED BY FLATCAM v8.994 - www.flatcam.org - Version Date: 2020/11/7)

(Name: hack_soc_shield-BOARD_ID.gbr_edit_iso_combined_mt_paint_cnc)
(Type: G-code from Geometry)
(Units: MM)

(Created on Friday, 26 January 2024 at 20:27)

(This preprocessor is the default preprocessor used by FlatCAM.)
(It is made to work with MACH3 compatible motion controllers.)

(TOOL DIAMETER: 0.3 mm)
(Feedrate_XY: 600.0 mm/min)
(Feedrate_Z: 300.0 mm/min)
(Feedrate rapids 3000.0 mm/min)

(Z_Cut: -0.1 mm)
(Z_Move: 1.0 mm)
(Z Start: None mm)
(Z End: 15.0 mm)
(X,Y End: None mm)
(Steps per circle: 64)
(Preprocessor Geometry: default)

(X range:   27.7662 ...   51.9591  mm)
(Y range:    1.3119 ...    2.8620  mm)

(Spindle Speed: 0.0 RPM)
G21
G90
G94

G01 F600.00

M5
G00 Z15.0000
G00 X0.0000 Y0.0000
T3
M6    
(MSG, Change to Tool Dia = 0.3000)
M0
G00 Z15.0000

M03
G01 F600.00
G00 X27.7665 Y2.8394
G01 F300.00
G01 Z-0.1000
G01 F600.00
G01 X27.7674 Y2.8441
G01 X27.7692 Y2.8487
G01 X27.7720 Y2.8528
G01 X27.7754 Y2.8562
G01 X27.7794 Y2.8589
G01 X27.7840 Y2.8608
G01 X27.7912 Y2.8619
G01 X27.7961 Y2.8615
G01 X27.8008 Y2.8600
G01 X27.8071 Y2.8562
G01 X27.8105 Y2.8529
G01 X27.8132 Y2.8489
G01 X27.8151 Y2.8443
G01 X27.8161 Y2.8395
G01 X27.8163 Y2.2727
G01 X27.8167 Y2.2642
G01 X27.8184 Y2.2502
G01 X27.8207 Y2.2400
G01 X27.8245 Y2.2283
G01 X27.8273 Y2.2215
G01 X27.8320 Y2.2122
G01 X27.8384 Y2.2018
G01 X27.8459 Y2.1920
G01 X27.8543 Y2.1831
G01 X27.8620 Y2.1761
G01 X27.8719 Y2.1688
G01 X27.8824 Y2.1625
G01 X27.8918 Y2.1580
G01 X27.9033 Y2.1537
G01 X27.9134 Y2.1509
G01 X27.9254 Y2.1488
G01 X27.9328 Y2.1481
G01 X27.9413 Y2.1477
G01 X28.4984 Y2.1477
G01 X28.5106 Y2.1483
G01 X28.5210 Y2.1498
G01 X28.5311 Y2.1521
G01 X28.5382 Y2.1543
G01 X28.5479 Y2.1580
G01 X28.5573 Y2.1625
G01 X28.5678 Y2.1688
G01 X28.5762 Y2.1750
G01 X28.5854 Y2.1831
G01 X28.5926 Y2.1906
G01 X28.5973 Y2.1963
G01 X28.6033 Y2.2048
G01 X28.6086 Y2.2138
G01 X28.6139 Y2.2249
G01 X28.6174 Y2.2347
G01 X28.6202 Y2.2448
G01 X28.6226 Y2.2587
G01 X28.6234 Y2.2727
G01 X28.6236 Y2.8393
G01 X28.6254 Y2.8465
G01 X28.6292 Y2.8528
G01 X28.6325 Y2.8562
G01 X28.6365 Y2.8589
G01 X28.6435 Y2.8614
G01 X28.6508 Y2.8618
G01 X28.6579 Y2.8600
G01 X28.6643 Y2.8562
G01 X28.6677 Y2.8529
G01 X28.6703 Y2.8489
G01 X28.6729 Y2.8419
G01 X28.6735 Y2.8353
G01 X28.6735 Y1.3391
G01 X28.6729 Y1.3322
G01 X28.6705 Y1.3253
G01 X28.6662 Y1.3194
G01 X28.6603 Y1.3151
G01 X28.6557 Y1.3131
G01 X28.6485 Y1.3120
G01 X28.6436 Y1.3125
G01 X28.6367 Y1.3149
G01 X28.6326 Y1.3177
G01 X28.6277 Y1.3231
G01 X28.6246 Y1.3297
G01 X28.6236 Y1.3345
G01 X28.6234 Y1.9726
G01 X28.6228 Y1.9849
G01 X28.6210 Y1.9970
G01 X28.6180 Y2.0089
G01 X28.6145 Y2.0188
G01 X28.6095 Y2.0299
G01 X28.6043 Y2.0390
G01 X28.6002 Y2.0451
G01 X28.5938 Y2.0533
G01 X28.5868 Y2.0610
G01 X28.5777 Y2.0693
G01 X28.5678 Y2.0766
G01 X28.5589 Y2.0820
G01 X28.5496 Y2.0866
G01 X28.5428 Y2.0894
G01 X28.5329 Y2.0928
G01 X28.5210 Y2.0956
G01 X28.5106 Y2.0970
G01 X28.4984 Y2.0976
G01 X27.9413 Y2.0976
G01 X27.9328 Y2.0973
G01 X27.9188 Y2.0956
G01 X27.9086 Y2.0932
G01 X27.9016 Y2.0911
G01 X27.8901 Y2.0866
G01 X27.8808 Y2.0820
G01 X27.8704 Y2.0755
G01 X27.8606 Y2.0681
G01 X27.8517 Y2.0597
G01 X27.8447 Y2.0519
G01 X27.8374 Y2.0421
G01 X27.8311 Y2.0316
G01 X27.8259 Y2.0205
G01 X27.8217 Y2.0089
G01 X27.8191 Y1.9988
G01 X27.8171 Y1.9867
G01 X27.8164 Y1.9763
G01 X27.8161 Y1.3347
G01 X27.8143 Y1.3275
G01 X27.8106 Y1.3211
G01 X27.8072 Y1.3177
G01 X27.8032 Y1.3151
G01 X27.7962 Y1.3125
G01 X27.7889 Y1.3121
G01 X27.7818 Y1.3139
G01 X27.7754 Y1.3177
G01 X27.7721 Y1.3211
G01 X27.7694 Y1.3251
G01 X27.7668 Y1.3320
G01 X27.7663 Y1.3386
G01 X27.7665 Y2.8394
G00 Z1.0000
G00 X29.2664 Y1.6962
G01 F300.00
G01 Z-0.1000
G01 F600.00
G01 X29.2673 Y1.7010
G01 X29.2696 Y1.7067
G01 X29.3395 Y1.8465
G01 X29.3413 Y1.8499
G01 X29.3442 Y1.8538
G01 X29.3479 Y1.8571
G01 X29.3528 Y1.8600
G01 X29.4926 Y1.9299
G01 X29.4963 Y1.9316
G01 X29.5010 Y1.9330
G01 X29.5071 Y1.9334
G01 X29.8290 Y1.9335
G01 X29.8389 Y1.9340
G01 X29.8486 Y1.9353
G01 X29.8633 Y1.9388
G01 X29.8726 Y1.9420
G01 X29.8816 Y1.9459
G01 X29.9148 Y1.9625
G01 X29.9224 Y1.9669
G01 X29.9312 Y1.9731
G01 X29.9435 Y1.9838
G01 X29.9508 Y1.9916
G01 X29.9573 Y2.0000
G01 X29.9631 Y2.0090
G01 X29.9668 Y2.0156
G01 X29.9712 Y2.0253
G01 X29.9749 Y2.0354
G01 X29.9780 Y2.0476
G01 X29.9797 Y2.0581
G01 X29.9805 Y2.0726
G01 X29.9801 Y2.0971
G01 X29.9784 Y2.1103
G01 X29.9747 Y2.1249
G01 X29.9720 Y2.1326
G01 X29.9681 Y2.1416
G01 X29.9341 Y2.2096
G01 X29.9285 Y2.2196
G01 X29.9230 Y2.2277
G01 X29.9147 Y2.2379
G01 X29.9065 Y2.2461
G01 X29.8977 Y2.2534
G01 X29.8882 Y2.2599
G01 X29.8782 Y2.2655
G01 X29.8118 Y2.2987
G01 X29.7995 Y2.3040
G01 X29.7902 Y2.3071
G01 X29.7789 Y2.3098
G01 X29.7674 Y2.3114
G01 X29.7576 Y2.3119
G01 X29.5410 Y2.3119
G01 X29.5312 Y2.3115
G01 X29.5214 Y2.3103
G01 X29.5145 Y2.3091
G01 X29.5050 Y2.3066
G01 X29.4957 Y2.3034
G01 X29.4882 Y2.3002
G01 X29.3758 Y2.2441
G01 X29.3693 Y2.2415
G01 X29.3646 Y2.2407
G01 X29.3572 Y2.2412
G01 X29.3504 Y2.2438
G01 X29.3446 Y2.2483
G01 X29.3416 Y2.2522
G01 X29.3395 Y2.2565
G01 X29.3378 Y2.2637
G01 X29.3384 Y2.2710
G01 X29.3399 Y2.2756
G01 X29.3423 Y2.2799
G01 X29.3474 Y2.2852
G01 X29.3532 Y2.2888
G01 X29.4926 Y2.3585
G01 X29.4963 Y2.3602
G01 X29.5010 Y2.3615
G01 X29.5071 Y2.3620
G01 X29.7893 Y2.3620
G01 X29.7958 Y2.3615
G01 X29.8005 Y2.3602
G01 X29.8040 Y2.3586
G01 X29.9437 Y2.2888
G01 X29.9490 Y2.2857
G01 X29.9527 Y2.2823
G01 X29.9555 Y2.2785
G01 X29.9572 Y2.2755
G01 X30.0271 Y2.1356
G01 X30.0296 Y2.1296
G01 X30.0305 Y2.1248
G01 X30.0306 Y1.3391
G01 X30.0301 Y1.3322
G01 X30.0286 Y1.3275
G01 X30.0248 Y1.3211
G01 X30.0215 Y1.3177
G01 X30.0175 Y1.3151
G01 X30.0129 Y1.3131
G01 X30.0081 Y1.3122
G01 X30.0032 Y1.3121
G01 X29.9961 Y1.3139
G01 X29.9813 Y1.3208
G01 X29.9717 Y1.3242
G01 X29.9636 Y1.3264
G01 X29.9482 Y1.3292
G01 X29.9345 Y1.3300
G01 X29.9207 Y1.3292
G01 X29.9124 Y1.3280
G01 X29.9024 Y1.3258
G01 X29.8893 Y1.3216
G01 X29.8720 Y1.3138
G01 X29.8648 Y1.3121
G01 X29.5035 Y1.3121
G01 X29.4987 Y1.3130
G01 X29.4929 Y1.3153
G01 X29.3532 Y1.3852
G01 X29.3498 Y1.3870
G01 X29.3460 Y1.3898
G01 X29.3427 Y1.3934
G01 X29.3412 Y1.3956
G01 X29.2698 Y1.5383
G01 X29.2673 Y1.5443
G01 X29.2664 Y1.5491
G01 X29.2663 Y1.5528
G01 X29.2664 Y1.6962
G00 Z1.0000
G00 X29.9805 Y1.7583
G01 F300.00
G01 Z-0.1000
G01 F600.00
G01 X29.9799 Y1.7706
G01 X29.9785 Y1.7809
G01 X29.9761 Y1.7911
G01 X29.9740 Y1.7981
G01 X29.9703 Y1.8079
G01 X29.9658 Y1.8173
G01 X29.9595 Y1.8278
G01 X29.9533 Y1.8362
G01 X29.9464 Y1.8441
G01 X29.9412 Y1.8493
G01 X29.9334 Y1.8561
G01 X29.9250 Y1.8623
G01 X29.9144 Y1.8686
G01 X29.9051 Y1.8731
G01 X29.8953 Y1.8768
G01 X29.8883 Y1.8789
G01 X29.8799 Y1.8809
G01 X29.8714 Y1.8823
G01 X29.8574 Y1.8833
G01 X29.5410 Y1.8834
G01 X29.5312 Y1.8830
G01 X29.5214 Y1.8818
G01 X29.5145 Y1.8805
G01 X29.5050 Y1.8780
G01 X29.4957 Y1.8748
G01 X29.4851 Y1.8702
G01 X29.4187 Y1.8369
G01 X29.4072 Y1.8304
G01 X29.3992 Y1.8248
G01 X29.3929 Y1.8198
G01 X29.3834 Y1.8106
G01 X29.3749 Y1.8005
G01 X29.3666 Y1.7881
G01 X29.3628 Y1.7810
G01 X29.3281 Y1.7114
G01 X29.3248 Y1.7040
G01 X29.3216 Y1.6947
G01 X29.3185 Y1.6817
G01 X29.3169 Y1.6703
G01 X29.3164 Y1.6604
G01 X29.3164 Y1.5849
G01 X29.3169 Y1.5751
G01 X29.3182 Y1.5653
G01 X29.3216 Y1.5507
G01 X29.3248 Y1.5414
G01 X29.3288 Y1.5323
G01 X29.3635 Y1.4628
G01 X29.3684 Y1.4543
G01 X29.3738 Y1.4462
G01 X29.3799 Y1.4386
G01 X29.3846 Y1.4335
G01 X29.3903 Y1.4279
G01 X29.3978 Y1.4216
G01 X29.4057 Y1.4159
G01 X29.4116 Y1.4123
G01 X29.4187 Y1.4084
G01 X29.4851 Y1.3752
G01 X29.4990 Y1.3693
G01 X29.5083 Y1.3664
G01 X29.5197 Y1.3639
G01 X29.5294 Y1.3626
G01 X29.5410 Y1.3620
G01 X29.8290 Y1.3620
G01 X29.8389 Y1.3626
G01 X29.8486 Y1.3639
G01 X29.8633 Y1.3673
G01 X29.8726 Y1.3705
G01 X29.8816 Y1.3745
G01 X29.9131 Y1.3902
G01 X29.9240 Y1.3965
G01 X29.9356 Y1.4052
G01 X29.9421 Y1.4110
G01 X29.9495 Y1.4188
G01 X29.9595 Y1.4317
G01 X29.9650 Y1.4409
G01 X29.9690 Y1.4487
G01 X29.9712 Y1.4539
G01 X29.9749 Y1.4640
G01 X29.9776 Y1.4743
G01 X29.9787 Y1.4799
G01 X29.9799 Y1.4886
G01 X29.9805 Y1.4992
G01 X29.9805 Y1.7583
G00 Z1.0000
G00 X30.6235 Y2.0534
G01 F300.00
G01 Z-0.1000
G01 F600.00
G01 X30.6244 Y2.0582
G01 X30.6267 Y2.0638
G01 X30.6970 Y2.2044
G01 X30.6989 Y2.2077
G01 X30.7025 Y2.2122
G01 X30.7728 Y2.2825
G01 X30.7777 Y2.2865
G01 X30.9212 Y2.3585
G01 X30.9272 Y2.3610
G01 X30.9320 Y2.3619
G01 X30.9357 Y2.3620
G01 X31.2179 Y2.3620
G01 X31.2244 Y2.3615
G01 X31.2291 Y2.3602
G01 X31.2325 Y2.3586
G01 X31.3721 Y2.2889
G01 X31.3759 Y2.2867
G01 X31.3800 Y2.2836
G01 X31.3830 Y2.2801
G01 X31.3854 Y2.2759
G01 X31.3875 Y2.2687
G01 X31.3873 Y2.2615
G01 X31.3851 Y2.2545
G01 X31.3825 Y2.2504
G01 X31.3808 Y2.2483
G01 X31.3750 Y2.2438
G01 X31.3683 Y2.2412
G01 X31.3635 Y2.2406
G01 X31.3609 Y2.2407
G01 X31.3562 Y2.2415
G01 X31.3500 Y2.2439
G01 X31.2372 Y2.3002
G01 X31.2297 Y2.3034
G01 X31.2204 Y2.3066
G01 X31.2075 Y2.3098
G01 X31.1960 Y2.3114
G01 X31.1844 Y2.3119
G01 X30.9696 Y2.3119
G01 X30.9597 Y2.3115
G01 X30.9482 Y2.3101
G01 X30.9369 Y2.3076
G01 X30.9259 Y2.3040
G01 X30.9152 Y2.2995
G01 X30.8225 Y2.2531
G01 X30.8109 Y2.2463
G01 X30.7987 Y2.2370
G01 X30.7918 Y2.2306
G01 X30.7534 Y2.1922
G01 X30.7458 Y2.1837
G01 X30.7380 Y2.1728
G01 X30.7314 Y2.1611
G01 X30.6859 Y2.0702
G01 X30.6820 Y2.0611
G01 X30.6793 Y2.0535
G01 X30.6760 Y2.0406
G01 X30.6740 Y2.0274
G01 X30.6735 Y2.0158
G01 X30.6735 Y1.6581
G01 X30.6740 Y1.6465
G01 X30.6760 Y1.6334
G01 X30.6788 Y1.6221
G01 X30.6833 Y1.6096
G01 X30.6867 Y1.6022
G01 X30.7323 Y1.5110
G01 X30.7391 Y1.4995
G01 X30.7484 Y1.4872
G01 X30.7548 Y1.4803
G01 X30.7932 Y1.4419
G01 X30.8018 Y1.4344
G01 X30.8126 Y1.4265
G01 X30.8243 Y1.4199
G01 X30.9137 Y1.3752
G01 X30.9259 Y1.3699
G01 X30.9352 Y1.3668
G01 X30.9465 Y1.3642
G01 X30.9580 Y1.3626
G01 X30.9678 Y1.3620
G01 X31.1844 Y1.3620
G01 X31.1943 Y1.3624
G01 X31.2041 Y1.3636
G01 X31.2109 Y1.3649
G01 X31.2204 Y1.3673
G01 X31.2297 Y1.3705
G01 X31.2372 Y1.3737
G01 X31.3496 Y1.4299
G01 X31.3560 Y1.4324
G01 X31.3609 Y1.4333
G01 X31.3682 Y1.4327
G01 X31.3751 Y1.4301
G01 X31.3808 Y1.4256
G01 X31.3850 Y1.4196
G01 X31.3873 Y1.4126
G01 X31.3875 Y1.4054
G01 X31.3855 Y1.3983
G01 X31.3817 Y1.3922
G01 X31.3781 Y1.3887
G01 X31.3724 Y1.3853
G01 X31.2328 Y1.3154
G01 X31.2268 Y1.3130
G01 X31.2220 Y1.3121
G01 X31.2183 Y1.3119
G01 X30.9361 Y1.3119
G01 X30.9296 Y1.3124
G01 X30.9249 Y1.3138
G01 X30.9216 Y1.3153
G01 X30.7810 Y1.3855
G01 X30.7757 Y1.3889
G01 X30.7028 Y1.4614
G01 X30.6989 Y1.4662
G01 X30.6269 Y1.6097
G01 X30.6252 Y1.6134
G01 X30.6239 Y1.6181
G01 X30.6234 Y1.6242
G01 X30.6235 Y2.0534
G00 Z1.0000
G00 X32.0555 Y1.8218
G01 F300.00
G01 Z-0.1000
G01 F600.00
G01 X32.0555 Y1.9547
G01 X32.0654 Y1.9493
G01 X32.0782 Y1.9434
G01 X32.0906 Y1.9387
G01 X32.1002 Y1.9356
G01 X32.1121 Y1.9326
G01 X32.1229 Y1.9305
G01 X32.1369 Y1.9287
G01 X32.1495 Y1.9279
G01 X32.1479 Y1.9171
G01 X32.1469 Y1.9052
G01 X32.1466 Y1.8963
G01 X32.1468 Y1.8862
G01 X32.1473 Y1.8773
G01 X32.1487 Y1.8654
G01 X32.1519 Y1.8486
G01 X32.1403 Y1.8481
G01 X32.1260 Y1.8465
G01 X32.1168 Y1.8449
G01 X32.1028 Y1.8416
G01 X32.0891 Y1.8373
G01 X32.0786 Y1.8333
G01 X32.0656 Y1.8273
G01 X32.0555 Y1.8218
G00 Z1.0000
G00 X31.9807 Y2.8394
G01 F300.00
G01 Z-0.1000
G01 F600.00
G01 X31.9817 Y2.8441
G01 X31.9835 Y2.8487
G01 X31.9863 Y2.8528
G01 X31.9897 Y2.8562
G01 X31.9937 Y2.8589
G01 X31.9983 Y2.8608
G01 X32.0055 Y2.8619
G01 X32.0104 Y2.8615
G01 X32.0151 Y2.8600
G01 X32.0214 Y2.8562
G01 X32.0248 Y2.8529
G01 X32.0275 Y2.8489
G01 X32.0294 Y2.8443
G01 X32.0304 Y2.8395
G01 X32.0306 Y2.1278
G01 X32.0310 Y2.1192
G01 X32.0327 Y2.1052
G01 X32.0355 Y2.0933
G01 X32.0401 Y2.0800
G01 X32.0454 Y2.0689
G01 X32.0517 Y2.0583
G01 X32.0590 Y2.0485
G01 X32.0672 Y2.0394
G01 X32.0778 Y2.0300
G01 X32.0862 Y2.0239
G01 X32.0951 Y2.0184
G01 X32.1095 Y2.0116
G01 X32.1193 Y2.0082
G01 X32.1294 Y2.0056
G01 X32.1397 Y2.0038
G01 X32.1470 Y2.0031
G01 X32.1575 Y2.0028
G01 X32.1679 Y2.0034
G01 X32.1782 Y2.0049
G01 X32.1884 Y2.0072
G01 X32.1954 Y2.0093
G01 X32.2051 Y2.0130
G01 X32.2145 Y2.0176
G01 X32.2220 Y2.0219
G01 X32.2335 Y2.0300
G01 X32.2440 Y2.0394
G01 X32.5611 Y2.3562
G01 X32.5651 Y2.3589
G01 X32.5697 Y2.3608
G01 X32.5769 Y2.3619
G01 X32.5818 Y2.3615
G01 X32.5887 Y2.3590
G01 X32.5928 Y2.3562
G01 X32.5977 Y2.3508
G01 X32.6000 Y2.3466
G01 X32.6018 Y2.3395
G01 X32.6015 Y2.3322
G01 X32.5990 Y2.3253
G01 X32.5963 Y2.3211
G01 X32.5936 Y2.3181
G01 X32.2582 Y1.9827
G01 X32.2502 Y1.9739
G01 X32.2430 Y1.9644
G01 X32.2377 Y1.9558
G01 X32.2331 Y1.9467
G01 X32.2303 Y1.9402
G01 X32.2270 Y1.9306
G01 X32.2240 Y1.9191
G01 X32.2224 Y1.9091
G01 X32.2216 Y1.8972
G01 X32.2218 Y1.8871
G01 X32.2228 Y1.8771
G01 X32.2240 Y1.8700
G01 X32.2263 Y1.8602
G01 X32.2295 Y1.8506
G01 X32.2342 Y1.8396
G01 X32.2390 Y1.8307
G01 X32.2445 Y1.8222
G01 X32.5982 Y1.3501
G01 X32.6004 Y1.3456
G01 X32.6017 Y1.3408
G01 X32.6019 Y1.3359
G01 X32.6005 Y1.3287
G01 X32.5971 Y1.3222
G01 X32.5939 Y1.3186
G01 X32.5901 Y1.3157
G01 X32.5856 Y1.3136
G01 X32.5809 Y1.3123
G01 X32.5759 Y1.3120
G01 X32.5688 Y1.3134
G01 X32.5622 Y1.3169
G01 X32.5587 Y1.3201
G01 X32.5560 Y1.3233
G01 X32.2556 Y1.7237
G01 X32.2476 Y1.7333
G01 X32.2387 Y1.7421
G01 X32.2290 Y1.7499
G01 X32.2186 Y1.7567
G01 X32.2075 Y1.7625
G01 X32.1959 Y1.7671
G01 X32.1839 Y1.7705
G01 X32.1716 Y1.7727
G01 X32.1591 Y1.7737
G01 X32.1485 Y1.7735
G01 X32.1380 Y1.7724
G01 X32.1324 Y1.7715
G01 X32.1221 Y1.7691
G01 X32.1120 Y1.7658
G01 X32.1022 Y1.7617
G01 X32.0972 Y1.7592
G01 X32.0880 Y1.7539
G01 X32.0793 Y1.7477
G01 X32.0712 Y1.7409
G01 X32.0672 Y1.7370
G01 X32.0600 Y1.7292
G01 X32.0535 Y1.7208
G01 X32.0478 Y1.7119
G01 X32.0442 Y1.7053
G01 X32.0398 Y1.6956
G01 X32.0362 Y1.6856
G01 X32.0331 Y1.6735
G01 X32.0312 Y1.6612
G01 X32.0306 Y1.6506
G01 X32.0306 Y1.3391
G01 X32.0301 Y1.3322
G01 X32.0276 Y1.3253
G01 X32.0248 Y1.3211
G01 X32.0215 Y1.3177
G01 X32.0152 Y1.3140
G01 X32.0081 Y1.3122
G01 X32.0008 Y1.3125
G01 X31.9939 Y1.3149
G01 X31.9897 Y1.3177
G01 X31.9863 Y1.3211
G01 X31.9826 Y1.3273
G01 X31.9811 Y1.3320
G01 X31.9805 Y1.3386
G01 X31.9807 Y2.8394
G00 Z1.0000
G00 X34.2663 Y1.4092
G01 F300.00
G01 Z-0.1000
G01 F600.00
G01 X34.2676 Y1.4163
G01 X34.2696 Y1.4207
G01 X34.2724 Y1.4247
G01 X34.2759 Y1.4281
G01 X34.2801 Y1.4307
G01 X34.2847 Y1.4325
G01 X34.2919 Y1.4333
G01 X34.2967 Y1.4327
G01 X34.4923 Y1.3678
G01 X34.5053 Y1.3645
G01 X34.5185 Y1.3626
G01 X34.5299 Y1.3620
G01 X34.8290 Y1.3620
G01 X34.8389 Y1.3626
G01 X34.8469 Y1.3636
G01 X34.8616 Y1.3668
G01 X34.8726 Y1.3705
G01 X34.8832 Y1.3752
G01 X34.9726 Y1.4199
G01 X34.9842 Y1.4265
G01 X34.9951 Y1.4344
G01 X35.0036 Y1.4419
G01 X35.0435 Y1.4818
G01 X35.0535 Y1.4935
G01 X35.0589 Y1.5012
G01 X35.0636 Y1.5093
G01 X35.1109 Y1.6038
G01 X35.1155 Y1.6144
G01 X35.1190 Y1.6255
G01 X35.1215 Y1.6368
G01 X35.1230 Y1.6483
G01 X35.1234 Y1.6581
G01 X35.1234 Y1.7301
G01 X35.1230 Y1.7400
G01 X35.1218 Y1.7497
G01 X35.1205 Y1.7566
G01 X35.1181 Y1.7661
G01 X35.1142 Y1.7770
G01 X35.1102 Y1.7860
G01 X35.0655 Y1.8754
G01 X35.0577 Y1.8887
G01 X35.0510 Y1.8979
G01 X35.0435 Y1.9065
G01 X35.0051 Y1.9449
G01 X34.9935 Y1.9551
G01 X34.9842 Y1.9617
G01 X34.9726 Y1.9683
G01 X34.8662 Y2.0215
G01 X34.8518 Y2.0276
G01 X34.8407 Y2.0310
G01 X34.5721 Y2.0981
G01 X34.5652 Y2.1006
G01 X34.4206 Y2.1731
G01 X34.4161 Y2.1768
G01 X34.3432 Y2.2499
G01 X34.3401 Y2.2547
G01 X34.2698 Y2.3954
G01 X34.2673 Y2.4015
G01 X34.2664 Y2.4063
G01 X34.2663 Y2.4099
G01 X34.2662 Y2.5493
G01 X34.2664 Y2.5534
G01 X34.2673 Y2.5582
G01 X34.2696 Y2.5638
G01 X34.3418 Y2.7077
G01 X34.3454 Y2.7122
G01 X34.4157 Y2.7825
G01 X34.4205 Y2.7865
G01 X34.5640 Y2.8585
G01 X34.5701 Y2.8610
G01 X34.5749 Y2.8619
G01 X34.9369 Y2.8618
G01 X34.9432 Y2.8604
G01 X35.1544 Y2.7900
G01 X35.1585 Y2.7884
G01 X35.1628 Y2.7859
G01 X35.1665 Y2.7827
G01 X35.1695 Y2.7789
G01 X35.1725 Y2.7721
G01 X35.1734 Y2.7649
G01 X35.1721 Y2.7577
G01 X35.1688 Y2.7511
G01 X35.1638 Y2.7459
G01 X35.1574 Y2.7423
G01 X35.1527 Y2.7410
G01 X35.1478 Y2.7406
G01 X35.1430 Y2.7412
G01 X35.1387 Y2.7424
G01 X34.9474 Y2.8061
G01 X34.9364 Y2.8091
G01 X34.9232 Y2.8112
G01 X34.9098 Y2.8119
G01 X34.6107 Y2.8119
G01 X34.6008 Y2.8114
G01 X34.5911 Y2.8101
G01 X34.5764 Y2.8066
G01 X34.5671 Y2.8034
G01 X34.5565 Y2.7987
G01 X34.4671 Y2.7540
G01 X34.4555 Y2.7474
G01 X34.4446 Y2.7396
G01 X34.4361 Y2.7320
G01 X34.3949 Y2.6907
G01 X34.3887 Y2.6837
G01 X34.3831 Y2.6761
G01 X34.3752 Y2.6629
G01 X34.3288 Y2.5702
G01 X34.3242 Y2.5595
G01 X34.3207 Y2.5485
G01 X34.3182 Y2.5372
G01 X34.3166 Y2.5239
G01 X34.3163 Y2.5158
G01 X34.3163 Y2.4438
G01 X34.3167 Y2.4340
G01 X34.3179 Y2.4242
G01 X34.3192 Y2.4174
G01 X34.3216 Y2.4078
G01 X34.3255 Y2.3969
G01 X34.3295 Y2.3879
G01 X34.3742 Y2.2985
G01 X34.3820 Y2.2852
G01 X34.3887 Y2.2760
G01 X34.3962 Y2.2675
G01 X34.4346 Y2.2290
G01 X34.4462 Y2.2189
G01 X34.4555 Y2.2123
G01 X34.4671 Y2.2056
G01 X34.5735 Y2.1525
G01 X34.5879 Y2.1463
G01 X34.5991 Y2.1430
G01 X34.8676 Y2.0758
G01 X34.8746 Y2.0733
G01 X35.0192 Y2.0008
G01 X35.0236 Y1.9972
G01 X35.0965 Y1.9240
G01 X35.0996 Y1.9192
G01 X35.1700 Y1.7785
G01 X35.1724 Y1.7725
G01 X35.1733 Y1.7677
G01 X35.1735 Y1.7640
G01 X35.1735 Y1.6247
G01 X35.1733 Y1.6206
G01 X35.1724 Y1.6158
G01 X35.1701 Y1.6100
G01 X35.0980 Y1.4662
G01 X35.0944 Y1.4618
G01 X35.0240 Y1.3914
G01 X35.0192 Y1.3874
G01 X34.8757 Y1.3154
G01 X34.8697 Y1.3130
G01 X34.8648 Y1.3121
G01 X34.5066 Y1.3119
G01 X34.5004 Y1.3125
G01 X34.2812 Y1.3856
G01 X34.2750 Y1.3895
G01 X34.2702 Y1.3950
G01 X34.2672 Y1.4018
G01 X34.2663 Y1.4092
G00 Z1.0000
G00 X35.6950 Y2.0534
G01 F300.00
G01 Z-0.1000
G01 F600.00
G01 X35.6959 Y2.0582
G01 X35.6982 Y2.0638
G01 X35.7684 Y2.2044
G01 X35.7703 Y2.2077
G01 X35.7739 Y2.2122
G01 X35.8443 Y2.2825
G01 X35.8491 Y2.2865
G01 X35.9926 Y2.3585
G01 X35.9986 Y2.3610
G01 X36.0035 Y2.3619
G01 X36.0071 Y2.3620
G01 X36.2179 Y2.3620
G01 X36.2244 Y2.3615
G01 X36.2291 Y2.3602
G01 X36.2325 Y2.3586
G01 X36.3730 Y2.2884
G01 X36.3783 Y2.2851
G01 X36.4511 Y2.2126
G01 X36.4551 Y2.2077
G01 X36.5271 Y2.0642
G01 X36.5296 Y2.0582
G01 X36.5305 Y2.0534
G01 X36.5305 Y1.6206
G01 X36.5296 Y1.6158
G01 X36.5273 Y1.6101
G01 X36.4570 Y1.4696
G01 X36.4537 Y1.4642
G01 X36.3811 Y1.3914
G01 X36.3763 Y1.3874
G01 X36.2328 Y1.3154
G01 X36.2268 Y1.3130
G01 X36.2220 Y1.3121
G01 X36.0075 Y1.3119
G01 X36.0010 Y1.3124
G01 X35.9963 Y1.3138
G01 X35.9930 Y1.3153
G01 X35.8524 Y1.3855
G01 X35.8471 Y1.3889
G01 X35.7743 Y1.4614
G01 X35.7703 Y1.4662
G01 X35.6983 Y1.6097
G01 X35.6967 Y1.6134
G01 X35.6953 Y1.6181
G01 X35.6948 Y1.6242
G01 X35.6950 Y2.0534
G00 Z1.0000
G00 X36.3297 Y1.4199
G01 F300.00
G01 Z-0.1000
G01 F600.00
G01 X36.3397 Y1.4255
G01 X36.3447 Y1.4288
G01 X36.3523 Y1.4344
G01 X36.3608 Y1.4419
G01 X36.4006 Y1.4818
G01 X36.4082 Y1.4903
G01 X36.4149 Y1.4995
G01 X36.4226 Y1.5128
G01 X36.4681 Y1.6038
G01 X36.4732 Y1.6161
G01 X36.4757 Y1.6238
G01 X36.4780 Y1.6334
G01 X36.4800 Y1.6465
G01 X36.4805 Y1.6581
G01 X36.4805 Y2.0176
G01 X36.4800 Y2.0274
G01 X36.4784 Y2.0389
G01 X36.4757 Y2.0502
G01 X36.4720 Y2.0611
G01 X36.4673 Y2.0717
G01 X36.4226 Y2.1611
G01 X36.4171 Y2.1711
G01 X36.4106 Y2.1805
G01 X36.4006 Y2.1922
G01 X36.3593 Y2.2334
G01 X36.3523 Y2.2396
G01 X36.3431 Y2.2463
G01 X36.3297 Y2.2540
G01 X36.2372 Y2.3002
G01 X36.2297 Y2.3034
G01 X36.2204 Y2.3066
G01 X36.2109 Y2.3091
G01 X36.2041 Y2.3103
G01 X36.1943 Y2.3115
G01 X36.1844 Y2.3119
G01 X36.0393 Y2.3119
G01 X36.0294 Y2.3114
G01 X36.0179 Y2.3098
G01 X36.0067 Y2.3071
G01 X35.9957 Y2.3034
G01 X35.9851 Y2.2987
G01 X35.8957 Y2.2540
G01 X35.8840 Y2.2474
G01 X35.8732 Y2.2396
G01 X35.8647 Y2.2320
G01 X35.8262 Y2.1936
G01 X35.8185 Y2.1852
G01 X35.8148 Y2.1805
G01 X35.8094 Y2.1728
G01 X35.8037 Y2.1629
G01 X35.7581 Y2.0717
G01 X35.7528 Y2.0595
G01 X35.7497 Y2.0502
G01 X35.7471 Y2.0389
G01 X35.7454 Y2.0274
G01 X35.7449 Y2.0176
G01 X35.7449 Y1.6581
G01 X35.7454 Y1.6465
G01 X35.7471 Y1.6351
G01 X35.7497 Y1.6238
G01 X35.7534 Y1.6128
G01 X35.7581 Y1.6022
G01 X35.8028 Y1.5128
G01 X35.8094 Y1.5012
G01 X35.8173 Y1.4903
G01 X35.8248 Y1.4818
G01 X35.8632 Y1.4433
G01 X35.8716 Y1.4357
G01 X35.8764 Y1.4319
G01 X35.8841 Y1.4265
G01 X35.8939 Y1.4208
G01 X35.9867 Y1.3745
G01 X35.9957 Y1.3705
G01 X36.0033 Y1.3679
G01 X36.0100 Y1.3660
G01 X36.0197 Y1.3639
G01 X36.0294 Y1.3626
G01 X36.0393 Y1.3620
G01 X36.1844 Y1.3620
G01 X36.1960 Y1.3626
G01 X36.2058 Y1.3639
G01 X36.2204 Y1.3673
G01 X36.2297 Y1.3705
G01 X36.2372 Y1.3737
G01 X36.3297 Y1.4199
G00 Z1.0000
G00 X37.0525 Y1.9749
G01 F300.00
G01 Z-0.1000
G01 F600.00
G01 X37.0520 Y1.9810
G01 X37.0520 Y2.1923
G01 X37.0523 Y2.1977
G01 X37.1250 Y2.4885
G01 X37.1970 Y2.6330
G01 X37.2003 Y2.6383
G01 X37.3436 Y2.7819
G01 X37.3486 Y2.7861
G01 X37.3528 Y2.7885
G01 X37.3563 Y2.7898
G01 X37.5718 Y2.8614
G01 X37.5775 Y2.8620
G01 X37.7226 Y2.8618
G01 X37.7289 Y2.8604
G01 X37.9402 Y2.7899
G01 X37.9462 Y2.7874
G01 X37.9502 Y2.7846
G01 X37.9529 Y2.7822
G01 X38.0248 Y2.7101
G01 X38.0286 Y2.7037
G01 X38.0304 Y2.6966
G01 X38.0301 Y2.6893
G01 X38.0286 Y2.6846
G01 X38.0264 Y2.6803
G01 X38.0215 Y2.6749
G01 X38.0175 Y2.6722
G01 X38.0129 Y2.6703
G01 X38.0057 Y2.6692
G01 X37.9984 Y2.6702
G01 X37.9918 Y2.6733
G01 X37.9867 Y2.6775
G01 X37.9415 Y2.7228
G01 X37.9329 Y2.7306
G01 X37.9207 Y2.7395
G01 X37.9138 Y2.7437
G01 X37.9050 Y2.7481
G01 X37.8926 Y2.7530
G01 X37.7331 Y2.8061
G01 X37.7182 Y2.8098
G01 X37.7089 Y2.8112
G01 X37.6995 Y2.8118
G01 X37.5993 Y2.8119
G01 X37.5880 Y2.8112
G01 X37.5747 Y2.8091
G01 X37.5618 Y2.8055
G01 X37.4042 Y2.7530
G01 X37.3934 Y2.7488
G01 X37.3815 Y2.7428
G01 X37.3732 Y2.7376
G01 X37.3667 Y2.7327
G01 X37.3566 Y2.7240
G01 X37.2548 Y2.6222
G01 X37.2458 Y2.6122
G01 X37.2380 Y2.6014
G01 X37.2323 Y2.5915
G01 X37.1782 Y2.4834
G01 X37.1728 Y2.4708
G01 X37.1687 Y2.4578
G01 X37.1058 Y2.2060
G01 X37.1031 Y2.1918
G01 X37.1022 Y2.1802
G01 X37.1021 Y1.9983
G01 X37.1031 Y1.9821
G01 X37.1058 Y1.9680
G01 X37.1687 Y1.7162
G01 X37.1721 Y1.7051
G01 X37.1782 Y1.6906
G01 X37.2314 Y1.5842
G01 X37.2369 Y1.5743
G01 X37.2434 Y1.5649
G01 X37.2471 Y1.5602
G01 X37.2548 Y1.5518
G01 X37.3566 Y1.4499
G01 X37.3653 Y1.4423
G01 X37.3746 Y1.4354
G01 X37.3846 Y1.4295
G01 X37.3966 Y1.4238
G01 X37.4042 Y1.4210
G01 X37.5618 Y1.3684
G01 X37.5728 Y1.3653
G01 X37.5860 Y1.3630
G01 X37.5993 Y1.3620
G01 X37.6955 Y1.3620
G01 X37.7069 Y1.3626
G01 X37.7201 Y1.3645
G01 X37.7331 Y1.3678
G01 X37.8926 Y1.4210
G01 X37.9034 Y1.4251
G01 X37.9123 Y1.4295
G01 X37.9207 Y1.4345
G01 X37.9265 Y1.4384
G01 X37.9342 Y1.4445
G01 X37.9415 Y1.4512
G01 X37.9864 Y1.4961
G01 X37.9917 Y1.5006
G01 X37.9982 Y1.5037
G01 X38.0055 Y1.5048
G01 X38.0127 Y1.5037
G01 X38.0193 Y1.5007
G01 X38.0231 Y1.4976
G01 X38.0263 Y1.4937
G01 X38.0286 Y1.4894
G01 X38.0300 Y1.4848
G01 X38.0305 Y1.4799
G01 X38.0301 Y1.4750
G01 X38.0286 Y1.4704
G01 X38.0264 Y1.4661
G01 X38.0221 Y1.4610
G01 X37.9532 Y1.3921
G01 X37.9483 Y1.3878
G01 X37.9440 Y1.3855
G01 X37.9405 Y1.3841
G01 X37.7251 Y1.3125
G01 X37.7194 Y1.3119
G01 X37.5781 Y1.3119
G01 X37.5742 Y1.3121
G01 X37.5687 Y1.3133
G01 X37.3567 Y1.3840
G01 X37.3529 Y1.3854
G01 X37.3486 Y1.3878
G01 X37.3439 Y1.3918
G01 X37.2029 Y1.5328
G01 X37.2003 Y1.5357
G01 X37.1972 Y1.5405
G01 X37.1250 Y1.6854
G01 X37.0525 Y1.9749
G00 Z1.0000
G00 X39.6949 Y1.4092
G01 F300.00
G01 Z-0.1000
G01 F600.00
G01 X39.6962 Y1.4163
G01 X39.6982 Y1.4207
G01 X39.7010 Y1.4247
G01 X39.7045 Y1.4281
G01 X39.7086 Y1.4307
G01 X39.7133 Y1.4325
G01 X39.7204 Y1.4333
G01 X39.7253 Y1.4327
G01 X39.9209 Y1.3678
G01 X39.9339 Y1.3645
G01 X39.9471 Y1.3626
G01 X39.9585 Y1.3620
G01 X40.2576 Y1.3620
G01 X40.2674 Y1.3626
G01 X40.2755 Y1.3636
G01 X40.2902 Y1.3668
G01 X40.3012 Y1.3705
G01 X40.3118 Y1.3752
G01 X40.4012 Y1.4199
G01 X40.4128 Y1.4265
G01 X40.4237 Y1.4344
G01 X40.4322 Y1.4419
G01 X40.4720 Y1.4818
G01 X40.4820 Y1.4935
G01 X40.4874 Y1.5012
G01 X40.4922 Y1.5093
G01 X40.5395 Y1.6038
G01 X40.5441 Y1.6144
G01 X40.5476 Y1.6255
G01 X40.5501 Y1.6368
G01 X40.5516 Y1.6483
G01 X40.5520 Y1.6581
G01 X40.5520 Y1.7301
G01 X40.5516 Y1.7400
G01 X40.5504 Y1.7497
G01 X40.5491 Y1.7566
G01 X40.5466 Y1.7661
G01 X40.5428 Y1.7770
G01 X40.5388 Y1.7860
G01 X40.4941 Y1.8754
G01 X40.4863 Y1.8887
G01 X40.4796 Y1.8979
G01 X40.4720 Y1.9065
G01 X40.4336 Y1.9449
G01 X40.4221 Y1.9551
G01 X40.4128 Y1.9617
G01 X40.4012 Y1.9683
G01 X40.2948 Y2.0215
G01 X40.2804 Y2.0276
G01 X40.2692 Y2.0310
G01 X40.0006 Y2.0981
G01 X39.9937 Y2.1006
G01 X39.8491 Y2.1731
G01 X39.8447 Y2.1768
G01 X39.7718 Y2.2499
G01 X39.7687 Y2.2547
G01 X39.6983 Y2.3954
G01 X39.6959 Y2.4015
G01 X39.6950 Y2.4063
G01 X39.6948 Y2.4099
G01 X39.6948 Y2.5493
G01 X39.6950 Y2.5534
G01 X39.6959 Y2.5582
G01 X39.6982 Y2.5638
G01 X39.7703 Y2.7077
G01 X39.7739 Y2.7122
G01 X39.8443 Y2.7825
G01 X39.8491 Y2.7865
G01 X39.9926 Y2.8585
G01 X39.9986 Y2.8610
G01 X40.0035 Y2.8619
G01 X40.3655 Y2.8618
G01 X40.3717 Y2.8604
G01 X40.5829 Y2.7900
G01 X40.5870 Y2.7884
G01 X40.5914 Y2.7859
G01 X40.5951 Y2.7827
G01 X40.5981 Y2.7789
G01 X40.6011 Y2.7721
G01 X40.6019 Y2.7649
G01 X40.6007 Y2.7577
G01 X40.5974 Y2.7511
G01 X40.5923 Y2.7459
G01 X40.5860 Y2.7423
G01 X40.5813 Y2.7410
G01 X40.5764 Y2.7406
G01 X40.5715 Y2.7412
G01 X40.5673 Y2.7424
G01 X40.3760 Y2.8061
G01 X40.3650 Y2.8091
G01 X40.3517 Y2.8112
G01 X40.3384 Y2.8119
G01 X40.0393 Y2.8119
G01 X40.0294 Y2.8114
G01 X40.0197 Y2.8101
G01 X40.0050 Y2.8066
G01 X39.9957 Y2.8034
G01 X39.9851 Y2.7987
G01 X39.8957 Y2.7540
G01 X39.8840 Y2.7474
G01 X39.8732 Y2.7396
G01 X39.8647 Y2.7320
G01 X39.8235 Y2.6907
G01 X39.8173 Y2.6837
G01 X39.8117 Y2.6761
G01 X39.8037 Y2.6629
G01 X39.7573 Y2.5702
G01 X39.7528 Y2.5595
G01 X39.7493 Y2.5485
G01 X39.7468 Y2.5372
G01 X39.7452 Y2.5239
G01 X39.7449 Y2.5158
G01 X39.7449 Y2.4438
G01 X39.7453 Y2.4340
G01 X39.7465 Y2.4242
G01 X39.7478 Y2.4174
G01 X39.7502 Y2.4078
G01 X39.7541 Y2.3969
G01 X39.7581 Y2.3879
G01 X39.8028 Y2.2985
G01 X39.8105 Y2.2852
G01 X39.8173 Y2.2760
G01 X39.8248 Y2.2675
G01 X39.8632 Y2.2290
G01 X39.8748 Y2.2189
G01 X39.8840 Y2.2123
G01 X39.8957 Y2.2056
G01 X40.0020 Y2.1525
G01 X40.0165 Y2.1463
G01 X40.0276 Y2.1430
G01 X40.2962 Y2.0758
G01 X40.3031 Y2.0733
G01 X40.4477 Y2.0008
G01 X40.4522 Y1.9972
G01 X40.5251 Y1.9240
G01 X40.5282 Y1.9192
G01 X40.5985 Y1.7785
G01 X40.6010 Y1.7725
G01 X40.6019 Y1.7677
G01 X40.6020 Y1.7640
G01 X40.6021 Y1.6247
G01 X40.6019 Y1.6206
G01 X40.6010 Y1.6158
G01 X40.5987 Y1.6100
G01 X40.5265 Y1.4662
G01 X40.5229 Y1.4618
G01 X40.4526 Y1.3914
G01 X40.4477 Y1.3874
G01 X40.3042 Y1.3154
G01 X40.2982 Y1.3130
G01 X40.2934 Y1.3121
G01 X39.9352 Y1.3119
G01 X39.9290 Y1.3125
G01 X39.7098 Y1.3856
G01 X39.7036 Y1.3895
G01 X39.6988 Y1.3950
G01 X39.6958 Y1.4018
G01 X39.6949 Y1.4092
G00 Z1.0000
G00 X41.1950 Y1.3346
G01 F300.00
G01 Z-0.1000
G01 F600.00
G01 X41.1948 Y2.8349
G01 X41.1954 Y2.8418
G01 X41.1968 Y2.8465
G01 X41.1991 Y2.8508
G01 X41.2021 Y2.8545
G01 X41.2060 Y2.8577
G01 X41.2102 Y2.8600
G01 X41.2149 Y2.8614
G01 X41.2198 Y2.8619
G01 X41.2247 Y2.8615
G01 X41.2294 Y2.8600
G01 X41.2357 Y2.8562
G01 X41.2391 Y2.8529
G01 X41.2418 Y2.8489
G01 X41.2437 Y2.8443
G01 X41.2447 Y2.8395
G01 X41.2449 Y2.4725
G01 X41.2457 Y2.4583
G01 X41.2474 Y2.4479
G01 X41.2499 Y2.4376
G01 X41.2554 Y2.4225
G01 X41.2600 Y2.4130
G01 X41.2654 Y2.4039
G01 X41.2716 Y2.3954
G01 X41.2763 Y2.3897
G01 X41.2836 Y2.3821
G01 X41.2930 Y2.3740
G01 X41.3032 Y2.3668
G01 X41.3140 Y2.3607
G01 X41.3236 Y2.3564
G01 X41.3353 Y2.3524
G01 X41.3474 Y2.3496
G01 X41.3597 Y2.3479
G01 X41.3702 Y2.3475
G01 X41.3758 Y2.3477
G01 X41.3845 Y2.3484
G01 X41.3949 Y2.3500
G01 X41.4087 Y2.3537
G01 X41.4249 Y2.3602
G01 X41.4320 Y2.3619
G01 X41.6465 Y2.3620
G01 X41.6530 Y2.3615
G01 X41.6577 Y2.3602
G01 X41.8008 Y2.2888
G01 X41.8061 Y2.2857
G01 X41.8098 Y2.2824
G01 X41.8127 Y2.2785
G01 X41.8143 Y2.2755
G01 X41.8859 Y2.1319
G01 X41.8873 Y2.1272
G01 X41.8877 Y2.1212
G01 X41.8878 Y1.3391
G01 X41.8876 Y1.3347
G01 X41.8866 Y1.3298
G01 X41.8848 Y1.3253
G01 X41.8820 Y1.3211
G01 X41.8786 Y1.3177
G01 X41.8746 Y1.3151
G01 X41.8700 Y1.3131
G01 X41.8652 Y1.3122
G01 X41.8604 Y1.3121
G01 X41.8555 Y1.3131
G01 X41.8510 Y1.3149
G01 X41.8469 Y1.3177
G01 X41.8435 Y1.3211
G01 X41.8408 Y1.3251
G01 X41.8389 Y1.3297
G01 X41.8379 Y1.3345
G01 X41.8376 Y2.0890
G01 X41.8369 Y2.1006
G01 X41.8352 Y2.1120
G01 X41.8324 Y2.1233
G01 X41.8278 Y2.1358
G01 X41.8245 Y2.1432
G01 X41.7896 Y2.2127
G01 X41.7856 Y2.2196
G01 X41.7802 Y2.2277
G01 X41.7706 Y2.2392
G01 X41.7637 Y2.2461
G01 X41.7562 Y2.2523
G01 X41.7439 Y2.2608
G01 X41.7353 Y2.2655
G01 X41.6689 Y2.2987
G01 X41.6583 Y2.3034
G01 X41.6473 Y2.3071
G01 X41.6361 Y2.3098
G01 X41.6228 Y2.3115
G01 X41.6130 Y2.3119
G01 X41.4696 Y2.3119
G01 X41.4580 Y2.3114
G01 X41.4465 Y2.3098
G01 X41.4352 Y2.3071
G01 X41.4226 Y2.3028
G01 X41.4137 Y2.2987
G01 X41.3243 Y2.2540
G01 X41.3109 Y2.2463
G01 X41.3018 Y2.2396
G01 X41.2932 Y2.2320
G01 X41.2802 Y2.2190
G01 X41.2721 Y2.2098
G01 X41.2650 Y2.1999
G01 X41.2588 Y2.1893
G01 X41.2537 Y2.1781
G01 X41.2498 Y2.1665
G01 X41.2473 Y2.1563
G01 X41.2460 Y2.1479
G01 X41.2449 Y2.1320
G01 X41.2447 Y1.3347
G01 X41.2429 Y1.3275
G01 X41.2407 Y1.3232
G01 X41.2376 Y1.3194
G01 X41.2337 Y1.3162
G01 X41.2295 Y1.3140
G01 X41.2248 Y1.3125
G01 X41.2199 Y1.3120
G01 X41.2151 Y1.3125
G01 X41.2103 Y1.3139
G01 X41.2061 Y1.3162
G01 X41.2023 Y1.3192
G01 X41.1991 Y1.3231
G01 X41.1968 Y1.3273
G01 X41.1954 Y1.3320
G01 X41.1950 Y1.3346
G00 Z1.0000
G00 X42.5522 Y2.3394
G01 F300.00
G01 Z-0.1000
G01 F600.00
G01 X42.5531 Y2.3441
G01 X42.5550 Y2.3487
G01 X42.5577 Y2.3528
G01 X42.5611 Y2.3562
G01 X42.5651 Y2.3589
G01 X42.5697 Y2.3608
G01 X42.5745 Y2.3618
G01 X42.5794 Y2.3618
G01 X42.5842 Y2.3609
G01 X42.5887 Y2.3590
G01 X42.5928 Y2.3562
G01 X42.5962 Y2.3529
G01 X42.5989 Y2.3489
G01 X42.6009 Y2.3443
G01 X42.6018 Y2.3395
G01 X42.6020 Y2.3353
G01 X42.6020 Y1.3391
G01 X42.6015 Y1.3322
G01 X42.6001 Y1.3275
G01 X42.5978 Y1.3232
G01 X42.5947 Y1.3194
G01 X42.5909 Y1.3162
G01 X42.5866 Y1.3140
G01 X42.5820 Y1.3125
G01 X42.5771 Y1.3120
G01 X42.5722 Y1.3125
G01 X42.5675 Y1.3139
G01 X42.5632 Y1.3162
G01 X42.5595 Y1.3192
G01 X42.5563 Y1.3231
G01 X42.5540 Y1.3273
G01 X42.5526 Y1.3320
G01 X42.5520 Y1.3386
G01 X42.5522 Y2.3394
G00 Z1.0000
G00 X42.5762 Y2.7655
G01 F300.00
G01 Z-0.1000
G01 F600.00
G01 X42.4806 Y2.7655
G00 Z1.0000
G00 X42.5762 Y2.7655
G01 F300.00
G01 Z-0.1000
G01 F600.00
G01 X42.5770 Y2.7663
G01 X42.5778 Y2.7655
G01 X42.5770 Y2.7648
G01 X42.5762 Y2.7655
G00 Z1.0000
G00 X42.4806 Y2.7655
G01 F300.00
G01 Z-0.1000
G01 F600.00
G01 X42.4811 Y2.7703
G01 X42.4825 Y2.7750
G01 X42.4848 Y2.7793
G01 X42.4890 Y2.7843
G01 X42.5611 Y2.8562
G01 X42.5651 Y2.8589
G01 X42.5688 Y2.8605
G01 X42.5720 Y2.8614
G01 X42.5769 Y2.8619
G01 X42.5818 Y2.8615
G01 X42.5865 Y2.8601
G01 X42.5908 Y2.8578
G01 X42.5958 Y2.8536
G01 X42.6677 Y2.7814
G01 X42.6704 Y2.7774
G01 X42.6720 Y2.7737
G01 X42.6729 Y2.7705
G01 X42.6734 Y2.7656
G01 X42.6729 Y2.7608
G01 X42.6715 Y2.7561
G01 X42.6692 Y2.7518
G01 X42.6650 Y2.7468
G01 X42.5929 Y2.6749
G01 X42.5889 Y2.6722
G01 X42.5852 Y2.6706
G01 X42.5820 Y2.6697
G01 X42.5771 Y2.6692
G01 X42.5722 Y2.6696
G01 X42.5675 Y2.6710
G01 X42.5632 Y2.6733
G01 X42.5582 Y2.6775
G01 X42.4863 Y2.7496
G01 X42.4836 Y2.7537
G01 X42.4820 Y2.7574
G01 X42.4811 Y2.7606
G01 X42.4806 Y2.7655
G00 Z1.0000
G00 X43.1950 Y2.1248
G01 F300.00
G01 Z-0.1000
G01 F600.00
G01 X43.1959 Y2.1296
G01 X43.1982 Y2.1353
G01 X43.2681 Y2.2751
G01 X43.2699 Y2.2785
G01 X43.2728 Y2.2824
G01 X43.2765 Y2.2857
G01 X43.2815 Y2.2887
G01 X43.4212 Y2.3585
G01 X43.4249 Y2.3602
G01 X43.4296 Y2.3615
G01 X43.4357 Y2.3620
G01 X43.7179 Y2.3620
G01 X43.7244 Y2.3615
G01 X43.7291 Y2.3602
G01 X43.7325 Y2.3586
G01 X43.8723 Y2.2888
G01 X43.8775 Y2.2857
G01 X43.8812 Y2.2824
G01 X43.8841 Y2.2785
G01 X43.8857 Y2.2755
G01 X43.9557 Y2.1356
G01 X43.9573 Y2.1319
G01 X43.9587 Y2.1272
G01 X43.9592 Y2.1211
G01 X43.9590 Y1.9775
G01 X43.9581 Y1.9727
G01 X43.9562 Y1.9682
G01 X43.9535 Y1.9640
G01 X43.9500 Y1.9605
G01 X43.9438 Y1.9568
G01 X43.9375 Y1.9550
G01 X43.3454 Y1.8365
G01 X43.3300 Y1.8324
G01 X43.3203 Y1.8287
G01 X43.3109 Y1.8242
G01 X43.3019 Y1.8188
G01 X43.2934 Y1.8128
G01 X43.2878 Y1.8081
G01 X43.2802 Y1.8010
G01 X43.2732 Y1.7932
G01 X43.2670 Y1.7849
G01 X43.2615 Y1.7760
G01 X43.2580 Y1.7696
G01 X43.2537 Y1.7601
G01 X43.2503 Y1.7502
G01 X43.2467 Y1.7347
G01 X43.2454 Y1.7244
G01 X43.2449 Y1.7140
G01 X43.2450 Y1.5832
G01 X43.2454 Y1.5751
G01 X43.2468 Y1.5653
G01 X43.2488 Y1.5557
G01 X43.2507 Y1.5490
G01 X43.2541 Y1.5398
G01 X43.2581 Y1.5308
G01 X43.2913 Y1.4643
G01 X43.2988 Y1.4514
G01 X43.3034 Y1.4448
G01 X43.3096 Y1.4373
G01 X43.3202 Y1.4267
G01 X43.3277 Y1.4205
G01 X43.3343 Y1.4159
G01 X43.3472 Y1.4084
G01 X43.4137 Y1.3752
G01 X43.4226 Y1.3712
G01 X43.4369 Y1.3664
G01 X43.4465 Y1.3642
G01 X43.4545 Y1.3630
G01 X43.4696 Y1.3620
G01 X43.6844 Y1.3620
G01 X43.6925 Y1.3623
G01 X43.6995 Y1.3630
G01 X43.7109 Y1.3649
G01 X43.7204 Y1.3673
G01 X43.7314 Y1.3712
G01 X43.7403 Y1.3752
G01 X43.8496 Y1.4299
G01 X43.8561 Y1.4325
G01 X43.8633 Y1.4333
G01 X43.8705 Y1.4321
G01 X43.8770 Y1.4288
G01 X43.8791 Y1.4272
G01 X43.8824 Y1.4237
G01 X43.8860 Y1.4174
G01 X43.8876 Y1.4102
G01 X43.8870 Y1.4029
G01 X43.8844 Y1.3961
G01 X43.8800 Y1.3904
G01 X43.8761 Y1.3873
G01 X43.8723 Y1.3852
G01 X43.7328 Y1.3154
G01 X43.7291 Y1.3138
G01 X43.7244 Y1.3124
G01 X43.7183 Y1.3119
G01 X43.4361 Y1.3119
G01 X43.4296 Y1.3124
G01 X43.4249 Y1.3138
G01 X43.4215 Y1.3153
G01 X43.2817 Y1.3852
G01 X43.2765 Y1.3883
G01 X43.2728 Y1.3915
G01 X43.2699 Y1.3955
G01 X43.2683 Y1.3984
G01 X43.1983 Y1.5383
G01 X43.1959 Y1.5443
G01 X43.1950 Y1.5491
G01 X43.1950 Y2.1248
G00 Z1.0000
G00 X43.4696 Y2.3119
G01 F300.00
G01 Z-0.1000
G01 F600.00
G01 X43.4580 Y2.3114
G01 X43.4465 Y2.3098
G01 X43.4352 Y2.3071
G01 X43.4226 Y2.3028
G01 X43.4137 Y2.2987
G01 X43.3457 Y2.2647
G01 X43.3357 Y2.2590
G01 X43.3250 Y2.2513
G01 X43.3176 Y2.2449
G01 X43.3096 Y2.2366
G01 X43.3034 Y2.2291
G01 X43.2969 Y2.2196
G01 X43.2913 Y2.2096
G01 X43.2581 Y2.1432
G01 X43.2541 Y2.1342
G01 X43.2502 Y2.1233
G01 X43.2474 Y2.1120
G01 X43.2456 Y2.1006
G01 X43.2450 Y2.0907
G01 X43.2449 Y2.0182
G01 X43.2457 Y2.0059
G01 X43.2477 Y1.9938
G01 X43.2503 Y1.9837
G01 X43.2544 Y1.9721
G01 X43.2597 Y1.9610
G01 X43.2660 Y1.9505
G01 X43.2733 Y1.9407
G01 X43.2816 Y1.9316
G01 X43.2907 Y1.9233
G01 X43.3005 Y1.9160
G01 X43.3111 Y1.9097
G01 X43.3222 Y1.9045
G01 X43.3337 Y1.9004
G01 X43.3456 Y1.8974
G01 X43.3578 Y1.8956
G01 X43.3700 Y1.8950
G01 X43.3823 Y1.8956
G01 X43.3944 Y1.8974
G01 X43.8015 Y1.9789
G01 X43.8115 Y1.9813
G01 X43.8229 Y1.9852
G01 X43.8323 Y1.9894
G01 X43.8387 Y1.9928
G01 X43.8489 Y1.9992
G01 X43.8571 Y2.0055
G01 X43.8660 Y2.0136
G01 X43.8729 Y2.0212
G01 X43.8802 Y2.0309
G01 X43.8865 Y2.0411
G01 X43.8925 Y2.0537
G01 X43.8971 Y2.0668
G01 X43.8992 Y2.0750
G01 X43.9007 Y2.0833
G01 X43.9019 Y2.0971
G01 X43.9018 Y2.1092
G01 X43.9001 Y2.1230
G01 X43.8975 Y2.1348
G01 X43.8937 Y2.1463
G01 X43.8896 Y2.1557
G01 X43.8627 Y2.2096
G01 X43.8571 Y2.2196
G01 X43.8506 Y2.2291
G01 X43.8421 Y2.2392
G01 X43.8325 Y2.2483
G01 X43.8263 Y2.2534
G01 X43.8197 Y2.2580
G01 X43.8068 Y2.2655
G01 X43.7372 Y2.3002
G01 X43.7297 Y2.3034
G01 X43.7204 Y2.3066
G01 X43.7058 Y2.3101
G01 X43.6960 Y2.3114
G01 X43.6844 Y2.3119
G01 X43.4696 Y2.3119
G00 Z1.0000
G00 X44.5521 Y1.5491
G01 F300.00
G01 Z-0.1000
G01 F600.00
G01 X44.5520 Y2.8349
G01 X44.5525 Y2.8418
G01 X44.5539 Y2.8465
G01 X44.5562 Y2.8508
G01 X44.5593 Y2.8545
G01 X44.5631 Y2.8577
G01 X44.5674 Y2.8600
G01 X44.5720 Y2.8614
G01 X44.5769 Y2.8619
G01 X44.5818 Y2.8615
G01 X44.5865 Y2.8600
G01 X44.5908 Y2.8578
G01 X44.5945 Y2.8547
G01 X44.5977 Y2.8508
G01 X44.6000 Y2.8466
G01 X44.6014 Y2.8419
G01 X44.6020 Y2.8353
G01 X44.6020 Y1.5867
G01 X44.6024 Y1.5768
G01 X44.6036 Y1.5671
G01 X44.6049 Y1.5602
G01 X44.6074 Y1.5507
G01 X44.6106 Y1.5414
G01 X44.6145 Y1.5323
G01 X44.6501 Y1.4613
G01 X44.6560 Y1.4514
G01 X44.6606 Y1.4448
G01 X44.6656 Y1.4386
G01 X44.6703 Y1.4335
G01 X44.6786 Y1.4256
G01 X44.6863 Y1.4195
G01 X44.6958 Y1.4131
G01 X44.7044 Y1.4084
G01 X44.8006 Y1.3603
G01 X44.8064 Y1.3568
G01 X44.8101 Y1.3534
G01 X44.8129 Y1.3494
G01 X44.8149 Y1.3449
G01 X44.8160 Y1.3401
G01 X44.8159 Y1.3327
G01 X44.8146 Y1.3281
G01 X44.8124 Y1.3237
G01 X44.8094 Y1.3199
G01 X44.8038 Y1.3154
G01 X44.7969 Y1.3127
G01 X44.7896 Y1.3121
G01 X44.7870 Y1.3124
G01 X44.7824 Y1.3136
G01 X44.6389 Y1.3852
G01 X44.6355 Y1.3870
G01 X44.6317 Y1.3898
G01 X44.6283 Y1.3936
G01 X44.6253 Y1.3986
G01 X44.5555 Y1.5383
G01 X44.5530 Y1.5443
G01 X44.5521 Y1.5491
G00 Z1.0000
G00 X45.2664 Y2.0534
G01 F300.00
G01 Z-0.1000
G01 F600.00
G01 X45.2673 Y2.0582
G01 X45.2696 Y2.0638
G01 X45.3418 Y2.2077
G01 X45.3454 Y2.2122
G01 X45.4157 Y2.2825
G01 X45.4186 Y2.2851
G01 X45.4234 Y2.2882
G01 X45.5640 Y2.3585
G01 X45.5677 Y2.3602
G01 X45.5724 Y2.3615
G01 X45.5785 Y2.3620
G01 X45.8555 Y2.3620
G01 X45.8678 Y2.3626
G01 X45.8799 Y2.3644
G01 X45.8900 Y2.3669
G01 X45.9016 Y2.3709
G01 X45.9112 Y2.3751
G01 X45.9219 Y2.3811
G01 X45.9280 Y2.3852
G01 X45.9362 Y2.3916
G01 X45.9452 Y2.4000
G01 X45.9521 Y2.4077
G01 X45.9595 Y2.4176
G01 X45.9658 Y2.4281
G01 X45.9703 Y2.4375
G01 X45.9746 Y2.4490
G01 X45.9773 Y2.4590
G01 X45.9787 Y2.4663
G01 X45.9801 Y2.4766
G01 X45.9805 Y2.4870
G01 X45.9805 Y2.8349
G01 X45.9811 Y2.8418
G01 X45.9835 Y2.8487
G01 X45.9863 Y2.8528
G01 X45.9917 Y2.8577
G01 X45.9983 Y2.8608
G01 X46.0055 Y2.8619
G01 X46.0104 Y2.8615
G01 X46.0173 Y2.8590
G01 X46.0231 Y2.8547
G01 X46.0263 Y2.8508
G01 X46.0286 Y2.8466
G01 X46.0300 Y2.8419
G01 X46.0306 Y2.8353
G01 X46.0306 Y1.3391
G01 X46.0301 Y1.3322
G01 X46.0286 Y1.3275
G01 X46.0264 Y1.3232
G01 X46.0233 Y1.3194
G01 X46.0194 Y1.3162
G01 X46.0152 Y1.3140
G01 X46.0105 Y1.3125
G01 X46.0032 Y1.3121
G01 X45.9961 Y1.3139
G01 X45.9813 Y1.3208
G01 X45.9717 Y1.3242
G01 X45.9636 Y1.3264
G01 X45.9482 Y1.3292
G01 X45.9345 Y1.3300
G01 X45.9207 Y1.3292
G01 X45.9124 Y1.3280
G01 X45.9024 Y1.3258
G01 X45.8893 Y1.3216
G01 X45.8720 Y1.3138
G01 X45.8648 Y1.3121
G01 X45.5749 Y1.3121
G01 X45.5701 Y1.3130
G01 X45.5644 Y1.3153
G01 X45.4239 Y1.3855
G01 X45.4206 Y1.3874
G01 X45.4161 Y1.3910
G01 X45.3457 Y1.4614
G01 X45.3418 Y1.4662
G01 X45.2698 Y1.6097
G01 X45.2681 Y1.6134
G01 X45.2667 Y1.6181
G01 X45.2663 Y1.6242
G01 X45.2664 Y2.0534
G00 Z1.0000
G00 X45.9114 Y1.3893
G01 F300.00
G01 Z-0.1000
G01 F600.00
G01 X45.9240 Y1.3965
G01 X45.9356 Y1.4052
G01 X45.9421 Y1.4110
G01 X45.9495 Y1.4188
G01 X45.9584 Y1.4302
G01 X45.9659 Y1.4425
G01 X45.9705 Y1.4522
G01 X45.9737 Y1.4604
G01 X45.9754 Y1.4658
G01 X45.9780 Y1.4761
G01 X45.9801 Y1.4905
G01 X45.9805 Y1.5011
G01 X45.9805 Y2.1728
G01 X45.9799 Y2.1854
G01 X45.9784 Y2.1959
G01 X45.9754 Y2.2082
G01 X45.9719 Y2.2183
G01 X45.9698 Y2.2235
G01 X45.9650 Y2.2331
G01 X45.9595 Y2.2422
G01 X45.9562 Y2.2468
G01 X45.9508 Y2.2538
G01 X45.9435 Y2.2616
G01 X45.9311 Y2.2723
G01 X45.9224 Y2.2784
G01 X45.9148 Y2.2828
G01 X45.8816 Y2.2995
G01 X45.8693 Y2.3046
G01 X45.8616 Y2.3071
G01 X45.8520 Y2.3094
G01 X45.8389 Y2.3114
G01 X45.8273 Y2.3119
G01 X45.6107 Y2.3119
G01 X45.6008 Y2.3114
G01 X45.5894 Y2.3098
G01 X45.5781 Y2.3071
G01 X45.5671 Y2.3034
G01 X45.5565 Y2.2987
G01 X45.4671 Y2.2540
G01 X45.4555 Y2.2474
G01 X45.4446 Y2.2396
G01 X45.4361 Y2.2320
G01 X45.3976 Y2.1936
G01 X45.3900 Y2.1852
G01 X45.3863 Y2.1805
G01 X45.3809 Y2.1728
G01 X45.3752 Y2.1629
G01 X45.3295 Y2.0717
G01 X45.3242 Y2.0595
G01 X45.3211 Y2.0502
G01 X45.3185 Y2.0389
G01 X45.3169 Y2.0274
G01 X45.3164 Y2.0176
G01 X45.3163 Y1.6581
G01 X45.3169 Y1.6465
G01 X45.3185 Y1.6351
G01 X45.3211 Y1.6238
G01 X45.3248 Y1.6128
G01 X45.3295 Y1.6022
G01 X45.3752 Y1.5110
G01 X45.3809 Y1.5012
G01 X45.3863 Y1.4935
G01 X45.3900 Y1.4887
G01 X45.3976 Y1.4803
G01 X45.4361 Y1.4419
G01 X45.4446 Y1.4344
G01 X45.4555 Y1.4265
G01 X45.4671 Y1.4199
G01 X45.5565 Y1.3752
G01 X45.5671 Y1.3705
G01 X45.5781 Y1.3668
G01 X45.5894 Y1.3642
G01 X45.6008 Y1.3626
G01 X45.6107 Y1.3620
G01 X45.8273 Y1.3620
G01 X45.8354 Y1.3623
G01 X45.8423 Y1.3630
G01 X45.8520 Y1.3645
G01 X45.8616 Y1.3668
G01 X45.8710 Y1.3699
G01 X45.8816 Y1.3745
G01 X45.9114 Y1.3893
G00 Z1.0000
G00 X47.6949 Y2.3359
G01 F300.00
G01 Z-0.1000
G01 F600.00
G01 X47.6952 Y2.3406
G01 X47.6963 Y2.3453
G01 X47.6997 Y2.3517
G01 X47.7050 Y2.3570
G01 X47.7092 Y2.3595
G01 X47.7138 Y2.3612
G01 X47.7186 Y2.3619
G01 X47.7235 Y2.3617
G01 X47.7305 Y2.3595
G01 X47.7346 Y2.3571
G01 X47.7383 Y2.3538
G01 X47.7424 Y2.3477
G01 X47.9593 Y1.7411
G01 X47.9640 Y1.7297
G01 X47.9688 Y1.7205
G01 X47.9777 Y1.7072
G01 X47.9843 Y1.6992
G01 X47.9904 Y1.6931
G01 X48.0025 Y1.6827
G01 X48.0143 Y1.6750
G01 X48.0235 Y1.6701
G01 X48.0314 Y1.6667
G01 X48.0466 Y1.6619
G01 X48.0623 Y1.6590
G01 X48.0709 Y1.6583
G01 X48.0813 Y1.6582
G01 X48.0954 Y1.6595
G01 X48.1109 Y1.6628
G01 X48.1191 Y1.6654
G01 X48.1288 Y1.6693
G01 X48.1413 Y1.6759
G01 X48.1544 Y1.6850
G01 X48.1610 Y1.6905
G01 X48.1684 Y1.6978
G01 X48.1774 Y1.7087
G01 X48.1861 Y1.7221
G01 X48.1908 Y1.7314
G01 X48.1947 Y1.7411
G01 X48.4115 Y2.3475
G01 X48.4156 Y2.3536
G01 X48.4212 Y2.3583
G01 X48.4280 Y2.3611
G01 X48.4353 Y2.3619
G01 X48.4424 Y2.3605
G01 X48.4489 Y2.3571
G01 X48.4541 Y2.3519
G01 X48.4576 Y2.3455
G01 X48.4588 Y2.3407
G01 X48.4591 Y2.3358
G01 X48.4584 Y2.3310
G01 X48.4572 Y2.3270
G01 X48.1012 Y1.3304
G01 X48.0985 Y1.3242
G01 X48.0956 Y1.3203
G01 X48.0907 Y1.3161
G01 X48.0855 Y1.3135
G01 X48.0808 Y1.3123
G01 X48.0759 Y1.3120
G01 X48.0710 Y1.3127
G01 X48.0663 Y1.3144
G01 X48.0622 Y1.3169
G01 X48.0586 Y1.3201
G01 X48.0557 Y1.3241
G01 X48.0529 Y1.3299
G01 X47.6970 Y2.3266
G01 X47.6957 Y2.3308
G01 X47.6949 Y2.3359
G00 Z1.0000
G00 X48.0410 Y1.5864
G01 F300.00
G01 Z-0.1000
G01 F600.00
G01 X48.0504 Y1.5849
G01 X48.0626 Y1.5836
G01 X48.0795 Y1.5832
G01 X48.0942 Y1.5839
G01 X48.1036 Y1.5849
G01 X48.1130 Y1.5864
G01 X48.0770 Y1.4855
G01 X48.0410 Y1.5864
G00 Z1.0000
G00 X48.9096 Y1.9035
G01 F300.00
G01 Z-0.1000
G01 F600.00
G01 X48.9091 Y1.9096
G01 X48.9091 Y2.2638
G01 X48.9096 Y2.2705
G01 X48.9821 Y2.5599
G01 X49.0541 Y2.7044
G01 X49.0575 Y2.7097
G01 X49.1300 Y2.7825
G01 X49.1348 Y2.7865
G01 X49.2783 Y2.8585
G01 X49.2820 Y2.8602
G01 X49.2867 Y2.8615
G01 X49.2928 Y2.8620
G01 X49.4322 Y2.8620
G01 X49.4362 Y2.8619
G01 X49.4411 Y2.8610
G01 X49.4468 Y2.8586
G01 X49.5873 Y2.7884
G01 X49.5926 Y2.7851
G01 X49.6654 Y2.7126
G01 X49.6694 Y2.7077
G01 X49.7419 Y2.5632
G01 X49.7444 Y2.5566
G01 X49.8152 Y2.2733
G01 X49.8163 Y2.2667
G01 X49.8163 Y1.9102
G01 X49.8158 Y1.9035
G01 X49.7433 Y1.6140
G01 X49.6713 Y1.4696
G01 X49.6680 Y1.4642
G01 X49.5954 Y1.3914
G01 X49.5906 Y1.3874
G01 X49.4471 Y1.3154
G01 X49.4434 Y1.3138
G01 X49.4387 Y1.3124
G01 X49.4326 Y1.3119
G01 X49.2933 Y1.3119
G01 X49.2892 Y1.3121
G01 X49.2844 Y1.3130
G01 X49.2787 Y1.3153
G01 X49.1377 Y1.3857
G01 X49.1348 Y1.3874
G01 X49.1304 Y1.3910
G01 X49.0600 Y1.4614
G01 X49.0560 Y1.4662
G01 X48.9835 Y1.6107
G01 X48.9811 Y1.6173
G01 X48.9096 Y1.9035
G00 Z1.0000
G00 X49.2708 Y1.3752
G01 F300.00
G01 Z-0.1000
G01 F600.00
G01 X49.2814 Y1.3705
G01 X49.2941 Y1.3664
G01 X49.3054 Y1.3639
G01 X49.3186 Y1.3623
G01 X49.3267 Y1.3620
G01 X49.4022 Y1.3621
G01 X49.4103 Y1.3626
G01 X49.4201 Y1.3639
G01 X49.4347 Y1.3673
G01 X49.4440 Y1.3705
G01 X49.4546 Y1.3752
G01 X49.5440 Y1.4199
G01 X49.5557 Y1.4265
G01 X49.5665 Y1.4344
G01 X49.5751 Y1.4419
G01 X49.6163 Y1.4832
G01 X49.6225 Y1.4903
G01 X49.6280 Y1.4978
G01 X49.6360 Y1.5110
G01 X49.6901 Y1.6192
G01 X49.6962 Y1.6336
G01 X49.6995 Y1.6447
G01 X49.7625 Y1.8966
G01 X49.7646 Y1.9071
G01 X49.7656 Y1.9143
G01 X49.7662 Y1.9269
G01 X49.7662 Y2.2471
G01 X49.7654 Y2.2614
G01 X49.7625 Y2.2774
G01 X49.6995 Y2.5292
G01 X49.6948 Y2.5442
G01 X49.6901 Y2.5548
G01 X49.6369 Y2.6611
G01 X49.6303 Y2.6728
G01 X49.6225 Y2.6837
G01 X49.6149 Y2.6922
G01 X49.5751 Y2.7320
G01 X49.5633 Y2.7420
G01 X49.5557 Y2.7474
G01 X49.5476 Y2.7521
G01 X49.4531 Y2.7995
G01 X49.4440 Y2.8034
G01 X49.4330 Y2.8071
G01 X49.4218 Y2.8098
G01 X49.4103 Y2.8114
G01 X49.3987 Y2.8119
G01 X49.3267 Y2.8119
G01 X49.3169 Y2.8115
G01 X49.3071 Y2.8103
G01 X49.3003 Y2.8091
G01 X49.2907 Y2.8066
G01 X49.2798 Y2.8028
G01 X49.2708 Y2.7987
G01 X49.1814 Y2.7540
G01 X49.1681 Y2.7463
G01 X49.1589 Y2.7396
G01 X49.1504 Y2.7320
G01 X49.1119 Y2.6936
G01 X49.1030 Y2.6837
G01 X49.0951 Y2.6728
G01 X49.0885 Y2.6611
G01 X49.0353 Y2.5548
G01 X49.0292 Y2.5403
G01 X49.0259 Y2.5292
G01 X48.9629 Y2.2774
G01 X48.9608 Y2.2669
G01 X48.9598 Y2.2596
G01 X48.9592 Y2.2471
G01 X48.9592 Y1.9269
G01 X48.9600 Y1.9125
G01 X48.9629 Y1.8966
G01 X49.0259 Y1.6447
G01 X49.0292 Y1.6336
G01 X49.0353 Y1.6192
G01 X49.0894 Y1.5110
G01 X49.0951 Y1.5012
G01 X49.1005 Y1.4935
G01 X49.1105 Y1.4818
G01 X49.1504 Y1.4419
G01 X49.1589 Y1.4344
G01 X49.1681 Y1.4277
G01 X49.1814 Y1.4199
G01 X49.2708 Y1.3752
G00 Z1.0000
G00 X50.3378 Y1.4084
G01 F300.00
G01 Z-0.1000
G01 F600.00
G01 X50.4334 Y1.4084
G00 Z1.0000
G00 X50.4334 Y1.4084
G01 F300.00
G01 Z-0.1000
G01 F600.00
G01 X50.4341 Y1.4092
G01 X50.4349 Y1.4084
G01 X50.4341 Y1.4076
G01 X50.4334 Y1.4084
G00 Z1.0000
G00 X50.3378 Y1.4084
G01 F300.00
G01 Z-0.1000
G01 F600.00
G01 X50.3382 Y1.4132
G01 X50.3396 Y1.4179
G01 X50.3419 Y1.4222
G01 X50.3461 Y1.4272
G01 X50.4182 Y1.4991
G01 X50.4223 Y1.5018
G01 X50.4260 Y1.5034
G01 X50.4292 Y1.5043
G01 X50.4341 Y1.5048
G01 X50.4389 Y1.5043
G01 X50.4436 Y1.5029
G01 X50.4479 Y1.5006
G01 X50.4529 Y1.4964
G01 X50.5248 Y1.4243
G01 X50.5275 Y1.4203
G01 X50.5291 Y1.4166
G01 X50.5300 Y1.4134
G01 X50.5305 Y1.4085
G01 X50.5301 Y1.4036
G01 X50.5287 Y1.3989
G01 X50.5264 Y1.3946
G01 X50.5222 Y1.3896
G01 X50.4500 Y1.3177
G01 X50.4460 Y1.3150
G01 X50.4423 Y1.3134
G01 X50.4391 Y1.3125
G01 X50.4342 Y1.3120
G01 X50.4294 Y1.3125
G01 X50.4247 Y1.3139
G01 X50.4204 Y1.3162
G01 X50.4153 Y1.3204
G01 X50.3435 Y1.3925
G01 X50.3408 Y1.3965
G01 X50.3392 Y1.4002
G01 X50.3383 Y1.4034
G01 X50.3378 Y1.4084
G00 Z1.0000
G00 X51.0520 Y1.3371
G01 F300.00
G01 Z-0.1000
G01 F600.00
G01 X51.0525 Y1.3418
G01 X51.0539 Y1.3465
G01 X51.0562 Y1.3508
G01 X51.0593 Y1.3545
G01 X51.0631 Y1.3577
G01 X51.0674 Y1.3600
G01 X51.0745 Y1.3618
G01 X51.3574 Y1.3620
G01 X51.3678 Y1.3626
G01 X51.3763 Y1.3638
G01 X51.3900 Y1.3669
G01 X51.4034 Y1.3715
G01 X51.4176 Y1.3786
G01 X51.4250 Y1.3831
G01 X51.4334 Y1.3892
G01 X51.4439 Y1.3986
G01 X51.4533 Y1.4092
G01 X51.4595 Y1.4176
G01 X51.4639 Y1.4249
G01 X51.4703 Y1.4375
G01 X51.4751 Y1.4507
G01 X51.4777 Y1.4608
G01 X51.4795 Y1.4711
G01 X51.4805 Y1.4870
G01 X51.4805 Y2.4033
G01 X51.4799 Y2.4155
G01 X51.4781 Y2.4277
G01 X51.4751 Y2.4396
G01 X51.4703 Y2.4528
G01 X51.4658 Y2.4622
G01 X51.4605 Y2.4712
G01 X51.4544 Y2.4797
G01 X51.4497 Y2.4854
G01 X51.4426 Y2.4930
G01 X51.4348 Y2.4999
G01 X51.4265 Y2.5062
G01 X51.4176 Y2.5117
G01 X51.4112 Y2.5152
G01 X51.4016 Y2.5195
G01 X51.3918 Y2.5229
G01 X51.3817 Y2.5255
G01 X51.3714 Y2.5272
G01 X51.3641 Y2.5280
G01 X51.3537 Y2.5283
G01 X51.3433 Y2.5277
G01 X51.3311 Y2.5259
G01 X51.3192 Y2.5229
G01 X51.3077 Y2.5188
G01 X51.2950 Y2.5126
G01 X51.2846 Y2.5062
G01 X51.2748 Y2.4987
G01 X51.2671 Y2.4917
G01 X51.2380 Y2.4625
G01 X51.2335 Y2.4589
G01 X51.0860 Y2.3851
G01 X51.0813 Y2.3838
G01 X51.0739 Y2.3836
G01 X51.0691 Y2.3847
G01 X51.0627 Y2.3880
G01 X51.0589 Y2.3912
G01 X51.0547 Y2.3972
G01 X51.0529 Y2.4018
G01 X51.0521 Y2.4090
G01 X51.0533 Y2.4163
G01 X51.0553 Y2.4207
G01 X51.0598 Y2.4265
G01 X51.0636 Y2.4295
G01 X51.1887 Y2.4923
G01 X51.1985 Y2.4980
G01 X51.2062 Y2.5034
G01 X51.2109 Y2.5071
G01 X51.2194 Y2.5148
G01 X51.3345 Y2.6299
G01 X51.3439 Y2.6405
G01 X51.3501 Y2.6489
G01 X51.4862 Y2.8528
G01 X51.4916 Y2.8577
G01 X51.4982 Y2.8608
G01 X51.5055 Y2.8619
G01 X51.5127 Y2.8609
G01 X51.5172 Y2.8590
G01 X51.5206 Y2.8569
G01 X51.5231 Y2.8547
G01 X51.5263 Y2.8509
G01 X51.5294 Y2.8443
G01 X51.5304 Y2.8395
G01 X51.5306 Y2.8355
G01 X51.5306 Y1.4870
G01 X51.5311 Y1.4766
G01 X51.5324 Y1.4663
G01 X51.5360 Y1.4507
G01 X51.5409 Y1.4375
G01 X51.5472 Y1.4249
G01 X51.5517 Y1.4176
G01 X51.5578 Y1.4092
G01 X51.5672 Y1.3986
G01 X51.5778 Y1.3892
G01 X51.5862 Y1.3831
G01 X51.5935 Y1.3786
G01 X51.6078 Y1.3715
G01 X51.6211 Y1.3669
G01 X51.6312 Y1.3644
G01 X51.6397 Y1.3631
G01 X51.6538 Y1.3620
G01 X51.9364 Y1.3618
G01 X51.9413 Y1.3609
G01 X51.9458 Y1.3590
G01 X51.9500 Y1.3562
G01 X51.9549 Y1.3508
G01 X51.9580 Y1.3443
G01 X51.9590 Y1.3395
G01 X51.9590 Y1.3346
G01 X51.9580 Y1.3298
G01 X51.9562 Y1.3253
G01 X51.9534 Y1.3211
G01 X51.9480 Y1.3162
G01 X51.9414 Y1.3131
G01 X51.9366 Y1.3122
G01 X51.9325 Y1.3119
G01 X51.0791 Y1.3119
G01 X51.0722 Y1.3125
G01 X51.0675 Y1.3139
G01 X51.0632 Y1.3162
G01 X51.0595 Y1.3192
G01 X51.0563 Y1.3231
G01 X51.0540 Y1.3273
G01 X51.0526 Y1.3320
G01 X51.0520 Y1.3371
G00 Z1.0000
G00 X51.4051 Y2.5970
G01 F300.00
G01 Z-0.1000
G01 F600.00
G01 X51.4125 Y2.6073
G01 X51.4556 Y2.6720
G01 X51.4556 Y2.5764
G01 X51.4457 Y2.5818
G01 X51.4312 Y2.5884
G01 X51.4162 Y2.5938
G01 X51.4051 Y2.5970
G00 Z1.0000
M05
G00 Z1.0000
G00 Z15.00


